; Generated with MatterSlice 1.0
; filamentDiameter = 2.85
; extrusionWidth = 0.5
; firstLayerExtrusionWidth = 0.5
; layerThickness = 0.2
; firstLayerThickness = 0.42
; automatic settings before start_gcode
G21 ; set units to millimeters
M107 ; fan off
M190 S115 ; wait for bed temperature to be reached
M104 T0 S240 ; start heating extruder 1
T0 ; set the active extruder to 0
; settings from start_gcode
G28 ; home all axes
M117 HD Printing...
; automatic settings after start_gcode
M109 T0 S240 ; wait for extruder 1 to reach temperature
T0 ; set the active extruder to 0
G90 ; use absolute coordinates
G92 E0 ; reset the expected extruder position
M82 ; use absolute distance for extrusion
; Layer count: 42
; Layer Change GCode
; LAYER:0
M400
M107
G0 F6000 X152.326 Y94.351 Z0.42
; TYPE:SKIRT
G1 F3000 E0
G1 F549 X154.294 Y95.665 E0.0779
G1 X155.641 Y97.654 E0.15697
G1 X156.1 Y99.972 E0.23476
G1 X155.649 Y102.326 E0.31366
G1 X154.335 Y104.294 E0.39156
G1 X152.346 Y105.641 E0.47063
G1 X150.028 Y106.1 E0.54842
G1 X147.674 Y105.649 E0.62732
G1 X145.706 Y104.335 E0.70522
G1 X144.359 Y102.346 E0.78429
G1 X143.9 Y100.028 E0.86208
G1 X144.351 Y97.674 E0.94098
G1 X145.665 Y95.706 E1.01887
G1 X147.654 Y94.359 E1.09795
G1 X149.972 Y93.9 E1.17574
G1 X152.326 Y94.351 E1.25464
G0 F6000 X152.133 Y94.823
G1 F549 X153.935 Y96.026 E1.32596
G1 X155.17 Y97.85 E1.39847
G1 X155.591 Y99.973 E1.46972
G1 X155.177 Y102.133 E1.54212
G1 X153.974 Y103.935 E1.61344
G1 X152.15 Y105.17 E1.68595
G1 X150.027 Y105.591 E1.7572
G1 X147.867 Y105.177 E1.8296
G1 X146.065 Y103.974 E1.90092
G1 X144.83 Y102.15 E1.97343
G1 X144.409 Y100.027 E2.04468
G1 X144.823 Y97.867 E2.11708
G1 X146.026 Y96.065 E2.1884
G1 X147.85 Y94.83 E2.26091
G1 X149.973 Y94.409 E2.33216
G1 X152.133 Y94.823 E2.40456
G0 F6000 X151.94 Y95.295
G1 F549 X153.576 Y96.388 E2.46932
G1 X154.7 Y98.047 E2.53529
G1 X155.081 Y99.975 E2.59998
G1 X154.705 Y101.94 E2.66584
G1 X153.612 Y103.576 E2.73061
G1 X151.953 Y104.7 E2.79658
G1 X150.025 Y105.081 E2.86127
G1 X148.06 Y104.705 E2.92713
G1 X146.424 Y103.612 E2.9919
G1 X145.3 Y101.953 E3.05786
G1 X144.919 Y100.025 E3.12256
G1 X145.295 Y98.06 E3.18841
G1 X146.388 Y96.424 E3.25318
G1 X148.047 Y95.3 E3.31915
G1 X149.975 Y94.919 E3.38384
G1 X151.94 Y95.295 E3.4497
G1 F3000 E-3.5503
G0 F6000 X151.901 Y96.173
G0 X151.069 Y97.419
G0 X150.976 Y97.643
; TYPE:FILL
G1 F3000 E3.4497
G1 F549 X151.847 Y98.112 E3.48227
G0 F6000 X151.883 Y98.153
G1 F549 X152.357 Y99.024 E3.51491
G1 X152.64 Y99.972 E3.54748
G0 F6000 X152.638 Y100.026
G1 F549 X152.357 Y100.976 E3.58009
G1 X151.887 Y101.847 E3.61267
G0 F6000 X151.846 Y101.883
G1 F549 X150.976 Y102.357 E3.64528
G1 X150.028 Y102.64 E3.67785
G0 F6000 X149.974 Y102.638
G1 F549 X149.023 Y102.357 E3.71049
G1 X148.153 Y101.887 E3.74304
G0 F6000 X148.116 Y101.846
G1 F549 X147.642 Y100.976 E3.77566
G1 X147.359 Y100.028 E3.80822
G0 F6000 X147.362 Y99.974
G1 F549 X147.643 Y99.023 E3.84087
G1 X148.112 Y98.153 E3.8734
G0 F6000 X148.153 Y98.116
G1 F549 X149.024 Y97.642 E3.90605
G1 X149.972 Y97.359 E3.93861
G0 F6000 X150.026 Y97.362
G1 F549 X150.976 Y97.643 E3.97123
; Layer Change GCode
; LAYER:1
G1 F3000 E-3.02877
G0 F6000 X150 Y102.771 Z0.62
; TYPE:WALL-OUTER
G1 F3000 E3.97123
G1 F126 X151.958 Y101.958 E4.00446
G1 X152.771 Y100 E4.03769
G1 X151.958 Y98.042 E4.07093
G1 X150 Y97.229 E4.10416
G1 X148.042 Y98.042 E4.13739
G1 X147.229 Y100 E4.17063
G1 X148.042 Y101.958 E4.20386
G1 X150 Y102.771 E4.23709
G0 F6000 X150 Y102.848
G1 F126 X148.911 Y102.632 E4.25449
G1 X147.986 Y102.014 E4.27193
G1 X147.368 Y101.089 E4.28937
G1 X147.152 Y100 E4.30677
G1 X147.368 Y98.911 E4.32418
G1 X147.986 Y97.986 E4.34162
G1 X148.911 Y97.368 E4.35905
G1 X150 Y97.152 E4.37646
G1 X151.089 Y97.368 E4.39386
G1 X152.014 Y97.986 E4.4113
G1 X152.632 Y98.911 E4.42874
G1 X152.848 Y100 E4.44614
G1 X152.632 Y101.089 E4.46354
G1 X152.014 Y102.014 E4.48098
G1 X151.089 Y102.632 E4.49842
G1 X150 Y102.848 E4.51582
; Layer Change GCode
; LAYER:2
G0 F6000 X150 Y102.771 Z0.82
; TYPE:WALL-OUTER
G1 F144 X151.958 Y101.958 E4.54906
G1 X152.771 Y100 E4.58229
G1 X151.958 Y98.042 E4.61552
G1 X150 Y97.229 E4.64876
G1 X148.042 Y98.042 E4.68199
G1 X147.229 Y100 E4.71522
G1 X148.042 Y101.958 E4.74845
G1 X150 Y102.771 E4.78169
G0 F6000 X150 Y103.048
G1 F144 X148.834 Y102.817 E4.80032
G1 X147.844 Y102.156 E4.81898
G1 X147.183 Y101.166 E4.83764
G1 X146.952 Y100 E4.85627
G1 X147.183 Y98.834 E4.87491
G1 X147.844 Y97.844 E4.89357
G1 X148.834 Y97.183 E4.91223
G1 X150 Y96.952 E4.93086
G1 X151.166 Y97.183 E4.94949
G1 X152.156 Y97.844 E4.96815
G1 X152.817 Y98.834 E4.98681
G1 X153.048 Y100 E5.00544
G1 X152.817 Y101.166 E5.02408
G1 X152.156 Y102.156 E5.04274
G1 X151.166 Y102.817 E5.0614
G1 X150 Y103.048 E5.08003
; Layer Change GCode
; LAYER:3
G0 F6000 X150 Y103.248 Z1.02
; TYPE:WALL-OUTER
G1 F144 X148.758 Y103.001 E5.09988
G1 X147.703 Y102.297 E5.11976
G1 X146.999 Y101.242 E5.13964
G1 X146.752 Y100 E5.15949
G1 X146.999 Y98.758 E5.17934
G1 X147.703 Y97.703 E5.19922
G1 X148.758 Y96.999 E5.21911
G1 X150 Y96.752 E5.23896
G1 X151.242 Y96.999 E5.25881
G1 X152.297 Y97.703 E5.27869
G1 X153.001 Y98.758 E5.29857
G1 X153.248 Y100 E5.31842
G1 X153.001 Y101.242 E5.33827
G1 X152.297 Y102.297 E5.35815
G1 X151.242 Y103.001 E5.37803
G1 X150 Y103.248 E5.39788
G0 F6000 X150 Y102.771
G1 F144 X151.958 Y101.958 E5.43112
G1 X152.771 Y100 E5.46435
G1 X151.958 Y98.042 E5.49758
G1 X150 Y97.229 E5.53082
G1 X148.042 Y98.042 E5.56405
G1 X147.229 Y100 E5.59728
G1 X148.042 Y101.958 E5.63052
G1 X150 Y102.771 E5.66375
; Layer Change GCode
; LAYER:4
G0 F6000 X150 Y102.771 Z1.22
; TYPE:WALL-OUTER
G1 F216 X151.958 Y101.958 E5.69698
G1 X152.771 Y100 E5.73022
G1 X151.958 Y98.042 E5.76345
G1 X150 Y97.229 E5.79668
G1 X148.042 Y98.042 E5.82992
G1 X147.229 Y100 E5.86315
G1 X148.042 Y101.958 E5.89638
G1 X150 Y102.771 E5.92961
G0 F6000 X150 Y103.448
G1 F216 X148.681 Y103.186 E5.95069
G1 X147.562 Y102.438 E5.97179
G1 X146.814 Y101.319 E5.99289
G1 X146.552 Y100 E6.01397
G1 X146.814 Y98.681 E6.03505
G1 X147.562 Y97.562 E6.05615
G1 X148.681 Y96.814 E6.07725
G1 X150 Y96.552 E6.09833
G1 X151.319 Y96.814 E6.11941
G1 X152.438 Y97.562 E6.14051
G1 X153.186 Y98.681 E6.16161
G1 X153.448 Y100 E6.18269
G1 X153.186 Y101.319 E6.20377
G1 X152.438 Y102.438 E6.22487
G1 X151.319 Y103.186 E6.24596
G1 X150 Y103.448 E6.26704
G0 F6000 X149.986 Y103.114
; TYPE:FILL
G1 F216 X148.853 Y102.773 E6.27253
G1 X147.808 Y102.211 E6.27804
G0 F6000 X147.788 Y102.191
G1 F216 X147.226 Y101.146 E6.28355
G1 X146.886 Y100.014 E6.28903
G0 F6000 X146.885 Y99.986
G1 F216 X147.226 Y98.853 E6.29452
G1 X147.788 Y97.808 E6.30003
G0 F6000 X147.808 Y97.788
G1 F216 X148.854 Y97.226 E6.30553
G1 X149.985 Y96.886 E6.31101
G0 F6000 X150.014 Y96.885
G1 F216 X151.147 Y97.226 E6.31654
G1 X152.191 Y97.788 E6.32204
G0 F6000 X152.211 Y97.808
G1 F216 X152.774 Y98.854 E6.32755
G1 X153.114 Y99.985 E6.33303
G0 F6000 X153.114 Y100.014
G1 F216 X152.773 Y101.147 E6.33852
G1 X152.211 Y102.191 E6.34403
G0 F6000 X152.191 Y102.211
G1 F216 X151.146 Y102.774 E6.34953
G1 X150.014 Y103.114 E6.35502
; Layer Change GCode
; LAYER:5
G0 F6000 X150 Y102.771 Z1.42
; TYPE:WALL-OUTER
G1 F144 X151.958 Y101.958 E6.38825
G1 X152.771 Y100 E6.42148
G1 X151.958 Y98.042 E6.45472
G1 X150 Y97.229 E6.48795
G1 X148.042 Y98.042 E6.52118
G1 X147.229 Y100 E6.55442
G1 X148.042 Y101.958 E6.58765
G1 X150 Y102.771 E6.62088
G0 F6000 X150.806 Y102.978
G0 X150 Y103.648
G1 F144 X148.605 Y103.371 E6.64318
G1 X147.42 Y102.58 E6.66551
G1 X146.629 Y101.395 E6.68784
G1 X146.352 Y100 E6.71014
G1 X146.629 Y98.605 E6.73243
G1 X147.42 Y97.42 E6.75477
G1 X148.605 Y96.629 E6.7771
G1 X150 Y96.352 E6.79939
G1 X151.395 Y96.629 E6.82169
G1 X152.58 Y97.42 E6.84402
G1 X153.371 Y98.605 E6.86636
G1 X153.648 Y100 E6.88865
G1 X153.371 Y101.395 E6.91094
G1 X152.58 Y102.58 E6.93328
G1 X151.395 Y103.371 E6.95561
G1 X150 Y103.648 E6.97791
; Layer Change GCode
; LAYER:6
G0 F6000 X150 Y103.848 Z1.62
; TYPE:WALL-OUTER
G1 F216 X148.529 Y103.555 E7.00142
G1 X147.279 Y102.721 E7.02497
G1 X146.445 Y101.471 E7.04853
G1 X146.152 Y100 E7.07204
G1 X146.445 Y98.529 E7.09555
G1 X147.279 Y97.279 E7.11911
G1 X148.529 Y96.445 E7.14266
G1 X150 Y96.152 E7.16617
G1 X151.471 Y96.445 E7.18968
G1 X152.721 Y97.279 E7.21324
G1 X153.555 Y98.529 E7.2368
G1 X153.848 Y100 E7.26031
G1 X153.555 Y101.471 E7.28382
G1 X152.721 Y102.721 E7.30737
G1 X151.471 Y103.555 E7.33093
G1 X150 Y103.848 E7.35444
G0 F6000 X150 Y103.338
G0 X150 Y103.312
G0 X149.809 Y103.231
G0 X150 Y102.771
G1 F216 X151.958 Y101.958 E7.38767
G1 X152.771 Y100 E7.42091
G1 X151.958 Y98.042 E7.45414
G1 X150 Y97.229 E7.48737
G1 X148.042 Y98.042 E7.52061
G1 X147.229 Y100 E7.55384
G1 X148.042 Y101.958 E7.58707
G1 X150 Y102.771 E7.62031
G0 F6000 X149.809 Y103.231
G0 X150 Y103.312
G0 X149.747 Y103.206
G0 X149.784 Y103.115
; TYPE:FILL
G1 F216 X150.091 Y103.422 E7.62711
G0 F6000 X150.072 Y103.324
G0 X150.437 Y103.131
G0 X150.448 Y103.125
G0 X150.41 Y103.033
G1 F216 X150.68 Y103.304 E7.63311
G0 F6000 X150.661 Y103.207
G0 X150.948 Y102.918
G0 X150.91 Y102.826
G1 F216 X151.27 Y103.187 E7.6411
G0 F6000 X151.251 Y103.089
G0 X151.597 Y102.87
G0 X151.652 Y102.835
G0 X151.706 Y102.916
G1 F216 X151.409 Y102.618 E7.6477
G0 F6000 X151.447 Y102.711
G0 X152.341 Y102.341
G0 X151.947 Y102.503
G0 X151.909 Y102.411
G1 F216 X152.13 Y102.633 E7.65261
G0 F6000 X152.075 Y102.551
G0 X152.36 Y102.36
G0 X152.432 Y102.255
G0 X152.513 Y102.309
G1 F216 X152.324 Y102.119 E7.65681
G0 F6000 X152.416 Y102.157
G0 X152.715 Y101.83
G0 X152.796 Y101.884
G1 F216 X152.531 Y101.619 E7.66268
G0 F6000 X152.624 Y101.657
G0 X152.341 Y102.341
G0 X152.831 Y101.157
G0 X152.738 Y101.119
G1 F216 X153.08 Y101.461 E7.67026
G0 F6000 X152.998 Y101.406
G0 X153.157 Y100.909
G0 X153.254 Y100.928
G1 F216 X152.945 Y100.619 E7.67711
G0 F6000 X153.038 Y100.657
G0 X153.275 Y100.32
G0 X153.372 Y100.339
G1 F216 X153.153 Y100.12 E7.68197
G0 F6000 X153.245 Y100.158
G0 X153.312 Y100
G0 X153.267 Y99.643
G0 X153.365 Y99.624
G1 F216 X152.822 Y99.082 E7.69399
G0 F6000 X152.914 Y99.044
G0 X153.091 Y98.761
G0 X153.189 Y98.742
G1 F216 X152.322 Y97.874 E7.71323
G0 F6000 X152.413 Y97.837
G0 X152.341 Y97.659
G0 X152.161 Y97.586
G0 X152.124 Y97.676
G1 F216 X151.256 Y96.809 E7.73246
G0 F6000 X151.237 Y96.908
G0 X150.954 Y97.085
G0 X150.917 Y97.176
G1 F216 X150.374 Y96.634 E7.74448
G0 F6000 X150.355 Y96.732
G0 X150 Y96.688
G0 X149.842 Y96.755
G0 X149.879 Y96.846
G1 F216 X149.66 Y96.627 E7.74934
G0 F6000 X149.679 Y96.725
G0 X149.342 Y96.962
G0 X149.379 Y97.053
G1 F216 X149.07 Y96.744 E7.75619
G0 F6000 X149.089 Y96.843
G0 X148.842 Y97.17
G0 X148.879 Y97.26
G1 F216 X148.537 Y96.918 E7.76377
G0 F6000 X148.593 Y97.001
G0 X148.722 Y96.917
G0 X148.169 Y97.285
G0 X148.114 Y97.202
G1 F216 X148.379 Y97.467 E7.76964
G0 F6000 X148.342 Y97.377
G0 X147.842 Y97.584
G0 X147.879 Y97.674
G1 F216 X147.69 Y97.485 E7.77383
G0 F6000 X147.746 Y97.568
G0 X147.64 Y97.64
G0 X147.449 Y97.924
G0 X147.366 Y97.869
G1 F216 X147.587 Y98.089 E7.77872
G0 F6000 X147.497 Y98.052
G0 X147.29 Y98.552
G0 X147.38 Y98.589
G1 F216 X147.083 Y98.292 E7.78531
G0 F6000 X147.166 Y98.347
G0 X146.917 Y98.722
G0 X146.911 Y98.747
G0 X146.811 Y98.728
G1 F216 X147.172 Y99.089 E7.79331
G0 F6000 X147.082 Y99.052
G0 X146.794 Y99.337
G0 X146.694 Y99.318
G1 F216 X146.965 Y99.589 E7.79932
G0 F6000 X146.875 Y99.552
G0 X146.87 Y99.562
G0 X146.676 Y99.927
G0 X146.577 Y99.908
G1 F216 X146.884 Y100.215 E7.80612
G0 F6000 X146.794 Y100.252
G0 X146.806 Y100.726
G0 X146.706 Y100.745
G1 F216 X147.385 Y101.423 E7.82116
G0 F6000 X147.295 Y101.46
G0 X147.408 Y102.015
G0 X147.325 Y102.07
G1 F216 X147.928 Y102.673 E7.83453
G0 F6000 X147.983 Y102.59
G0 X148.53 Y102.702
G0 X148.538 Y102.704
G0 X148.575 Y102.613
G1 F216 X149.253 Y103.292 E7.84957
; Layer Change GCode
; LAYER:7
G0 F6000 X149.253 Y103.292 Z1.82
G0 X149.809 Y103.231
G0 X150 Y102.771
; TYPE:WALL-OUTER
G1 F252 X151.958 Y101.958 E7.88281
G1 X152.771 Y100 E7.91604
G1 X151.958 Y98.042 E7.94927
G1 X150 Y97.229 E7.98251
G1 X148.042 Y98.042 E8.01574
G1 X147.229 Y100 E8.04897
G1 X148.042 Y101.958 E8.0822
G1 X150 Y102.771 E8.11544
G0 F6000 X149.809 Y103.231
G0 X150 Y103.454
G0 X150 Y103.963
G1 F252 X148.482 Y103.659 E8.13971
G1 X147.198 Y102.802 E8.1639
G1 X146.339 Y101.515 E8.18816
G1 X146.037 Y100 E8.21238
G1 X146.341 Y98.482 E8.23664
G1 X147.198 Y97.198 E8.26084
G1 X148.485 Y96.339 E8.2851
G1 X150 Y96.037 E8.30931
G1 X151.518 Y96.341 E8.33358
G1 X152.802 Y97.198 E8.35778
G1 X153.661 Y98.485 E8.38203
G1 X153.963 Y100 E8.40625
G1 X153.659 Y101.518 E8.43052
G1 X152.802 Y102.802 E8.45472
G1 X151.515 Y103.661 E8.47897
G1 X150 Y103.963 E8.50319
G0 F6000 X150 Y103.454
G0 X150.514 Y103.336
; TYPE:FILL
G1 F252 X151.107 Y102.744 E8.51632
G0 F6000 X151.145 Y102.836
G0 X151.233 Y103.208
G0 X151.252 Y103.305
G1 F252 X153.303 Y101.254 E8.56179
G0 F6000 X153.206 Y101.235
G0 X152.836 Y101.145
G0 X152.743 Y101.107
G1 F252 X153.335 Y100.515 E8.57491
G0 F6000 X153.312 Y100
G0 X153.071 Y99.42
G0 X152.977 Y99.459
G1 F252 X153.368 Y99.068 E8.58358
G0 F6000 X153.272 Y99.087
G0 X153.123 Y98.578
G0 X153.205 Y98.524
G1 F252 X152.771 Y98.958 E8.5932
G0 F6000 X152.863 Y98.92
G0 X152.341 Y97.659
G0 X152.656 Y98.42
G0 X152.563 Y98.458
G1 F252 X152.922 Y98.1 E8.60115
G0 F6000 X152.84 Y98.154
G0 X152.441 Y97.559
G0 X152.557 Y97.73
G0 X152.638 Y97.676
G1 F252 X152.356 Y97.959 E8.60741
G0 F6000 X152.449 Y97.921
G0 X152.341 Y97.659
G0 X152.025 Y97.529
G0 X151.988 Y97.62
G1 F252 X152.278 Y97.33 E8.61384
G0 F6000 X152.224 Y97.412
G0 X152.441 Y97.559
G0 X151.8 Y97.129
G0 X151.854 Y97.047
G1 F252 X151.487 Y97.413 E8.62197
G0 F6000 X151.524 Y97.322
G0 X152.341 Y97.659
G0 X151.025 Y97.114
G0 X150.987 Y97.206
G1 F252 X151.43 Y96.764 E8.63178
G0 F6000 X151.376 Y96.846
G0 X150.873 Y96.722
G0 X150.85 Y96.716
G0 X150.869 Y96.618
G1 F252 X150.515 Y96.971 E8.63961
G0 F6000 X150.539 Y96.912
G0 X150 Y96.688
G0 X149.871 Y96.742
G0 X149.494 Y96.646
G0 X149.483 Y96.589
G1 F252 X148.764 Y97.308 E8.65555
G0 F6000 X148.727 Y97.217
G0 X148.681 Y96.81
G0 X148.652 Y96.713
G1 F252 X146.714 Y98.652 E8.69852
G0 F6000 X146.812 Y98.678
G0 X147.217 Y98.728
G0 X147.308 Y98.765
G1 F252 X146.588 Y99.484 E8.71447
G0 F6000 X146.646 Y99.495
G0 X146.741 Y99.87
G0 X146.688 Y100
G0 X146.913 Y100.539
G0 X146.97 Y100.516
G1 F252 X146.617 Y100.87 E8.72231
G0 F6000 X146.716 Y100.851
G0 X146.846 Y101.375
G0 X146.763 Y101.43
G1 F252 X147.206 Y100.988 E8.73212
G0 F6000 X147.115 Y101.025
G0 X147.659 Y102.341
G0 X147.322 Y101.525
G0 X147.412 Y101.488
G1 F252 X147.046 Y101.855 E8.74025
G0 F6000 X147.13 Y101.799
G0 X147.412 Y102.223
G0 X147.329 Y102.278
G1 F252 X147.619 Y101.988 E8.74667
G0 F6000 X147.529 Y102.025
G0 X147.659 Y102.341
G0 X147.921 Y102.448
G0 X147.958 Y102.357
G1 F252 X147.676 Y102.639 E8.75293
G0 F6000 X147.73 Y102.557
G0 X147.559 Y102.441
G0 X148.154 Y102.839
G0 X148.099 Y102.922
G1 F252 X148.458 Y102.564 E8.76087
G0 F6000 X148.42 Y102.656
G0 X147.659 Y102.341
G0 X148.92 Y102.863
G0 X148.958 Y102.771
G1 F252 X148.524 Y103.205 E8.77049
G0 F6000 X148.578 Y103.123
G0 X149.087 Y103.271
G0 X149.068 Y103.368
G1 F252 X149.458 Y102.978 E8.77914
G0 F6000 X149.42 Y103.07
G0 X149.747 Y103.206
G0 X149.784 Y103.115
; TYPE:TOP-FILL
G1 F252 X150.186 Y103.517 E8.78805
G0 F6000 X150.167 Y103.421
G0 X150.515 Y103.139
G1 F252 X150.41 Y103.033 E8.79039
G0 F6000 X150.448 Y103.125
G0 X152.341 Y102.341
G0 X153.245 Y100.158
G0 X153.153 Y100.12
G1 F252 X153.467 Y100.434 E8.79735
G0 F6000 X153.371 Y100.415
G0 X153.412 Y99.787
G0 X153.508 Y99.768
G1 F252 X153.223 Y99.483 E8.80367
G0 F6000 X152.341 Y97.659
G0 X150.515 Y96.775
G1 F252 X150.231 Y96.491 E8.80997
G0 F6000 X150.212 Y96.588
G0 X149.883 Y96.736
G0 X149.842 Y96.755
G0 X149.879 Y96.846
G1 F252 X149.564 Y96.531 E8.81695
G0 F6000 X149.583 Y96.629
G0 X147.659 Y97.659
G0 X146.859 Y99.483
G1 F252 X146.965 Y99.588 E8.81929
G0 F6000 X146.875 Y99.551
G0 X146.579 Y99.831
G0 X146.481 Y99.812
G1 F252 X146.884 Y100.215 E8.82822
; Layer Change GCode
; LAYER:8
G1 F3000 E1.82822
G0 F6000 X146.884 Y100.215 Z2.02
G0 X146.794 Y100.252
G0 X146.688 Y100
G0 X146.808 Y99.713
G0 X147.5 Y100
G0 X147.569 Y99.834
G0 X147.068 Y99.084
G0 X147.659 Y97.659
G0 X147.851 Y97.58
G0 X148.042 Y98.042
; TYPE:WALL-OUTER
G1 F3000 E8.82822
G1 F252 X147.402 Y99.584 E8.85439
G1 X146.038 Y99.585 E8.87577
G1 X146.266 Y98.448 E8.89395
G1 X147.14 Y97.14 E8.91861
G1 X148.453 Y96.262 E8.94337
G1 X149.584 Y96.037 E8.96145
G1 X149.584 Y97.402 E8.98284
G1 X148.042 Y98.042 E9.00901
G0 F6000 X147.851 Y97.58
G0 X147.842 Y97.584
G0 X147.879 Y97.674
; TYPE:FILL
G1 F252 X147.551 Y97.346 E9.01629
G0 F6000 X147.606 Y97.428
G0 X147.316 Y97.776
G0 X147.309 Y97.784
G0 X147.227 Y97.729
G1 F252 X147.587 Y98.089 E9.02427
G0 F6000 X147.497 Y98.052
G0 X147.29 Y98.552
G0 X147.38 Y98.589
G1 F252 X146.943 Y98.153 E9.03394
G0 F6000 X147.026 Y98.208
G0 X146.737 Y98.642
G0 X146.66 Y98.577
G1 F252 X147.172 Y99.089 E9.04529
G0 F6000 X147.082 Y99.052
G0 X146.648 Y99.085
G0 X146.56 Y99.184
G1 F252 X146.53 Y99.154 E9.04596
G0 F6000 X146.648 Y99.085
G0 X147.659 Y97.659
G0 X148.342 Y97.377
G0 X148.379 Y97.467
G1 F252 X147.974 Y97.063 E9.05493
G0 F6000 X148.029 Y97.145
G0 X148.646 Y96.734
G0 X148.453 Y96.862
G0 X148.398 Y96.779
G1 F252 X148.879 Y97.26 E9.06559
G0 F6000 X148.842 Y97.17
G0 X149.084 Y96.857
G0 X149.183 Y96.857
G1 F252 X148.905 Y96.579 E9.07175
G1 F3000 E2.07175
G0 F6000 X148.924 Y96.678
G0 X147.659 Y97.659
G0 X147.068 Y99.084
G0 X147.569 Y99.834
G0 X147.569 Y100.166
G0 X147.068 Y100.916
G0 X147.58 Y102.149
G0 X148.042 Y101.958
; TYPE:WALL-OUTER
G1 F3000 E9.07175
G1 F252 X149.584 Y102.598 E9.09792
G1 X149.585 Y103.962 E9.1193
G1 X148.448 Y103.734 E9.13748
G1 X147.14 Y102.86 E9.16214
G1 X146.262 Y101.547 E9.1869
G1 X146.037 Y100.415 E9.20499
G1 X147.402 Y100.416 E9.22639
G1 X148.042 Y101.958 E9.25256
G0 F6000 X147.58 Y102.149
G0 X147.659 Y102.341
G0 X148.536 Y102.704
G0 X148.574 Y102.612
; TYPE:FILL
G1 F252 X149.183 Y103.222 E9.26607
G0 F6000 X149.085 Y103.222
G0 X148.642 Y103.263
G0 X148.614 Y103.359
G1 F252 X146.635 Y101.38 E9.30994
G0 F6000 X146.734 Y101.354
G0 X146.776 Y100.915
G0 X146.776 Y100.815
G1 F252 X147.386 Y101.424 E9.32345
G1 F3000 E2.32345
G0 F6000 X147.295 Y101.461
G0 X147.659 Y102.341
G0 X149.084 Y102.932
G0 X149.834 Y102.431
G0 X150.166 Y102.431
G0 X150.916 Y102.932
G0 X152.149 Y102.42
G0 X151.958 Y101.958
; TYPE:WALL-OUTER
G1 F3000 E9.32345
G1 F252 X152.598 Y100.416 E9.34963
G1 X153.962 Y100.416 E9.37101
G1 X153.734 Y101.552 E9.38917
G1 X152.86 Y102.86 E9.41383
G1 X151.547 Y103.738 E9.43859
G1 X150.415 Y103.963 E9.45668
G1 X150.416 Y102.598 E9.47808
G1 X151.958 Y101.958 E9.50425
G0 F6000 X152.149 Y102.42
G0 X152.341 Y102.341
G0 X152.416 Y102.157
G0 X152.324 Y102.119
; TYPE:FILL
G1 F252 X152.652 Y102.447 E9.51152
G0 F6000 X152.573 Y102.394
G0 X152.23 Y102.681
G0 X152.216 Y102.692
G0 X152.269 Y102.772
G1 F252 X151.909 Y102.411 E9.51951
G0 F6000 X151.947 Y102.503
G0 X150.916 Y102.932
G0 X151.447 Y102.711
G0 X151.409 Y102.618
G1 F252 X151.846 Y103.055 E9.5292
G0 F6000 X151.792 Y102.974
G0 X151.368 Y103.258
G0 X151.422 Y103.339
G1 F252 X150.909 Y102.826 E9.54057
G0 F6000 X150.947 Y102.918
G0 X150.915 Y103.353
G0 X150.813 Y103.437
G1 F252 X150.845 Y103.469 E9.54128
G0 F6000 X150.915 Y103.353
G0 X152.341 Y102.341
G0 X152.624 Y101.657
G0 X152.531 Y101.619
G1 F252 X152.935 Y102.024 E9.55025
G0 F6000 X152.855 Y101.971
G0 X153.263 Y101.358
G0 X153.139 Y101.546
G0 X153.218 Y101.599
G1 F252 X152.738 Y101.119 E9.56089
G0 F6000 X152.831 Y101.157
G0 X153.141 Y100.916
G0 X153.141 Y100.815
G1 F252 X153.418 Y101.092 E9.56703
G1 F3000 E2.56703
G0 F6000 X153.321 Y101.073
G0 X153.352 Y100.916
G0 X154.267 Y100.166
G0 X154.267 Y99.834
G0 X153.353 Y99.084
G0 X152.42 Y97.851
G0 X151.958 Y98.042
; TYPE:WALL-OUTER
G1 F3000 E9.56703
G1 F252 X150.416 Y97.402 E9.5932
G1 X150.416 Y96.038 E9.61458
G1 X151.552 Y96.266 E9.63274
G1 X152.86 Y97.14 E9.6574
G1 X153.738 Y98.453 E9.68216
G1 X153.963 Y99.584 E9.70024
G1 X152.598 Y99.584 E9.72164
G1 X151.958 Y98.042 E9.74781
G0 F6000 X152.42 Y97.851
G0 X152.341 Y97.659
G0 X152.413 Y97.837
G0 X152.322 Y97.874
; TYPE:FILL
G1 F252 X153.436 Y98.989 E9.77251
G0 F6000 X153.338 Y99.008
G0 X152.932 Y99.084
G0 X152.923 Y99.183
G1 F252 X152.822 Y99.082 E9.77475
G0 F6000 X152.914 Y99.044
G0 X152.341 Y97.659
G0 X152.161 Y97.586
G0 X152.124 Y97.676
G1 F252 X151.013 Y96.566 E9.79937
G0 F6000 X150.994 Y96.663
G0 X150.916 Y97.068
G0 X150.815 Y97.075
G1 F252 X150.916 Y97.176 E9.80161
; Layer Change GCode
; LAYER:9
G1 F3000 E2.80161
G0 F6000 X150.916 Y97.176 Z2.22
G0 X150.953 Y97.085
G0 X150.916 Y97.068
G0 X150.166 Y97.569
G0 X149.352 Y97.769
G0 X148.602 Y97.268
G0 X147.851 Y97.58
G0 X148.042 Y98.042
; TYPE:WALL-OUTER
G1 F3000 E9.80161
G1 F198 X147.602 Y99.103 E9.81961
G1 X146.051 Y99.102 E9.84393
G1 X146.186 Y98.421 E9.85481
G1 X147.081 Y97.081 E9.88007
G1 X148.412 Y96.192 E9.90516
G1 X149.102 Y96.052 E9.9162
G1 X149.102 Y97.602 E9.94049
G1 X148.042 Y98.042 E9.95848
G0 F6000 X147.851 Y97.58
G0 X148.602 Y96.667
G0 X148.701 Y96.665
; TYPE:FILL
G1 F198 X146.663 Y98.702 E10.00365
G1 F3000 E3.00365
G0 F6000 X146.667 Y98.602
G0 X145.746 Y99.352
G0 X145.746 Y100.648
G0 X146.667 Y101.398
G0 X147.575 Y102.136
G0 X148.036 Y101.946
; TYPE:WALL-OUTER
G1 F3000 E10.00365
G1 F198 X149.103 Y102.396 E10.0218
G1 X149.102 Y103.948 E10.04613
G1 X148.412 Y103.808 E10.05717
G1 X147.081 Y102.919 E10.08226
G1 X146.192 Y101.588 E10.10735
G1 X146.052 Y100.898 E10.11839
G1 X147.602 Y100.897 E10.14268
G1 X148.036 Y101.946 E10.16048
G0 F6000 X147.575 Y102.136
G0 X147.653 Y102.327
G0 X147.926 Y102.441
G0 X147.964 Y102.35
; TYPE:FILL
G1 F198 X147.559 Y102.756 E10.16947
G0 F6000 X147.614 Y102.674
G0 X147.3 Y102.345
G0 X147.295 Y102.34
G0 X147.212 Y102.396
G1 F198 X147.619 Y101.988 E10.1785
G0 F6000 X147.529 Y102.025
G0 X147.322 Y101.525
G0 X147.413 Y101.488
G1 F198 X146.929 Y101.971 E10.18922
G0 F6000 X147.012 Y101.916
G0 X146.667 Y101.398
G0 X146.729 Y101.493
G0 X146.646 Y101.548
G1 F198 X146.896 Y101.297 E10.19477
G0 F6000 X146.896 Y101.397
G0 X147.653 Y102.327
G0 X148.424 Y102.651
G0 X148.462 Y102.56
G1 F198 X147.982 Y103.04 E10.20541
G0 F6000 X148.037 Y102.957
G0 X148.461 Y103.24
G0 X148.406 Y103.323
G1 F198 X148.701 Y103.028 E10.21195
G1 F3000 E3.21195
G0 F6000 X148.603 Y103.028
G0 X148.603 Y102.728
G0 X149.353 Y102.231
G0 X150.647 Y102.231
G0 X151.397 Y102.732
G0 X152.136 Y102.425
G0 X151.946 Y101.964
; TYPE:WALL-OUTER
G1 F3000 E10.21195
G1 F198 X152.396 Y100.898 E10.23009
G1 X153.949 Y100.898 E10.25444
G1 X153.814 Y101.579 E10.26532
G1 X152.919 Y102.919 E10.29058
G1 X151.588 Y103.808 E10.31567
G1 X150.898 Y103.948 E10.3267
G1 X150.897 Y102.398 E10.351
G1 X151.946 Y101.964 E10.3688
G0 F6000 X152.136 Y102.425
G0 X151.397 Y103.261
G0 X151.296 Y103.261
; TYPE:FILL
G1 F198 X153.26 Y101.297 E10.41233
G1 F3000 E3.41233
G0 F6000 X153.26 Y101.398
G0 X153.333 Y101.398
G0 X154.254 Y100.648
G0 X154.254 Y99.352
G0 X153.333 Y98.602
G0 X152.42 Y97.851
G0 X151.958 Y98.042
; TYPE:WALL-OUTER
G1 F3000 E10.41233
G1 F198 X150.898 Y97.602 E10.43033
G1 X150.898 Y96.051 E10.45464
G1 X151.579 Y96.186 E10.46552
G1 X152.919 Y97.081 E10.49078
G1 X153.809 Y98.415 E10.51592
G1 X153.949 Y99.102 E10.52691
G1 X152.398 Y99.102 E10.55122
G1 X151.958 Y98.042 E10.56921
G0 F6000 X152.42 Y97.851
G0 X152.341 Y97.659
G0 X152.449 Y97.921
G0 X152.356 Y97.959
; TYPE:FILL
G1 F198 X152.756 Y97.559 E10.57808
G0 F6000 X152.674 Y97.614
G0 X152.345 Y97.3
G0 X152.34 Y97.295
G0 X152.395 Y97.213
G1 F198 X151.987 Y97.621 E10.58712
G0 F6000 X152.025 Y97.529
G0 X151.398 Y97.268
G0 X151.524 Y97.322
G0 X151.487 Y97.413
G1 F198 X151.971 Y96.93 E10.59784
G0 F6000 X151.916 Y97.012
G0 X151.398 Y96.667
G0 X151.492 Y96.729
G0 X151.547 Y96.647
G1 F198 X151.297 Y96.896 E10.60337
G0 F6000 X151.398 Y96.896
G0 X152.341 Y97.659
G0 X152.656 Y98.42
G0 X152.563 Y98.458
G1 F198 X153.039 Y97.983 E10.61391
G0 F6000 X152.957 Y98.038
G0 X153.333 Y98.602
G0 X153.241 Y98.461
G0 X153.321 Y98.408
G1 F198 X153.027 Y98.702 E10.62043
G0 F6000 X153.027 Y98.602
G0 X153.333 Y98.602
G0 X153.582 Y98.683
G1 F198 X153.617 Y98.713 E10.62084
; Layer Change GCode
; LAYER:10
G1 F3000 E3.62084
G0 F6000 X153.617 Y98.713 Z2.42
G0 X153.333 Y98.602
G0 X152.341 Y97.659
G0 X151.398 Y97.268
G0 X150.648 Y97.769
G0 X150.074 Y99.156
G0 X149.452 Y99.352
G0 X148.871 Y97.969
G0 X148.121 Y97.471
G0 X147.655 Y97.667
G0 X147.577 Y97.858
G0 X148.038 Y98.048
G0 X147.577 Y97.858
G0 X147.655 Y97.667
G0 X148.121 Y97.471
G0 X148.621 Y97.803
; TYPE:WALL-OUTER
G1 F3000 E10.62084
G1 F162 X148.038 Y98.048 E10.63075
G1 X147.802 Y98.62 E10.64045
G1 X146.109 Y98.62 E10.66699
G0 F6000 X146.064 Y98.619
G1 F162 X146.109 Y98.505 E10.66891
G0 F6000 X146.109 Y98.39
G1 F162 X147.022 Y97.022 E10.69469
G1 X148.377 Y96.117 E10.72024
G0 F6000 X148.498 Y96.116
G1 F162 X148.62 Y96.067 E10.7223
G0 F6000 X148.62 Y96.116
G1 F162 X148.621 Y97.803 E10.74874
G0 F6000 X148.121 Y97.471
G0 X148.121 Y97.308
G0 X148.22 Y97.308
; TYPE:FILL
G1 F162 X147.856 Y96.945 E10.7568
G0 F6000 X147.912 Y97.029
G0 X147.382 Y97.384
G0 X147.489 Y97.312
G0 X147.433 Y97.228
G1 F162 X147.882 Y97.678 E10.76676
G0 F6000 X147.844 Y97.588
G0 X147.655 Y97.667
G0 X147.497 Y98.052
G0 X147.587 Y98.089
G1 F162 X147.109 Y97.611 E10.77736
G0 F6000 X147.193 Y97.667
G0 X146.909 Y98.091
G0 X146.825 Y98.035
G1 F162 X147.009 Y98.219 E10.78144
G1 F3000 E3.78144
G0 F6000 X147.009 Y98.12
G0 X147.468 Y98.12
G0 X147.969 Y98.87
G0 X149.356 Y99.442
G0 X149.381 Y100.619
G0 X147.969 Y101.13
G0 X147.468 Y101.88
G0 X147.577 Y102.141
G0 X148.038 Y101.951
; TYPE:WALL-OUTER
G1 F3000 E10.78144
G1 F162 X148.62 Y102.196 E10.79134
G1 X148.62 Y103.883 E10.81778
G0 F6000 X148.619 Y103.933
G1 F162 X148.498 Y103.883 E10.81984
G0 F6000 X148.377 Y103.883
G1 F162 X147.022 Y102.978 E10.84538
G1 X146.117 Y101.623 E10.87092
G0 F6000 X146.116 Y101.502
G1 F162 X146.067 Y101.381 E10.87297
G0 F6000 X146.116 Y101.381
G1 F162 X147.802 Y101.38 E10.8994
G1 X148.038 Y101.951 E10.90908
G0 F6000 X147.577 Y102.141
G0 X147.035 Y101.88
G0 X147.035 Y101.78
; TYPE:FILL
G1 F162 X148.218 Y102.963 E10.93531
G1 F3000 E3.93531
G0 F6000 X148.12 Y102.963
G0 X148.12 Y102.528
G0 X148.87 Y102.031
G0 X149.453 Y100.649
G0 X150.619 Y100.619
G0 X151.13 Y102.031
G0 X151.88 Y102.532
G0 X152.149 Y102.419
G0 X151.958 Y101.958
G0 X152.149 Y102.419
G0 X151.88 Y103.109
G0 X151.623 Y103.883
; TYPE:WALL-OUTER
G1 F3000 E10.93531
G1 F162 X152.978 Y102.978 E10.96085
G1 X153.891 Y101.61 E10.98663
G0 F6000 X153.891 Y101.494
G1 F162 X153.937 Y101.38 E10.98856
G0 F6000 X153.891 Y101.379
G1 F162 X152.198 Y101.379 E11.01509
G1 X151.958 Y101.958 E11.02492
G1 X151.38 Y102.198 E11.03473
G1 X151.381 Y103.884 E11.06116
G0 F6000 X151.381 Y103.933
G1 F162 X151.502 Y103.883 E11.06321
G0 F6000 X151.88 Y103.109
G0 X151.908 Y103.091
G0 X151.963 Y103.173
; TYPE:FILL
G1 F162 X151.779 Y102.989 E11.06729
G0 F6000 X151.88 Y102.989
G0 X151.947 Y102.503
G0 X151.909 Y102.411
G1 F162 X152.387 Y102.889 E11.07789
G0 F6000 X152.333 Y102.808
G0 X152.618 Y102.616
G0 X152.689 Y102.511
G0 X152.77 Y102.565
G1 F162 X152.323 Y102.118 E11.0878
G0 F6000 X152.417 Y102.157
G0 X152.69 Y101.879
G0 X152.69 Y101.778
G1 F162 X153.053 Y102.142 E11.09585
G1 F3000 E4.09585
G0 F6000 X152.972 Y102.088
G0 X152.532 Y101.879
G0 X152.031 Y101.129
G0 X150.643 Y100.555
G0 X150.619 Y99.381
G0 X152.031 Y98.871
G0 X152.532 Y98.121
G0 X152.421 Y97.851
G0 X151.958 Y98.042
G0 X152.421 Y97.851
G0 X153.11 Y98.121
G0 X153.884 Y98.38
; TYPE:WALL-OUTER
G1 F3000 E11.09585
G1 F162 X152.978 Y97.022 E11.12144
G1 X151.61 Y96.109 E11.14723
G0 F6000 X151.494 Y96.109
G1 F162 X151.38 Y96.063 E11.14915
G0 F6000 X151.379 Y96.109
G1 F162 X151.379 Y97.802 E11.17569
G1 X151.958 Y98.042 E11.18552
G1 X152.198 Y98.621 E11.19534
G1 X153.885 Y98.62 E11.22178
G0 F6000 X153.936 Y98.62
G1 F162 X153.884 Y98.5 E11.22384
G0 F6000 X153.11 Y98.121
G0 X153.057 Y98.04
G0 X153.14 Y97.985
; TYPE:FILL
G1 F162 X152.013 Y96.859 E11.24881
G0 F6000 X151.958 Y96.942
G0 X151.879 Y97.331
G0 X151.778 Y97.331
G1 F162 X152.125 Y97.678 E11.2565
G0 F6000 X152.163 Y97.586
G0 X152.341 Y97.659
G0 X152.413 Y97.835
G0 X152.32 Y97.873
G1 F162 X152.667 Y98.22 E11.26419
; Layer Change GCode
; LAYER:11
G1 F3000 E4.26419
G0 F6000 X152.667 Y98.22 Z2.62
G0 X152.667 Y98.121
G0 X152.341 Y97.659
G0 X151.879 Y97.468
G0 X151.129 Y97.969
G0 X150.113 Y97.969
G0 X149.888 Y98.169
G0 X148.388 Y98.169
G0 X148.002 Y98.137
; TYPE:WALL-OUTER
G1 F3000 E11.26419
G1 F108 X146.181 Y98.136 E11.29274
G1 X146.964 Y96.964 E11.31483
G1 X148.138 Y96.18 E11.33696
G1 X148.138 Y98.004 E11.36555
G1 X148.04 Y98.045 E11.36722
G1 X148.002 Y98.137 E11.36878
G0 F6000 X147.638 Y97.637
G0 X147.629 Y97.737
; TYPE:FILL
G1 F108 X147.737 Y97.628 E11.37118
G0 F6000 X147.638 Y97.637
G0 X147.638 Y97.116
G0 X147.649 Y97.009
G1 F108 X147.009 Y97.649 E11.38537
G1 F3000 E4.38537
G0 F6000 X147.116 Y97.637
G0 X147.638 Y97.637
G0 X148.169 Y98.387
G0 X148.169 Y99.886
G0 X148.169 Y100.114
G0 X148.169 Y101.613
G0 X147.637 Y102.363
G0 X147.637 Y102.883
G0 X148.136 Y103.819
; TYPE:WALL-OUTER
G1 F3000 E11.38537
G1 F108 X146.964 Y103.036 E11.40747
G1 X146.181 Y101.864 E11.42956
G1 X148.004 Y101.863 E11.45814
G1 X148.045 Y101.96 E11.45979
G1 X148.137 Y101.998 E11.46135
G1 X148.136 Y103.819 E11.48989
G0 F6000 X147.637 Y102.883
G0 X147.497 Y102.79
G0 X147.441 Y102.874
; TYPE:FILL
G1 F108 X147.735 Y102.579 E11.49642
G0 F6000 X147.637 Y102.579
G0 X147.345 Y102.363
G0 X147.345 Y102.263
G1 F108 X147.095 Y102.513 E11.50196
G1 F3000 E4.50196
G0 F6000 X147.179 Y102.457
G0 X147.637 Y102.363
G0 X148.387 Y101.831
G0 X149.886 Y101.831
G0 X150.114 Y101.831
G0 X151.613 Y101.831
G0 X152.363 Y102.362
G0 X152.363 Y102.883
G0 X151.864 Y103.819
; TYPE:WALL-OUTER
G1 F3000 E11.50196
G1 F108 X151.863 Y101.998 E11.53051
G1 X151.959 Y101.958 E11.53214
G1 X151.998 Y101.862 E11.53376
G1 X153.82 Y101.863 E11.56232
G1 X153.036 Y103.036 E11.58444
G1 X151.864 Y103.819 E11.60654
G0 F6000 X152.363 Y102.883
G0 X152.363 Y102.846
G0 X152.261 Y102.846
; TYPE:FILL
G1 F108 X152.77 Y102.709 E11.6148
G0 F6000 X152.69 Y102.656
G0 X152.819 Y102.464
G0 X152.899 Y102.517
G1 F108 X152.643 Y102.261 E11.62047
G1 F3000 E4.62047
G0 F6000 X152.643 Y102.362
G0 X152.363 Y102.362
G0 X151.831 Y101.612
G0 X151.831 Y100.113
G0 X151.831 Y99.888
G0 X151.831 Y98.388
G0 X151.998 Y98.138
; TYPE:WALL-OUTER
G1 F3000 E11.62047
G1 F108 X151.958 Y98.042 E11.6221
G1 X151.862 Y98.002 E11.62373
G1 X151.863 Y96.18 E11.65229
G1 X153.036 Y96.964 E11.67441
G1 X153.82 Y98.138 E11.69654
G1 X151.998 Y98.138 E11.7251
G0 F6000 X152.362 Y97.638
G0 X152.396 Y97.638
G0 X152.396 Y97.737
; TYPE:FILL
G1 F108 X152.559 Y97.127 E11.735
; Layer Change GCode
; LAYER:12
G1 F3000 E4.735
G0 F6000 X152.559 Y97.127 Z2.82
G0 X152.504 Y97.209
G0 X152.362 Y97.638
G0 X151.612 Y98.169
G0 X150.323 Y98.169
G0 X149.677 Y99.677
G0 X148.177 Y99.677
G0 X148.177 Y98.177
G0 X147.427 Y97.427
G0 X147.159 Y97.427
G0 X146.223 Y97.927
; TYPE:WALL-OUTER
G1 F3000 E11.735
G1 F108 X146.905 Y96.905 E11.75426
G1 X147.927 Y96.223 E11.77352
G1 X147.927 Y97.927 E11.80023
G1 X146.223 Y97.927 E11.82694
G1 F3000 E4.82694
G0 F6000 X145.755 Y98.177
G0 X144.508 Y97.344
G0 X144.008 Y98.091
G0 X144.476 Y98.965
G0 X144.432 Y101.116
G0 X145.755 Y101.823
G0 X147.159 Y102.573
G0 X147.427 Y102.841
G0 X147.927 Y103.777
G1 F3000 E11.82694
G1 F108 X146.905 Y103.095 E11.8462
G1 X146.223 Y102.073 E11.86546
G1 X147.927 Y102.073 E11.89217
G1 X147.927 Y103.777 E11.91888
G1 F3000 E4.91888
G0 F6000 X148.177 Y104.245
G0 X147.344 Y105.492
G0 X148.091 Y105.992
G0 X149.677 Y105.144
G0 X150.323 Y104.245
G0 X151.823 Y104.245
G0 X152.073 Y103.777
G1 F3000 E11.91888
G1 F108 X152.073 Y102.073 E11.94559
G1 X153.777 Y102.073 E11.9723
G1 X153.095 Y103.095 E11.99156
G1 X152.073 Y103.777 E12.01082
G1 F3000 E5.01082
G0 F6000 X152.573 Y102.841
G0 X152.573 Y102.573
G0 X151.823 Y101.823
G0 X150.323 Y101.823
G0 X150.323 Y100.323
G0 X150.323 Y99.677
G0 X150.323 Y98.177
G0 X151.823 Y98.177
G0 X152.073 Y97.927
G1 F3000 E12.01082
G1 F108 X152.073 Y96.223 E12.03753
G1 X153.095 Y96.905 E12.05679
G1 X153.777 Y97.927 E12.07605
G1 X152.073 Y97.927 E12.10276
; Layer Change GCode
; LAYER:13
G1 F3000 E5.10276
G0 F6000 X151.823 Y98.177 Z3.02
G0 X150.406 Y98.177
G0 X149.594 Y99.594
G0 X148.094 Y99.594
G0 X148.094 Y98.094
G0 X147.344 Y97.344
G0 X147.116 Y97.344
G0 X146.181 Y97.844
; TYPE:WALL-OUTER
G1 F3000 E12.10276
G1 F108 X146.847 Y96.847 E12.12156
G1 X147.844 Y96.181 E12.14035
G1 X147.844 Y97.844 E12.16642
G1 X146.181 Y97.844 E12.19249
G1 F3000 E5.19249
G0 F6000 X145.713 Y98.094
G0 X144.466 Y97.26
G0 X143.966 Y98.008
G0 X144.435 Y98.884
G0 X144.39 Y101.199
G0 X145.713 Y101.906
G0 X147.116 Y102.656
G0 X147.344 Y102.884
G0 X147.844 Y103.819
G1 F3000 E12.19249
G1 F108 X146.847 Y103.153 E12.21129
G1 X146.181 Y102.156 E12.23008
G1 X147.844 Y102.156 E12.25615
G1 X147.844 Y103.819 E12.28222
G1 F3000 E5.28222
G0 F6000 X148.094 Y104.287
G0 X147.26 Y105.534
G0 X148.008 Y106.034
G0 X149.594 Y105.186
G0 X150.406 Y104.287
G0 X151.906 Y104.287
G0 X152.156 Y103.819
G1 F3000 E12.28222
G1 F108 X152.156 Y102.156 E12.30828
G1 X153.819 Y102.156 E12.33435
G1 X153.153 Y103.153 E12.35315
G1 X152.156 Y103.819 E12.37194
G1 F3000 E5.37194
G0 F6000 X152.656 Y102.884
G0 X152.656 Y102.656
G0 X151.906 Y101.906
G0 X150.406 Y101.906
G0 X150.406 Y100.406
G0 X150.406 Y99.594
G0 X150.406 Y98.094
G0 X151.906 Y98.094
G0 X152.156 Y97.844
G1 F3000 E12.37194
G1 F108 X152.156 Y96.181 E12.39801
G1 X153.153 Y96.847 E12.41681
G1 X153.819 Y97.844 E12.4356
G1 X152.156 Y97.844 E12.46167
; Layer Change GCode
; LAYER:14
G1 F3000 E5.46167
G0 F6000 X151.906 Y98.094 Z3.22
G0 X150.489 Y98.094
G0 X149.511 Y99.511
G0 X148.011 Y99.511
G0 X148.011 Y98.011
G0 X147.261 Y97.261
G0 X147.074 Y97.261
G0 X146.139 Y97.761
; TYPE:WALL-OUTER
G1 F3000 E12.46167
G1 F108 X146.788 Y96.788 E12.48
G1 X147.761 Y96.139 E12.49834
G1 X147.761 Y97.761 E12.52376
G1 X146.139 Y97.761 E12.54919
G1 F3000 E5.54919
G0 F6000 X145.671 Y98.011
G0 X144.424 Y97.178
G0 X143.924 Y97.925
G0 X144.348 Y101.282
G0 X145.671 Y101.989
G0 X147.074 Y102.739
G0 X147.261 Y102.926
G0 X147.761 Y103.861
G1 F3000 E12.54919
G1 F108 X146.788 Y103.212 E12.56752
G1 X146.139 Y102.239 E12.58585
G1 X147.761 Y102.239 E12.61128
G1 X147.761 Y103.861 E12.63671
G1 F3000 E5.63671
G0 F6000 X148.011 Y104.329
G0 X147.178 Y105.576
G0 X147.925 Y106.076
G0 X149.511 Y105.228
G0 X150.489 Y104.329
G0 X151.989 Y104.329
G0 X152.239 Y103.861
G1 F3000 E12.63671
G1 F108 X152.239 Y102.239 E12.66213
G1 X153.861 Y102.239 E12.68756
G1 X153.212 Y103.212 E12.70589
G1 X152.239 Y103.861 E12.72422
G1 F3000 E5.72422
G0 F6000 X152.739 Y102.926
G0 X152.739 Y102.739
G0 X151.989 Y101.989
G0 X150.489 Y101.989
G0 X150.489 Y100.489
G0 X150.489 Y99.511
G0 X150.489 Y98.011
G0 X151.989 Y98.011
G0 X152.239 Y97.761
G1 F3000 E12.72422
G1 F108 X152.239 Y96.139 E12.74965
G1 X153.212 Y96.788 E12.76798
G1 X153.861 Y97.761 E12.78632
G1 X152.239 Y97.761 E12.81174
; Layer Change GCode
; LAYER:15
G1 F3000 E5.81174
G0 F6000 X151.989 Y98.011 Z3.42
G0 X150.572 Y98.011
G0 X149.428 Y99.428
G0 X147.928 Y99.428
G0 X147.928 Y97.928
G0 X147.178 Y97.178
G0 X147.031 Y97.178
G0 X146.096 Y97.678
; TYPE:WALL-OUTER
G1 F3000 E12.81174
G1 F108 X146.729 Y96.729 E12.82962
G1 X147.678 Y96.096 E12.84751
G1 X147.678 Y97.678 E12.87231
G1 X146.096 Y97.678 E12.8971
G1 F3000 E5.8971
G0 F6000 X145.628 Y97.928
G0 X144.381 Y97.095
G0 X143.881 Y97.842
G0 X144.353 Y98.722
G0 X144.305 Y101.365
G0 X145.628 Y102.072
G0 X147.031 Y102.822
G0 X147.178 Y102.969
G0 X147.678 Y103.904
G1 F3000 E12.8971
G1 F108 X146.729 Y103.271 E12.91499
G1 X146.096 Y102.322 E12.93287
G1 X147.678 Y102.322 E12.95767
G1 X147.678 Y103.904 E12.98246
G1 F3000 E5.98246
G0 F6000 X147.928 Y104.372
G0 X147.095 Y105.619
G0 X147.842 Y106.119
G0 X149.428 Y105.271
G0 X150.572 Y104.372
G0 X152.072 Y104.372
G0 X152.322 Y103.904
G1 F3000 E12.98246
G1 F108 X152.322 Y102.322 E13.00726
G1 X153.904 Y102.322 E13.03206
G1 X153.271 Y103.271 E13.04994
G1 X152.322 Y103.904 E13.06782
G1 F3000 E6.06782
G0 F6000 X152.822 Y102.969
G0 X152.822 Y102.822
G0 X152.072 Y102.072
G0 X150.572 Y102.072
G0 X150.572 Y100.572
G0 X150.572 Y99.428
G0 X150.572 Y97.928
G0 X152.072 Y97.928
G0 X152.322 Y97.678
G1 F3000 E13.06782
G1 F108 X152.322 Y96.096 E13.09262
G1 X153.271 Y96.729 E13.1105
G1 X153.904 Y97.678 E13.12839
G1 X152.322 Y97.678 E13.15319
; Layer Change GCode
; LAYER:16
G1 F3000 E6.15319
G0 F6000 X152.072 Y97.928 Z3.62
G0 X150.655 Y97.928
G0 X149.345 Y99.345
G0 X147.845 Y99.345
G0 X147.845 Y97.845
G0 X147.095 Y97.095
G0 X147.06 Y97.095
G0 X146.124 Y97.595
; TYPE:WALL-OUTER
G1 F3000 E13.15319
G1 F108 X146.713 Y96.713 E13.16981
G1 X147.595 Y96.124 E13.18644
G1 X147.595 Y97.595 E13.20949
G1 X146.124 Y97.595 E13.23255
G1 F3000 E6.23255
G0 F6000 X145.656 Y97.845
G0 X144.409 Y97.011
G0 X143.909 Y97.759
G0 X144.333 Y101.448
G0 X145.656 Y102.155
G0 X147.06 Y102.905
G0 X147.095 Y102.94
G0 X147.595 Y103.876
G1 F3000 E13.23255
G1 F108 X146.713 Y103.287 E13.24918
G1 X146.124 Y102.405 E13.2658
G1 X147.595 Y102.405 E13.28886
G1 X147.595 Y103.876 E13.31192
G1 F3000 E6.31192
G0 F6000 X147.845 Y104.344
G0 X147.011 Y105.591
G0 X147.759 Y106.091
G0 X149.345 Y105.243
G0 X150.655 Y104.344
G0 X152.155 Y104.344
G0 X152.405 Y103.876
G1 F3000 E13.31192
G1 F108 X152.405 Y102.405 E13.33498
G1 X153.876 Y102.405 E13.35804
G1 X153.287 Y103.287 E13.37466
G1 X152.405 Y103.876 E13.39129
G1 F3000 E6.39129
G0 F6000 X152.905 Y102.94
G0 X152.905 Y102.905
G0 X152.155 Y102.155
G0 X150.655 Y102.155
G0 X150.655 Y100.655
G0 X150.655 Y99.345
G0 X150.655 Y97.845
G0 X152.155 Y97.845
G0 X152.405 Y97.595
G1 F3000 E13.39129
G1 F108 X152.405 Y96.124 E13.41435
G1 X153.287 Y96.713 E13.43097
G1 X153.876 Y97.595 E13.4476
G1 X152.405 Y97.595 E13.47066
; Layer Change GCode
; LAYER:17
G0 F6000 X152.155 Y97.845 Z3.82
G0 X150.738 Y97.845
G0 X149.262 Y99.262
G0 X147.762 Y99.262
G0 X147.762 Y97.762
G0 X146.179 Y97.512
; TYPE:WALL-OUTER
G1 F108 X146.713 Y96.713 E13.48572
G1 X147.512 Y96.179 E13.50078
G1 X147.512 Y97.512 E13.52168
G1 X146.179 Y97.512 E13.54258
G1 F3000 E6.54258
G0 F6000 X145.711 Y97.762
G0 X144.464 Y96.928
G0 X143.964 Y97.676
G0 X144.438 Y98.56
G0 X144.388 Y101.531
G0 X145.711 Y102.238
G0 X147.512 Y103.821
G1 F3000 E13.54258
G1 F108 X146.713 Y103.287 E13.55764
G1 X146.179 Y102.488 E13.5727
G1 X147.512 Y102.488 E13.5936
G1 X147.512 Y103.821 E13.61449
G0 F6000 X147.762 Y104.289
G0 X146.928 Y105.536
G0 X147.676 Y106.036
G0 X149.262 Y105.188
G0 X150.738 Y104.289
G0 X152.238 Y104.289
G0 X152.488 Y103.821
G1 F108 X152.488 Y102.488 E13.63539
G1 X153.821 Y102.488 E13.65629
G1 X153.287 Y103.287 E13.67135
G1 X152.488 Y103.821 E13.68641
G1 F3000 E6.68641
G0 F6000 X152.238 Y102.238
G0 X150.738 Y102.238
G0 X150.738 Y100.738
G0 X150.738 Y99.262
G0 X150.738 Y97.762
G0 X152.238 Y97.762
G0 X152.488 Y97.512
G1 F3000 E13.68641
G1 F108 X152.488 Y96.179 E13.70731
G1 X153.287 Y96.713 E13.72237
G1 X153.821 Y97.512 E13.73744
G1 X152.488 Y97.512 E13.75833
; Layer Change GCode
; LAYER:18
G0 F6000 X152.238 Y97.762 Z4.02
G0 X150.821 Y97.762
G0 X149.179 Y99.179
G0 X147.679 Y99.179
G0 X147.679 Y97.679
G0 X146.235 Y97.429
; TYPE:WALL-OUTER
G1 F108 X146.713 Y96.713 E13.77183
G1 X147.429 Y96.235 E13.78532
G1 X147.429 Y97.429 E13.80404
G1 X146.235 Y97.429 E13.82276
G0 F6000 X146.798 Y97.179
; TYPE:FILL
G1 F108 X147.014 Y97.069 E13.82421
G0 F6000 X147.068 Y97.015
G1 F108 X147.179 Y96.798 E13.82567
G0 F6000 X147.068 Y96.777
G1 F108 X147.036 Y96.894 E13.82668
G0 F6000 X147.036 Y96.798
G1 F108 X147.014 Y96.926 E13.82804
G1 X146.941 Y97.179 E13.83081
G0 F6000 X146.894 Y97.036
G1 F108 X146.776 Y97.069 E13.83182
G1 F3000 E6.83182
G0 F6000 X147.679 Y97.679
G0 X147.679 Y99.179
G0 X149.179 Y100.821
G0 X149.179 Y102.321
G0 X147.679 Y102.321
G0 X147.429 Y103.765
; TYPE:WALL-OUTER
G1 F3000 E13.83182
G1 F108 X146.713 Y103.287 E13.84531
G1 X146.235 Y102.571 E13.85881
G1 X147.429 Y102.571 E13.87753
G1 X147.429 Y103.765 E13.89624
G0 F6000 X147.179 Y103.059
; TYPE:FILL
G1 F108 X146.926 Y102.985 E13.89901
G1 X146.798 Y102.963 E13.90037
G0 F6000 X146.777 Y102.931
G1 F108 X146.894 Y102.963 E13.90138
G0 F6000 X147.015 Y102.931
G1 F108 X146.798 Y102.821 E13.90284
G0 F6000 X147.679 Y102.321
G0 X149.179 Y102.321
G0 X150.821 Y102.321
G0 X152.321 Y102.321
G0 X152.571 Y103.765
; TYPE:WALL-OUTER
G1 F108 X152.571 Y102.571 E13.92156
G1 X153.765 Y102.571 E13.94027
G1 X153.287 Y103.287 E13.95377
G1 X152.571 Y103.765 E13.96726
G0 F6000 X152.821 Y103.201
; TYPE:FILL
G1 F108 X152.931 Y102.985 E13.96871
G0 F6000 X152.985 Y102.931
G1 F108 X153.201 Y102.821 E13.97017
G0 F6000 X153.223 Y102.931
G1 F108 X153.106 Y102.963 E13.97117
G0 F6000 X153.059 Y102.821
G1 F108 X152.985 Y103.073 E13.97393
G1 X152.963 Y103.201 E13.97529
G0 F6000 X152.931 Y103.223
G1 F108 X152.963 Y103.106 E13.9763
G1 F3000 E6.9763
G0 F6000 X152.321 Y102.321
G0 X150.821 Y102.321
G0 X150.821 Y100.821
G0 X150.821 Y99.179
G0 X150.821 Y97.679
G0 X152.321 Y97.679
G0 X152.571 Y97.429
; TYPE:WALL-OUTER
G1 F3000 E13.9763
G1 F108 X152.571 Y96.235 E13.99502
G1 X153.287 Y96.713 E14.00851
G1 X153.765 Y97.429 E14.02201
G1 X152.571 Y97.429 E14.04072
G0 F6000 X152.821 Y96.941
; TYPE:FILL
G1 F108 X153.073 Y97.014 E14.04348
G1 X153.201 Y97.036 E14.04484
G0 F6000 X153.223 Y97.068
G1 F108 X153.106 Y97.036 E14.04585
G0 F6000 X152.985 Y97.068
G1 F108 X153.201 Y97.179 E14.0473
G0 F6000 X152.931 Y97.014
G1 F108 X152.821 Y96.798 E14.04875
G0 F6000 X152.931 Y96.776
G1 F108 X152.963 Y96.894 E14.04977
; Layer Change GCode
; LAYER:19
G0 F6000 X152.321 Y97.679 Z4.22
G0 X150.904 Y97.679
G0 X149.096 Y99.096
G0 X147.596 Y99.096
G0 X147.596 Y97.596
G0 X146.29 Y97.346
; TYPE:WALL-OUTER
G1 F108 X146.713 Y96.713 E14.0617
G1 X147.346 Y96.29 E14.07364
G1 X147.346 Y97.346 E14.09019
G1 X146.29 Y97.346 E14.10674
G0 F6000 X146.826 Y97.096
; TYPE:FILL
G1 F108 X146.979 Y97.017 E14.10748
G0 F6000 X147.017 Y96.98
G1 F108 X147.096 Y96.826 E14.10821
G0 F6000 X147.017 Y96.811
G1 F108 X146.995 Y96.894 E14.10873
G0 F6000 X146.979 Y96.916
G1 F108 X146.995 Y96.826 E14.1094
G0 F6000 X146.9 Y96.901
G1 F108 X146.927 Y96.927 E14.10953
G0 F6000 X146.894 Y96.995
G1 F108 X146.81 Y97.017 E14.11004
G1 F3000 E7.11004
G0 F6000 X147.596 Y97.596
G0 X147.596 Y99.096
G0 X149.096 Y100.904
G0 X149.096 Y102.404
G0 X147.596 Y102.404
G0 X147.346 Y103.71
; TYPE:WALL-OUTER
G1 F3000 E14.11004
G1 F108 X146.713 Y103.287 E14.12198
G1 X146.29 Y102.654 E14.13391
G1 X147.346 Y102.654 E14.15046
G1 X147.346 Y103.71 E14.16702
G0 F6000 X146.995 Y103.073
; TYPE:FILL
G1 F108 X147.096 Y103.005 E14.16779
G0 F6000 X146.98 Y102.983
G1 F108 X146.826 Y102.904 E14.16852
G0 F6000 X146.811 Y102.983
G1 F108 X146.894 Y103.005 E14.16904
G0 F6000 X146.916 Y103.02
G1 F108 X146.826 Y103.005 E14.16971
G0 F6000 X146.927 Y103.005
G1 F108 X146.995 Y102.904 E14.17049
G0 F6000 X146.927 Y103.073
G1 F108 X146.901 Y103.099 E14.17061
G0 F6000 X147.596 Y102.404
G0 X149.096 Y102.404
G0 X150.904 Y102.404
G0 X152.404 Y102.404
G0 X152.654 Y103.71
; TYPE:WALL-OUTER
G1 F108 X152.654 Y102.654 E14.18716
G1 X153.71 Y102.654 E14.20371
G1 X153.287 Y103.287 E14.21565
G1 X152.654 Y103.71 E14.22758
G0 F6000 X152.904 Y103.174
; TYPE:FILL
G1 F108 X152.983 Y103.02 E14.22832
G0 F6000 X153.02 Y102.982
G1 F108 X153.174 Y102.904 E14.22906
G0 F6000 X153.189 Y102.982
G1 F108 X153.106 Y103.005 E14.22956
G0 F6000 X153.073 Y103.005
G1 F108 X153.005 Y102.904 E14.23034
G0 F6000 X152.904 Y103.005
G1 F108 X153.005 Y103.073 E14.23111
G0 F6000 X153.005 Y103.106
G1 F108 X152.983 Y103.189 E14.23162
G1 F3000 E7.23162
G0 F6000 X152.404 Y102.404
G0 X150.904 Y102.404
G0 X150.904 Y100.904
G0 X150.904 Y99.096
G0 X150.904 Y97.596
G0 X152.404 Y97.596
G0 X152.654 Y97.346
; TYPE:WALL-OUTER
G1 F3000 E14.23162
G1 F108 X152.654 Y96.29 E14.24817
G1 X153.287 Y96.713 E14.26011
G1 X153.71 Y97.346 E14.27204
G1 X152.654 Y97.346 E14.28859
G0 F6000 X153.005 Y97.096
; TYPE:FILL
G1 F108 X153.073 Y96.995 E14.28936
G0 F6000 X153.106 Y96.995
G1 F108 X153.189 Y97.017 E14.28988
G0 F6000 X153.174 Y97.096
G1 F108 X153.02 Y97.017 E14.29061
G0 F6000 X152.982 Y96.979
G1 F108 X152.904 Y96.826 E14.29135
G0 F6000 X152.982 Y96.81
G1 F108 X153.005 Y96.894 E14.29186
G0 F6000 X153.005 Y96.927
G1 F108 X152.904 Y96.995 E14.29263
; Layer Change GCode
; LAYER:20
G0 F6000 X152.404 Y97.596 Z4.42
G0 X150.987 Y97.596
G0 X149.013 Y99.013
G0 X147.513 Y99.013
G0 X147.513 Y97.513
G0 X146.345 Y97.263
; TYPE:WALL-OUTER
G1 F108 X146.713 Y96.713 E14.303
G1 X147.263 Y96.345 E14.31338
G1 X147.263 Y97.263 E14.32777
G1 X146.345 Y97.263 E14.34216
G0 F6000 X146.845 Y96.967
; TYPE:FILL
G1 F108 X146.894 Y96.953 E14.34233
G1 X146.966 Y96.945 E14.3426
G0 F6000 X146.944 Y96.907
G1 F108 X146.953 Y96.854 E14.34284
G0 F6000 X146.944 Y96.867
G1 F108 X146.913 Y96.953 E14.34333
G0 F6000 X146.953 Y96.894
G1 F108 X146.966 Y96.845 E14.34351
G1 F3000 E7.34351
G0 F6000 X147.513 Y97.513
G0 X147.513 Y99.013
G0 X149.013 Y100.987
G0 X149.013 Y102.487
G0 X147.513 Y102.487
G0 X147.263 Y103.655
; TYPE:WALL-OUTER
G1 F3000 E14.34351
G1 F108 X146.713 Y103.287 E14.35388
G1 X146.345 Y102.737 E14.36426
G1 X147.263 Y102.737 E14.37865
G1 X147.263 Y103.655 E14.39304
G0 F6000 X146.945 Y103.093
; TYPE:FILL
G1 F108 X146.913 Y102.987 E14.39352
G0 F6000 X146.953 Y102.987
G1 F108 X146.913 Y103.046 E14.39378
G0 F6000 X146.907 Y103.055
G1 F108 X146.854 Y103.046 E14.39402
G0 F6000 X146.867 Y103.055
G1 F108 X146.953 Y103.086 E14.39451
G1 X147.013 Y103.046 E14.39478
G0 F6000 X146.894 Y103.046
G1 F108 X146.845 Y103.033 E14.39496
G0 F6000 X147.513 Y102.487
G0 X149.013 Y102.487
G0 X150.987 Y102.487
G0 X152.487 Y102.487
G0 X152.737 Y103.655
; TYPE:WALL-OUTER
G1 F108 X152.737 Y102.737 E14.40935
G1 X153.655 Y102.737 E14.42374
G1 X153.287 Y103.287 E14.43411
G1 X152.737 Y103.655 E14.44449
G0 F6000 X153.033 Y103.154
; TYPE:FILL
G1 F108 X153.046 Y103.106 E14.44466
G0 F6000 X153.046 Y103.086
G1 F108 X152.987 Y103.046 E14.44493
G0 F6000 X152.987 Y103.086
G1 F108 X153.093 Y103.055 E14.4454
G0 F6000 X153.086 Y103.046
G1 F108 X153.046 Y102.987 E14.44567
G0 F6000 X153.106 Y103.046
G1 F108 X153.155 Y103.033 E14.44585
G1 F3000 E7.44585
G0 F6000 X152.487 Y102.487
G0 X150.987 Y102.487
G0 X150.987 Y100.987
G0 X150.987 Y99.013
G0 X150.987 Y97.513
G0 X152.487 Y97.513
G0 X152.737 Y97.263
; TYPE:WALL-OUTER
G1 F3000 E14.44585
G1 F108 X152.737 Y96.345 E14.46024
G1 X153.287 Y96.713 E14.47061
G1 X153.655 Y97.263 E14.48098
G1 X152.737 Y97.263 E14.49537
G0 F6000 X153.046 Y97.013
; TYPE:FILL
G1 F108 X153.086 Y96.953 E14.49564
G0 F6000 X153.106 Y96.953
G1 F108 X153.154 Y96.966 E14.49582
G0 F6000 X153.086 Y97.013
G1 F108 X153.055 Y96.907 E14.49629
G0 F6000 X153.046 Y96.913
G1 F108 X152.987 Y96.953 E14.49656
G0 F6000 X153.046 Y96.894
G1 F108 X153.033 Y96.845 E14.49673
; Layer Change GCode
; LAYER:21
G0 F6000 X152.487 Y97.513 Z4.62
G0 X150.93 Y97.513
G0 X149.07 Y99.07
G0 X147.57 Y99.07
G0 X147.57 Y97.57
G0 X146.307 Y97.32
; TYPE:WALL-OUTER
G1 F108 X146.713 Y96.713 E14.50818
G1 X147.32 Y96.307 E14.51963
G1 X147.32 Y97.32 E14.53551
G1 X146.307 Y97.32 E14.55139
G0 F6000 X146.835 Y97.07
; TYPE:FILL
G1 F108 X146.968 Y97.002 E14.55194
G0 F6000 X147.002 Y96.969
G1 F108 X147.07 Y96.835 E14.5525
G0 F6000 X147.002 Y96.822
G1 F108 X146.982 Y96.894 E14.55288
G0 F6000 X146.968 Y96.914
G1 F108 X146.982 Y96.835 E14.5534
G0 F6000 X146.968 Y96.855
G1 F108 X146.923 Y96.982 E14.55448
G0 F6000 X146.894 Y96.982
G1 F108 X146.821 Y97.002 E14.55487
G1 F3000 E7.55487
G0 F6000 X147.57 Y97.57
G0 X147.57 Y99.07
G0 X149.07 Y100.93
G0 X149.07 Y102.43
G0 X147.57 Y102.43
G0 X147.32 Y103.693
; TYPE:WALL-OUTER
G1 F3000 E14.55487
G1 F108 X146.713 Y103.287 E14.56632
G1 X146.307 Y102.68 E14.57777
G1 X147.32 Y102.68 E14.59364
G1 X147.32 Y103.693 E14.60952
G0 F6000 X146.982 Y103.077
; TYPE:FILL
G1 F108 X147.07 Y103.018 E14.61011
G0 F6000 X146.969 Y102.998
G1 F108 X146.835 Y102.93 E14.61066
G0 F6000 X146.822 Y102.998
G1 F108 X146.894 Y103.018 E14.61105
G0 F6000 X146.914 Y103.031
G1 F108 X146.835 Y103.018 E14.61157
G0 F6000 X146.855 Y103.031
G1 F108 X146.982 Y103.077 E14.61265
G0 F6000 X146.923 Y103.018
G1 F108 X146.982 Y102.93 E14.61324
G0 F6000 X147.57 Y102.43
G0 X149.07 Y102.43
G0 X150.93 Y102.43
G0 X152.43 Y102.43
G0 X152.68 Y103.693
; TYPE:WALL-OUTER
G1 F108 X152.68 Y102.68 E14.62912
G1 X153.693 Y102.68 E14.645
G1 X153.287 Y103.287 E14.65644
G1 X152.68 Y103.693 E14.66789
G0 F6000 X152.93 Y103.165
; TYPE:FILL
G1 F108 X152.998 Y103.031 E14.66845
G0 F6000 X153.031 Y102.998
G1 F108 X153.165 Y102.93 E14.669
G0 F6000 X153.178 Y102.998
G1 F108 X153.106 Y103.018 E14.66939
G0 F6000 X153.077 Y103.018
G1 F108 X153.018 Y102.93 E14.66997
G0 F6000 X152.93 Y103.018
G1 F108 X153.018 Y103.077 E14.67055
G0 F6000 X153.018 Y103.106
G1 F108 X152.998 Y103.178 E14.67094
G1 F3000 E7.67094
G0 F6000 X152.43 Y102.43
G0 X150.93 Y102.43
G0 X150.93 Y100.93
G0 X150.93 Y99.07
G0 X150.93 Y97.57
G0 X152.43 Y97.57
G0 X152.68 Y97.32
; TYPE:WALL-OUTER
G1 F3000 E14.67094
G1 F108 X152.68 Y96.307 E14.68682
G1 X153.287 Y96.713 E14.69827
G1 X153.693 Y97.32 E14.70971
G1 X152.68 Y97.32 E14.72559
G0 F6000 X153.018 Y97.07
; TYPE:FILL
G1 F108 X153.077 Y96.982 E14.72618
G0 F6000 X153.106 Y96.982
G1 F108 X153.178 Y97.002 E14.72656
G0 F6000 X153.165 Y97.07
G1 F108 X153.031 Y97.002 E14.72712
G0 F6000 X152.998 Y96.968
G1 F108 X152.93 Y96.835 E14.72767
G0 F6000 X152.998 Y96.821
G1 F108 X153.018 Y96.894 E14.72806
G0 F6000 X153.018 Y96.923
G1 F108 X152.93 Y96.982 E14.72864
; Layer Change GCode
; LAYER:22
G0 F6000 X152.43 Y97.57 Z4.82
G0 X150.847 Y97.57
G0 X149.153 Y99.153
G0 X147.653 Y99.153
G0 X147.653 Y97.653
G0 X146.252 Y97.403
; TYPE:WALL-OUTER
G1 F108 X146.713 Y96.713 E14.74165
G1 X147.403 Y96.252 E14.75466
G1 X147.403 Y97.403 E14.7727
G1 X146.252 Y97.403 E14.79074
G0 F6000 X146.807 Y97.153
; TYPE:FILL
G1 F108 X147.003 Y97.053 E14.79194
G0 F6000 X147.052 Y97.004
G1 F108 X147.153 Y96.807 E14.79315
G0 F6000 X147.052 Y96.787
G1 F108 X147.023 Y96.894 E14.79399
G0 F6000 X147.023 Y96.807
G1 F108 X147.003 Y96.923 E14.79511
G1 X146.936 Y97.153 E14.7974
G0 F6000 X146.894 Y97.023
G1 F108 X146.787 Y97.053 E14.79823
G1 F3000 E7.79823
G0 F6000 X147.653 Y97.653
G0 X147.653 Y99.153
G0 X149.153 Y100.847
G0 X149.153 Y102.347
G0 X147.653 Y102.347
G0 X147.403 Y103.748
; TYPE:WALL-OUTER
G1 F3000 E14.79823
G1 F108 X146.713 Y103.287 E14.81124
G1 X146.252 Y102.597 E14.82425
G1 X147.403 Y102.597 E14.84229
G1 X147.403 Y103.748 E14.86033
G0 F6000 X147.153 Y103.063
; TYPE:FILL
G1 F108 X146.923 Y102.996 E14.86262
G1 X146.807 Y102.976 E14.86374
G0 F6000 X146.787 Y102.947
G1 F108 X146.894 Y102.976 E14.86458
G0 F6000 X147.004 Y102.947
G1 F108 X146.807 Y102.847 E14.86578
G0 F6000 X147.653 Y102.347
G0 X149.153 Y102.347
G0 X150.847 Y102.347
G0 X152.347 Y102.347
G0 X152.597 Y103.748
; TYPE:WALL-OUTER
G1 F108 X152.597 Y102.597 E14.88383
G1 X153.748 Y102.597 E14.90187
G1 X153.287 Y103.287 E14.91488
G1 X152.597 Y103.748 E14.92788
G0 F6000 X152.847 Y103.193
; TYPE:FILL
G1 F108 X152.947 Y102.996 E14.92909
G0 F6000 X152.996 Y102.947
G1 F108 X153.193 Y102.847 E14.93029
G0 F6000 X153.213 Y102.947
G1 F108 X153.106 Y102.976 E14.93113
G0 F6000 X153.063 Y102.847
G1 F108 X152.996 Y103.076 E14.9334
G1 X152.976 Y103.193 E14.93453
G0 F6000 X152.947 Y103.212
G1 F108 X152.976 Y103.106 E14.93537
G1 F3000 E7.93537
G0 F6000 X152.347 Y102.347
G0 X150.847 Y102.347
G0 X150.847 Y100.847
G0 X150.847 Y99.153
G0 X150.847 Y97.653
G0 X152.347 Y97.653
G0 X152.597 Y97.403
; TYPE:WALL-OUTER
G1 F3000 E14.93537
G1 F108 X152.597 Y96.252 E14.95341
G1 X153.287 Y96.713 E14.96642
G1 X153.748 Y97.403 E14.97943
G1 X152.597 Y97.403 E14.99747
G0 F6000 X152.847 Y96.936
; TYPE:FILL
G1 F108 X153.076 Y97.003 E14.99974
G1 X153.193 Y97.023 E15.00087
G0 F6000 X153.212 Y97.052
G1 F108 X153.106 Y97.023 E15.00171
G0 F6000 X152.996 Y97.052
G1 F108 X153.193 Y97.153 E15.00292
G0 F6000 X152.947 Y97.003
G1 F108 X152.847 Y96.807 E15.00412
G0 F6000 X152.947 Y96.787
G1 F108 X152.976 Y96.894 E15.00495
; Layer Change GCode
; LAYER:23
G0 F6000 X152.347 Y97.653 Z5.02
G0 X150.764 Y97.653
G0 X149.236 Y99.236
G0 X147.736 Y99.236
G0 X147.736 Y97.736
G0 X146.196 Y97.486
; TYPE:WALL-OUTER
G1 F108 X146.713 Y96.713 E15.01953
G1 X147.486 Y96.196 E15.03411
G1 X147.486 Y97.486 E15.05433
G1 X146.196 Y97.486 E15.07455
G0 F6000 X146.779 Y97.236
; TYPE:FILL
G1 F108 X147.039 Y97.104 E15.07664
G0 F6000 X147.104 Y97.039
G1 F108 X147.236 Y96.779 E15.07873
G0 F6000 X147.104 Y96.753
G1 F108 X147.065 Y96.894 E15.08019
G0 F6000 X147.039 Y96.933
G1 F108 X147.065 Y96.779 E15.08215
G0 F6000 X146.894 Y97.065
G1 F108 X146.753 Y97.104 E15.08361
G1 F3000 E8.08361
G0 F6000 X147.736 Y97.736
G0 X147.736 Y99.236
G0 X149.236 Y100.764
G0 X149.236 Y102.264
G0 X147.736 Y102.264
G0 X147.486 Y103.804
; TYPE:WALL-OUTER
G1 F3000 E15.08361
G1 F108 X146.713 Y103.287 E15.09818
G1 X146.196 Y102.514 E15.11276
G1 X147.486 Y102.514 E15.13298
G1 X147.486 Y103.804 E15.1532
G0 F6000 X147.236 Y103.22
; TYPE:FILL
G1 F108 X147.104 Y102.961 E15.15529
G0 F6000 X147.039 Y102.896
G1 F108 X146.779 Y102.764 E15.15738
G0 F6000 X146.753 Y102.896
G1 F108 X146.894 Y102.935 E15.15884
G0 F6000 X146.933 Y102.961
G1 F108 X146.779 Y102.935 E15.1608
G0 F6000 X147.736 Y102.264
G0 X149.236 Y102.264
G0 X150.764 Y102.264
G0 X152.264 Y102.264
G0 X152.514 Y103.804
; TYPE:WALL-OUTER
G1 F108 X152.514 Y102.514 E15.18102
G1 X153.804 Y102.514 E15.20124
G1 X153.287 Y103.287 E15.21582
G1 X152.514 Y103.804 E15.2304
G0 F6000 X152.764 Y103.22
; TYPE:FILL
G1 F108 X152.896 Y102.961 E15.23249
G0 F6000 X152.961 Y103.067
G1 F108 X152.935 Y103.22 E15.23444
G0 F6000 X152.896 Y103.246
G1 F108 X152.935 Y103.106 E15.23588
G1 X152.961 Y102.896 E15.2374
G1 X153.22 Y102.764 E15.23949
G0 F6000 X153.246 Y102.896
G1 F108 X153.106 Y102.935 E15.24093
G1 F3000 E8.24093
G0 F6000 X152.264 Y102.264
G0 X150.764 Y102.264
G0 X150.764 Y100.764
G0 X150.764 Y99.236
G0 X150.764 Y97.736
G0 X152.264 Y97.736
G0 X152.514 Y97.486
; TYPE:WALL-OUTER
G1 F3000 E15.24093
G1 F108 X152.514 Y96.196 E15.26115
G1 X153.287 Y96.713 E15.27573
G1 X153.804 Y97.486 E15.29031
G1 X152.514 Y97.486 E15.31053
G0 F6000 X152.961 Y97.104
; TYPE:FILL
G1 F108 X153.22 Y97.236 E15.31262
G0 F6000 X153.246 Y97.104
G1 F108 X153.106 Y97.065 E15.31406
G1 X152.896 Y97.039 E15.31558
G1 X152.764 Y96.779 E15.31767
G0 F6000 X152.896 Y96.753
G1 F108 X152.935 Y96.894 E15.31913
G0 F6000 X153.067 Y97.039
G1 F108 X153.22 Y97.065 E15.32108
; Layer Change GCode
; LAYER:24
G0 F6000 X152.264 Y97.736 Z5.22
G0 X150.681 Y97.736
G0 X149.319 Y99.319
G0 X147.819 Y99.319
G0 X147.819 Y97.819
G0 X146.141 Y97.569
; TYPE:WALL-OUTER
G1 F108 X146.713 Y96.713 E15.33722
G1 X147.569 Y96.141 E15.35336
G1 X147.569 Y97.569 E15.37574
G1 X146.141 Y97.569 E15.39812
G1 F3000 E8.39812
G0 F6000 X145.673 Y97.819
G0 X144.427 Y96.985
G0 X143.926 Y97.733
G0 X144.35 Y101.474
G0 X145.673 Y102.181
G0 X147.569 Y103.859
G1 F3000 E15.39812
G1 F108 X146.713 Y103.287 E15.41426
G1 X146.141 Y102.431 E15.4304
G1 X147.569 Y102.431 E15.45279
G1 X147.569 Y103.859 E15.47517
G0 F6000 X147.819 Y104.327
G0 X146.985 Y105.573
G0 X147.733 Y106.074
G0 X149.319 Y105.226
G0 X150.681 Y104.327
G0 X152.181 Y104.327
G0 X152.431 Y103.859
G1 F108 X152.431 Y102.431 E15.49755
G1 X153.859 Y102.431 E15.51994
G1 X153.287 Y103.287 E15.53608
G1 X152.431 Y103.859 E15.55222
G1 F3000 E8.55222
G0 F6000 X152.181 Y102.181
G0 X150.681 Y102.181
G0 X150.681 Y100.681
G0 X150.681 Y99.319
G0 X150.681 Y97.819
G0 X152.181 Y97.819
G0 X152.431 Y97.569
G1 F3000 E15.55222
G1 F108 X152.431 Y96.141 E15.5746
G1 X153.287 Y96.713 E15.59074
G1 X153.859 Y97.569 E15.60688
G1 X152.431 Y97.569 E15.62926
; Layer Change GCode
; LAYER:25
G1 F3000 E8.62926
G0 F6000 X152.181 Y97.819 Z5.42
G0 X150.599 Y97.819
G0 X149.401 Y99.401
G0 X147.902 Y99.401
G0 X147.902 Y97.902
G0 X147.152 Y97.152
G0 X147.022 Y97.152
G0 X146.086 Y97.653
; TYPE:WALL-OUTER
G1 F3000 E15.62926
G1 F108 X146.71 Y96.719 E15.64687
G1 X147.653 Y96.093 E15.66461
G1 X147.652 Y97.652 E15.68905
G1 X146.086 Y97.653 E15.7136
G1 F3000 E8.7136
G0 F6000 X145.618 Y97.903
G0 X145.618 Y99.402
G0 X145.628 Y100.598
G0 X145.628 Y102.097
G0 X147.025 Y102.848
G0 X147.152 Y102.978
G0 X147.653 Y103.914
G1 F3000 E15.7136
G1 F108 X146.719 Y103.29 E15.73121
G1 X146.093 Y102.347 E15.74895
G1 X147.652 Y102.348 E15.77339
G1 X147.653 Y103.914 E15.79793
G1 F3000 E8.79793
G0 F6000 X147.903 Y104.382
G0 X149.402 Y104.382
G0 X150.598 Y104.372
G0 X152.097 Y104.372
G0 X152.347 Y103.907
G1 F3000 E15.79793
G1 F108 X152.348 Y102.348 E15.82237
G1 X153.914 Y102.347 E15.84692
G1 X153.29 Y103.281 E15.86453
G1 X152.347 Y103.907 E15.88227
G1 F3000 E8.88227
G0 F6000 X152.848 Y102.975
G0 X152.848 Y102.848
G0 X152.098 Y102.098
G0 X150.599 Y102.098
G0 X150.599 Y100.599
G0 X150.599 Y99.401
G0 X150.599 Y97.902
G0 X152.098 Y97.902
G0 X152.848 Y97.152
G0 X152.975 Y97.152
G0 X153.907 Y97.653
G1 F3000 E15.88227
G1 F108 X152.348 Y97.652 E15.90671
G1 X152.347 Y96.086 E15.93126
G1 X153.281 Y96.71 E15.94886
G1 X153.907 Y97.653 E15.96661
; Layer Change GCode
; LAYER:26
G1 F3000 E8.96661
G0 F6000 X153.907 Y97.653 Z5.62
G0 X152.975 Y97.152
G0 X152.848 Y97.152
G0 X152.098 Y97.902
G0 X150.515 Y97.902
G0 X149.485 Y99.485
G0 X147.985 Y99.485
G0 X147.985 Y97.985
G0 X147.235 Y97.235
G0 X147.062 Y97.235
G0 X146.126 Y97.735
; TYPE:WALL-OUTER
G1 F3000 E15.96661
G1 F108 X146.77 Y96.77 E15.98479
G1 X147.735 Y96.126 E16.00298
G1 X147.735 Y97.735 E16.0282
G1 X146.126 Y97.735 E16.05342
G1 F3000 E9.05342
G0 F6000 X145.658 Y97.985
G0 X144.412 Y97.152
G0 X143.911 Y97.899
G0 X144.335 Y101.308
G0 X145.658 Y102.015
G0 X147.062 Y102.765
G0 X147.235 Y102.938
G0 X147.735 Y103.874
G1 F3000 E16.05342
G1 F108 X146.77 Y103.23 E16.07161
G1 X146.126 Y102.265 E16.08979
G1 X147.735 Y102.265 E16.11502
G1 X147.735 Y103.874 E16.14024
G1 F3000 E9.14024
G0 F6000 X147.985 Y104.342
G0 X147.152 Y105.588
G0 X147.899 Y106.089
G0 X149.485 Y105.241
G0 X150.515 Y104.342
G0 X152.015 Y104.342
G0 X152.265 Y103.874
G1 F3000 E16.14024
G1 F108 X152.265 Y102.265 E16.16546
G1 X153.874 Y102.265 E16.19068
G1 X153.23 Y103.23 E16.20887
G1 X152.265 Y103.874 E16.22705
G1 F3000 E9.22705
G0 F6000 X152.765 Y102.938
G0 X152.765 Y102.765
G0 X152.015 Y102.015
G0 X150.515 Y102.015
G0 X150.515 Y100.515
G0 X150.515 Y99.485
G0 X150.515 Y97.985
G0 X152.015 Y97.985
G0 X152.265 Y97.735
G1 F3000 E16.22705
G1 F108 X152.265 Y96.126 E16.25227
G1 X153.23 Y96.77 E16.27046
G1 X153.874 Y97.735 E16.28865
G1 X152.265 Y97.735 E16.31387
; Layer Change GCode
; LAYER:27
G1 F3000 E9.31387
G0 F6000 X152.015 Y97.985 Z5.82
G0 X150.432 Y97.985
G0 X149.568 Y99.568
G0 X148.068 Y99.568
G0 X148.068 Y98.068
G0 X147.318 Y97.318
G0 X147.102 Y97.318
G0 X146.168 Y97.818
; TYPE:WALL-OUTER
G1 F3000 E16.31387
G1 F108 X146.828 Y96.828 E16.33252
G1 X147.818 Y96.168 E16.35117
G1 X147.818 Y97.818 E16.37703
G1 X146.168 Y97.818 E16.4029
G1 F3000 E9.4029
G0 F6000 X145.7 Y98.068
G0 X144.452 Y97.236
G0 X143.953 Y97.983
G0 X144.422 Y98.858
G0 X144.377 Y101.225
G0 X145.7 Y101.932
G0 X147.102 Y102.682
G0 X147.318 Y102.898
G0 X147.818 Y103.832
G1 F3000 E16.4029
G1 F108 X146.828 Y103.172 E16.42155
G1 X146.168 Y102.182 E16.4402
G1 X147.818 Y102.182 E16.46607
G1 X147.818 Y103.832 E16.49193
G1 F3000 E9.49193
G0 F6000 X148.068 Y104.3
G0 X147.236 Y105.548
G0 X147.983 Y106.047
G0 X149.568 Y105.199
G0 X149.568 Y104.638
G0 X150.432 Y104.3
G0 X151.932 Y104.3
G0 X152.182 Y103.832
G1 F3000 E16.49193
G1 F108 X152.182 Y102.182 E16.5178
G1 X153.832 Y102.182 E16.54366
G1 X153.172 Y103.172 E16.56231
G1 X152.182 Y103.832 E16.58096
G1 F3000 E9.58096
G0 F6000 X152.682 Y102.898
G0 X152.682 Y102.682
G0 X151.932 Y101.932
G0 X150.432 Y101.932
G0 X150.432 Y100.432
G0 X150.432 Y99.568
G0 X150.432 Y98.068
G0 X151.932 Y98.068
G0 X152.182 Y97.818
G1 F3000 E16.58096
G1 F108 X152.182 Y96.168 E16.60683
G1 X153.172 Y96.828 E16.62548
G1 X153.832 Y97.818 E16.64413
G1 X152.182 Y97.818 E16.66999
; Layer Change GCode
; LAYER:28
G1 F3000 E9.66999
G0 F6000 X151.932 Y98.068 Z6.02
G0 X150.349 Y98.068
G0 X149.651 Y99.651
G0 X148.151 Y99.651
G0 X148.151 Y98.151
G0 X147.401 Y97.401
G0 X147.146 Y97.401
G0 X146.21 Y97.901
; TYPE:WALL-OUTER
G1 F3000 E16.66999
G1 F108 X146.887 Y96.887 E16.68911
G1 X147.901 Y96.21 E16.70822
G1 X147.901 Y97.901 E16.73472
G1 X146.21 Y97.901 E16.76123
G1 F3000 E9.76123
G0 F6000 X145.742 Y98.151
G0 X144.496 Y97.318
G0 X143.995 Y98.065
G0 X144.419 Y101.142
G0 X145.742 Y101.849
G0 X147.146 Y102.599
G0 X147.401 Y102.854
G0 X147.901 Y103.79
G1 F3000 E16.76123
G1 F108 X146.887 Y103.113 E16.78034
G1 X146.21 Y102.099 E16.79946
G1 X147.901 Y102.099 E16.82596
G1 X147.901 Y103.79 E16.85247
G1 F3000 E9.85247
G0 F6000 X148.151 Y104.258
G0 X147.318 Y105.504
G0 X148.065 Y106.005
G0 X149.651 Y105.157
G0 X150.349 Y104.258
G0 X151.849 Y104.258
G0 X152.099 Y103.79
G1 F3000 E16.85247
G1 F108 X152.099 Y102.099 E16.87898
G1 X153.79 Y102.099 E16.90548
G1 X153.113 Y103.113 E16.9246
G1 X152.099 Y103.79 E16.94371
G1 F3000 E9.94371
G0 F6000 X152.599 Y102.854
G0 X152.599 Y102.599
G0 X151.849 Y101.849
G0 X150.349 Y101.849
G0 X150.349 Y100.349
G0 X150.349 Y99.651
G0 X150.349 Y98.151
G0 X151.849 Y98.151
G0 X152.099 Y97.901
G1 F3000 E16.94371
G1 F108 X152.099 Y96.21 E16.97022
G1 X153.113 Y96.887 E16.98933
G1 X153.79 Y97.901 E17.00844
G1 X152.099 Y97.901 E17.03495
; Layer Change GCode
; LAYER:29
G1 F3000 E10.03495
G0 F6000 X151.849 Y98.151 Z6.22
G0 X151.845 Y99.731
G0 X149.727 Y99.742
G0 X148.227 Y99.737
G0 X148.231 Y98.238
G0 X147.982 Y97.987
; TYPE:WALL-OUTER
G1 F3000 E17.03495
G1 F108 X146.254 Y97.982 E17.06203
G1 X146.947 Y96.946 E17.08157
G1 X147.987 Y96.258 E17.10112
G1 X147.982 Y97.987 E17.12822
G1 F3000 E10.12822
G0 F6000 X148.231 Y98.238
G0 X148.227 Y99.737
G0 X149.742 Y100.273
G0 X149.737 Y101.773
G0 X148.238 Y101.769
G0 X147.486 Y102.517
G0 X147.485 Y102.812
G0 X147.982 Y103.746
G1 F3000 E17.12822
G1 F108 X146.946 Y103.054 E17.14775
G1 X146.252 Y102.013 E17.16736
G1 X147.987 Y102.018 E17.19456
G1 X147.982 Y103.746 E17.22165
G1 F3000 E10.22165
G0 F6000 X148.231 Y104.213
G0 X149.73 Y104.217
G0 X150.259 Y105.112
G0 X151.053 Y105.538
G0 X151.762 Y104.216
G0 X152.013 Y103.749
G1 F3000 E17.22165
G1 F108 X152.018 Y102.013 E17.24886
G1 X153.746 Y102.018 E17.27595
G1 X153.054 Y103.054 E17.29548
G1 X152.013 Y103.749 E17.3151
G1 F3000 E10.3151
G0 F6000 X152.516 Y102.811
G0 X152.517 Y102.514
G0 X151.769 Y101.762
G0 X151.773 Y100.263
G0 X150.258 Y99.727
G0 X150.263 Y98.227
G0 X151.762 Y98.231
G0 X152.514 Y97.483
G0 X152.81 Y97.484
G0 X153.742 Y97.987
G1 F3000 E17.3151
G1 F108 X152.013 Y97.982 E17.3422
G1 X152.018 Y96.254 E17.36929
G1 X153.054 Y96.947 E17.38883
G1 X153.742 Y97.987 E17.40837
; Layer Change GCode
; LAYER:30
G1 F3000 E10.40837
G0 F6000 X153.742 Y97.987 Z6.42
G0 X152.81 Y97.484
G0 X152.514 Y97.483
G0 X151.762 Y98.231
G0 X150.62 Y99.381
G0 X149.382 Y99.381
G0 X148.72 Y98.031
G0 X147.97 Y97.53
G0 X147.659 Y97.659
G0 X147.53 Y97.971
G0 X146.96 Y97.971
G0 X146.067 Y98.471
; TYPE:WALL-OUTER
G1 F3000 E17.40837
G1 F144 X146.085 Y98.425 E17.40915
G0 F6000 X146.085 Y98.38
G1 F144 X147.004 Y97.004 E17.43509
G1 X148.366 Y96.094 E17.46076
G0 F6000 X148.417 Y96.093
G1 F144 X148.469 Y96.072 E17.46164
G0 F6000 X148.469 Y96.093
G1 F144 X148.47 Y97.864 E17.4894
G1 X148.042 Y98.042 E17.49667
G1 X147.864 Y98.471 E17.50395
G1 X146.085 Y98.471 E17.53184
G0 F6000 X146.96 Y97.971
G0 X147.174 Y97.649
G0 X147.091 Y97.594
; TYPE:FILL
G1 F144 X147.568 Y98.07 E17.5424
G0 F6000 X147.53 Y97.971
G0 X147.659 Y97.659
G0 X147.842 Y97.584
G0 X147.88 Y97.675
G1 F144 X147.415 Y97.21 E17.55271
G0 F6000 X147.471 Y97.294
G0 X147.895 Y97.011
G0 X147.839 Y96.927
G1 F144 X148.068 Y97.156 E17.55778
G1 F3000 E10.55778
G0 F6000 X147.97 Y97.156
G0 X147.659 Y97.659
G0 X147.53 Y97.971
G0 X148.031 Y98.721
G0 X149.382 Y99.381
G0 X149.381 Y100.619
G0 X148.031 Y101.279
G0 X147.53 Y102.029
G0 X147.659 Y102.341
G0 X147.851 Y102.421
G0 X148.042 Y101.958
; TYPE:WALL-OUTER
G1 F3000 E17.55778
G1 F144 X148.471 Y102.136 E17.56507
G1 X148.471 Y103.915 E17.59295
G0 F6000 X148.471 Y103.933
G1 F144 X148.425 Y103.915 E17.59373
G0 F6000 X148.38 Y103.915
G1 F144 X147.004 Y102.996 E17.61966
G1 X146.094 Y101.634 E17.64534
G0 F6000 X146.094 Y101.581
G1 F144 X146.072 Y101.529 E17.64623
G0 F6000 X146.094 Y101.529
G1 F144 X147.864 Y101.529 E17.67397
G1 X148.042 Y101.958 E17.68125
G0 F6000 X147.851 Y102.421
G0 X147.971 Y102.815
G0 X148.07 Y102.815
; TYPE:FILL
G1 F144 X147.183 Y101.928 E17.70092
G1 F3000 E10.70092
G0 F6000 X147.183 Y102.029
G0 X147.659 Y102.341
G0 X147.971 Y102.47
G0 X148.721 Y101.969
G0 X149.381 Y100.619
G0 X150.62 Y100.619
G0 X151.279 Y101.969
G0 X152.029 Y102.466
G0 X152.344 Y102.333
G0 X152.422 Y102.144
G0 X151.961 Y101.952
G0 X152.422 Y102.144
G0 X153.039 Y102.03
G0 X153.906 Y101.634
; TYPE:WALL-OUTER
G1 F3000 E17.70092
G1 F144 X152.996 Y102.996 E17.72659
G1 X151.634 Y103.906 E17.75227
G0 F6000 X151.581 Y103.906
G1 F144 X151.529 Y103.928 E17.75315
G0 F6000 X151.529 Y103.906
G1 F144 X151.529 Y102.134 E17.78093
G1 X151.961 Y101.952 E17.78828
G1 X152.136 Y101.53 E17.79544
G1 X153.906 Y101.53 E17.82319
G0 F6000 X153.928 Y101.531
G1 F144 X153.906 Y101.582 E17.82406
G0 F6000 X153.039 Y102.03
G0 X152.99 Y102.105
G0 X153.071 Y102.159
; TYPE:FILL
G1 F144 X152.842 Y101.93 E17.82913
G0 F6000 X152.842 Y102.03
G0 X152.416 Y102.157
G0 X152.324 Y102.119
G1 F144 X152.788 Y102.583 E17.83942
G0 F6000 X152.707 Y102.529
G0 X152.35 Y102.826
G0 X152.405 Y102.908
G1 F144 X151.928 Y102.43 E17.85001
G1 F3000 E10.85001
G0 F6000 X152.029 Y102.466
G0 X152.344 Y102.333
G0 X152.47 Y102.03
G0 X151.969 Y101.28
G0 X150.62 Y100.619
G0 X150.62 Y99.381
G0 X151.969 Y98.72
G0 X152.134 Y98.47
G0 X152.466 Y97.97
G0 X153.039 Y97.97
G0 X153.906 Y98.417
; TYPE:WALL-OUTER
G1 F3000 E17.85001
G1 F144 X153.928 Y98.469 E17.85089
G0 F6000 X153.907 Y98.469
G1 F144 X152.134 Y98.47 E17.87868
G1 X151.952 Y98.039 E17.88602
G1 X151.53 Y97.864 E17.89318
G1 X151.53 Y96.085 E17.92106
G0 F6000 X151.531 Y96.067
G1 F144 X151.575 Y96.085 E17.92181
G0 F6000 X151.62 Y96.085
G1 F144 X152.996 Y97.004 E17.94775
G1 X153.906 Y98.366 E17.97342
G0 F6000 X153.039 Y97.97
G0 X153.141 Y97.987
; TYPE:FILL
G1 F144 X152.012 Y96.858 E17.99845
G0 F6000 X152.03 Y96.961
G0 X152.03 Y97.482
G0 X151.929 Y97.482
G1 F144 X152.125 Y97.678 E18.0028
G0 F6000 X152.163 Y97.586
G0 X152.333 Y97.656
G0 X152.404 Y97.825
G0 X152.312 Y97.864
G1 F144 X152.517 Y98.07 E18.00735
; Layer Change GCode
; LAYER:31
G1 F3000 E11.00735
G0 F6000 X152.517 Y98.07 Z6.62
G0 X152.517 Y97.97
G0 X152.333 Y97.656
G0 X152.03 Y97.53
G0 X151.28 Y98.031
G0 X150.62 Y99.384
G0 X149.778 Y99.216
G0 X149.203 Y97.831
G0 X148.453 Y97.33
G0 X147.862 Y97.575
G0 X148.053 Y98.037
; TYPE:WALL-OUTER
G1 F3000 E18.00735
G1 F198 X147.666 Y98.953 E18.02294
G1 X146.055 Y98.953 E18.04819
G1 X146.162 Y98.412 E18.05684
G1 X147.063 Y97.063 E18.08227
G1 X148.401 Y96.169 E18.10749
G1 X148.952 Y96.056 E18.11631
G1 X148.953 Y97.664 E18.14152
G1 X148.053 Y98.037 E18.15679
G0 F6000 X147.862 Y97.575
G0 X148.453 Y96.814
G0 X148.551 Y96.814
; TYPE:FILL
G1 F198 X146.813 Y98.553 E18.19533
G1 F3000 E11.19533
G0 F6000 X146.813 Y98.453
G0 X147.334 Y98.453
G0 X147.831 Y99.203
G0 X149.215 Y99.788
G0 X149.217 Y100.222
G0 X147.831 Y100.797
G0 X147.33 Y101.547
G0 X147.659 Y102.341
G0 X147.851 Y102.42
G0 X148.042 Y101.958
; TYPE:WALL-OUTER
G1 F3000 E18.19533
G1 F198 X148.953 Y102.336 E18.21079
G1 X148.953 Y103.945 E18.23601
G1 X148.412 Y103.838 E18.24465
G1 X147.063 Y102.937 E18.27008
G1 X146.169 Y101.599 E18.29531
G1 X146.056 Y101.047 E18.30414
G1 X147.664 Y101.047 E18.32935
G1 X148.042 Y101.958 E18.34481
G0 F6000 X147.851 Y102.42
G0 X147.921 Y102.448
G0 X147.958 Y102.357
; TYPE:FILL
G1 F198 X147.541 Y102.774 E18.35405
G0 F6000 X147.595 Y102.692
G0 X147.282 Y102.363
G0 X147.277 Y102.358
G0 X147.194 Y102.413
G1 F198 X147.62 Y101.988 E18.36348
G0 F6000 X147.529 Y102.025
G0 X147.33 Y101.547
G0 X147.413 Y101.488
G1 F198 X146.911 Y101.99 E18.37461
G0 F6000 X146.994 Y101.935
G0 X146.736 Y101.547
G0 X146.628 Y101.565
G1 F198 X146.747 Y101.447 E18.37724
G0 F6000 X146.736 Y101.547
G0 X148.019 Y102.974
G0 X147.964 Y103.057
G1 F198 X148.458 Y102.564 E18.38818
G0 F6000 X148.421 Y102.655
G0 X148.453 Y103.178
G0 X148.551 Y103.178
G1 F198 X148.388 Y103.341 E18.39179
G1 F3000 E11.39179
G0 F6000 X148.443 Y103.258
G0 X148.453 Y103.263
G0 X149.203 Y104.25
G0 X148.911 Y105.721
G0 X149.297 Y106.088
G0 X150.015 Y105.941
G0 X150.703 Y106.078
G0 X150.703 Y105.801
G0 X151.098 Y105.721
G0 X150.797 Y104.25
G0 X151.547 Y103.264
G0 X152.149 Y102.42
G0 X151.958 Y101.958
; TYPE:WALL-OUTER
G1 F3000 E18.39179
G1 F198 X152.336 Y101.047 E18.40725
G1 X153.944 Y101.048 E18.43246
G1 X153.831 Y101.599 E18.44128
G1 X152.937 Y102.937 E18.4665
G1 X151.599 Y103.831 E18.49173
G1 X151.047 Y103.944 E18.50056
G1 X151.047 Y102.336 E18.52577
G1 X151.958 Y101.958 E18.54123
G0 F6000 X152.149 Y102.42
G0 X152.503 Y102.626
G0 X152.557 Y102.707
; TYPE:FILL
G1 F198 X152.707 Y102.558 E18.54454
G0 F6000 X152.626 Y102.504
G0 X153.263 Y101.548
G0 X153.11 Y101.547
G0 X153.11 Y101.447
G1 F198 X151.446 Y103.111 E18.58143
G1 F3000 E11.58143
G0 F6000 X151.547 Y103.111
G0 X152.341 Y102.341
G0 X152.67 Y101.547
G0 X152.169 Y100.797
G0 X150.784 Y100.222
G0 X150.784 Y99.778
G0 X152.169 Y99.203
G0 X152.67 Y98.453
G0 X152.425 Y97.862
G0 X151.963 Y98.053
; TYPE:WALL-OUTER
G1 F3000 E18.58143
G1 F198 X151.047 Y97.666 E18.59702
G1 X151.048 Y96.055 E18.62227
G1 X151.588 Y96.162 E18.6309
G1 X152.937 Y97.063 E18.65633
G1 X153.831 Y98.401 E18.68155
G1 X153.944 Y98.952 E18.69037
G1 X152.336 Y98.953 E18.71558
G1 X151.963 Y98.053 E18.73085
G0 F6000 X152.425 Y97.862
G0 X152.448 Y97.921
G0 X152.356 Y97.959
; TYPE:FILL
G1 F198 X152.774 Y97.541 E18.74011
G0 F6000 X152.692 Y97.596
G0 X152.363 Y97.282
G0 X152.358 Y97.277
G0 X152.413 Y97.195
G1 F198 X151.981 Y97.626 E18.74968
G0 F6000 X152.019 Y97.535
G0 X151.547 Y97.334
G0 X151.485 Y97.415
G1 F198 X151.989 Y96.912 E18.76084
G0 F6000 X151.934 Y96.994
G0 X151.548 Y96.737
G0 X151.565 Y96.628
G1 F198 X151.446 Y96.747 E18.76348
G0 F6000 X151.547 Y96.747
G0 X152.975 Y98.02
G0 X153.057 Y97.965
G1 F198 X152.563 Y98.458 E18.77442
G0 F6000 X152.655 Y98.42
G0 X153.177 Y98.453
G0 X153.177 Y98.552
G1 F198 X153.341 Y98.388 E18.77806
; Layer Change GCode
; LAYER:32
G1 F3000 E11.77806
G0 F6000 X153.341 Y98.388 Z6.82
G0 X153.258 Y98.443
G0 X152.346 Y97.672
G0 X151.547 Y97.334
G0 X150.797 Y97.831
G0 X149.685 Y97.631
G0 X148.935 Y97.13
G0 X147.851 Y97.581
G0 X148.042 Y98.042
; TYPE:WALL-OUTER
G1 F3000 E18.77806
G1 F234 X147.464 Y99.435 E18.8017
G1 X146.042 Y99.435 E18.82399
G1 X146.243 Y98.437 E18.83995
G1 X147.121 Y97.121 E18.86474
G1 X148.443 Y96.239 E18.88966
G1 X149.436 Y96.042 E18.90552
G1 X149.435 Y97.464 E18.92782
G1 X148.042 Y98.042 E18.95146
G0 F6000 X147.851 Y97.581
G0 X147.843 Y97.584
G0 X147.88 Y97.675
; TYPE:FILL
G1 F234 X147.531 Y97.326 E18.95919
G0 F6000 X147.587 Y97.41
G0 X147.299 Y97.756
G0 X147.291 Y97.766
G0 X147.207 Y97.71
G1 F234 X147.588 Y98.09 E18.96763
G0 F6000 X147.497 Y98.053
G0 X147.29 Y98.553
G0 X147.38 Y98.59
G1 F234 X146.924 Y98.134 E18.97774
G0 F6000 X147.008 Y98.19
G0 X146.713 Y98.633
G0 X146.725 Y98.614
G0 X146.641 Y98.558
G1 F234 X147.118 Y99.035 E18.98831
G0 F6000 X147.13 Y98.935
G0 X147.659 Y97.659
G0 X148.342 Y97.377
G0 X148.379 Y97.468
G1 F234 X147.955 Y97.044 E18.99771
G0 F6000 X148.011 Y97.128
G0 X148.637 Y96.711
G0 X148.435 Y96.845
G0 X148.379 Y96.761
G1 F234 X148.879 Y97.261 E19.00879
G0 F6000 X148.842 Y97.17
G0 X148.936 Y96.709
G0 X149.035 Y96.709
G1 F234 X148.884 Y96.558 E19.01214
G1 F3000 E12.01214
G0 F6000 X148.903 Y96.657
G0 X147.659 Y97.659
G0 X147.13 Y98.935
G0 X147.631 Y99.685
G0 X147.631 Y100.315
G0 X147.13 Y101.065
G0 X147.659 Y102.341
G0 X147.851 Y102.419
G0 X148.042 Y101.958
; TYPE:WALL-OUTER
G1 F3000 E19.01214
G1 F234 X149.435 Y102.536 E19.03578
G1 X149.435 Y103.958 E19.05807
G1 X148.437 Y103.757 E19.07403
G1 X147.121 Y102.879 E19.09883
G1 X146.239 Y101.557 E19.12374
G1 X146.042 Y100.565 E19.1396
G1 X147.464 Y100.565 E19.16189
G1 X148.042 Y101.958 E19.18553
G0 F6000 X147.851 Y102.419
G0 X148.935 Y102.87
G0 X148.538 Y102.704
G0 X148.575 Y102.613
; TYPE:FILL
G1 F234 X149.034 Y103.072 E19.1957
G0 F6000 X148.935 Y103.072
G0 X148.664 Y103.294
G0 X148.645 Y103.39
G1 F234 X146.604 Y101.349 E19.24095
G0 F6000 X146.704 Y101.33
G0 X146.927 Y101.065
G0 X146.927 Y100.965
G1 F234 X147.386 Y101.424 E19.25112
G1 F3000 E12.25112
G0 F6000 X147.295 Y101.461
G0 X147.659 Y102.341
G0 X148.935 Y102.87
G0 X149.685 Y102.369
G0 X150.315 Y102.369
G0 X151.065 Y102.87
G0 X152.149 Y102.419
G0 X151.958 Y101.958
; TYPE:WALL-OUTER
G1 F3000 E19.25112
G1 F234 X152.536 Y100.565 E19.27477
G1 X153.958 Y100.564 E19.29706
G1 X153.757 Y101.564 E19.31304
G1 X152.879 Y102.879 E19.33783
G1 X151.557 Y103.761 E19.36274
G1 X150.565 Y103.958 E19.3786
G1 X150.565 Y102.536 E19.40089
G1 X151.958 Y101.958 E19.42453
G0 F6000 X152.149 Y102.419
G0 X152.341 Y102.341
G0 X152.416 Y102.157
G0 X152.324 Y102.119
; TYPE:FILL
G1 F234 X152.671 Y102.466 E19.43222
G0 F6000 X152.59 Y102.412
G0 X152.233 Y102.709
G0 X152.288 Y102.791
G1 F234 X151.909 Y102.411 E19.44063
G0 F6000 X151.947 Y102.503
G0 X151.447 Y102.711
G0 X151.409 Y102.618
G1 F234 X151.864 Y103.074 E19.45073
G0 F6000 X151.81 Y102.993
G0 X151.364 Y103.289
G0 X151.386 Y103.275
G0 X151.441 Y103.357
G1 F234 X150.964 Y102.881 E19.46129
G0 F6000 X151.065 Y102.881
G0 X152.341 Y102.341
G0 X152.624 Y101.657
G0 X152.531 Y101.619
G1 F234 X152.954 Y102.042 E19.47067
G0 F6000 X152.873 Y101.988
G0 X153.156 Y101.565
G0 X153.237 Y101.619
G1 F234 X152.738 Y101.119 E19.48174
G0 F6000 X152.831 Y101.157
G0 X153.29 Y101.064
G0 X153.29 Y100.964
G1 F234 X153.439 Y101.113 E19.48505
G1 F3000 E12.48505
G0 F6000 X153.341 Y101.094
G0 X153.347 Y101.064
G0 X154.263 Y100.314
G0 X154.263 Y99.686
G0 X153.349 Y98.936
G0 X152.419 Y97.851
G0 X151.958 Y98.042
; TYPE:WALL-OUTER
G1 F3000 E19.48505
G1 F234 X150.565 Y97.464 E19.50869
G1 X150.564 Y96.042 E19.53098
G1 X151.564 Y96.243 E19.54697
G1 X152.879 Y97.121 E19.57175
G1 X153.761 Y98.443 E19.59667
G1 X153.958 Y99.436 E19.61253
G1 X152.536 Y99.435 E19.63482
G1 X151.958 Y98.042 E19.65847
G0 F6000 X152.419 Y97.851
G0 X152.341 Y97.659
G0 X152.413 Y97.837
G0 X152.322 Y97.874
; TYPE:FILL
G1 F234 X153.465 Y99.018 E19.68382
G0 F6000 X153.349 Y98.936
G0 X152.519 Y97.483
G0 X152.559 Y97.541
G0 X152.641 Y97.487
G1 F234 X152.513 Y97.359 E19.68665
G0 F6000 X152.458 Y97.441
G0 X152.161 Y97.586
G0 X152.124 Y97.676
G1 F234 X150.98 Y96.533 E19.712
; Layer Change GCode
; LAYER:33
G0 F6000 X150.98 Y96.533 Z7.02
G0 X150.945 Y96.71
G0 X150.885 Y97.055
G0 X152.341 Y97.659
G0 X153.312 Y100
G0 X152.341 Y102.341
G0 X150 Y103.312
G0 X149.809 Y103.231
G0 X150 Y102.771
; TYPE:WALL-OUTER
G1 F270 X151.958 Y101.958 E19.74524
G1 X152.771 Y100 E19.77847
G1 X151.958 Y98.042 E19.8117
G1 X150 Y97.229 E19.84494
G1 X148.042 Y98.042 E19.87817
G1 X147.229 Y100 E19.9114
G1 X148.042 Y101.958 E19.94464
G1 X150 Y102.771 E19.97787
G0 F6000 X149.809 Y103.231
G0 X149.999 Y103.478
G0 X150 Y103.988
G1 F270 X148.472 Y103.682 E20.0023
G1 X147.18 Y102.82 E20.02664
G1 X146.315 Y101.525 E20.05105
G1 X146.012 Y100 E20.07543
G1 X146.318 Y98.472 E20.09985
G1 X147.18 Y97.18 E20.1242
G1 X148.475 Y96.315 E20.14861
G1 X150 Y96.012 E20.17298
G1 X151.528 Y96.318 E20.19741
G1 X152.82 Y97.18 E20.22176
G1 X153.685 Y98.475 E20.24617
G1 X153.988 Y100 E20.27054
G1 X153.682 Y101.528 E20.29497
G1 X152.82 Y102.82 E20.31932
G1 X151.525 Y103.685 E20.34373
G1 X150 Y103.988 E20.3681
G0 F6000 X149.999 Y103.478
G0 X150.116 Y103.263
G0 X150.078 Y103.17
; TYPE:BRIDGE
G1 F1200 X150.663 Y103.171 E20.37727
G0 F6000 X150 Y103.312
G0 X149.881 Y103.262
G0 X149.919 Y103.17
G1 F1200 X149.333 Y103.169 E20.38646
G0 F6000 X147.659 Y102.341
G0 X146.885 Y100.663
G1 F1200 X146.886 Y100.217 E20.39345
G0 F6000 X146.795 Y100.254
G0 X146.688 Y100
G0 X146.796 Y99.742
G0 X146.886 Y99.779
G1 F1200 X146.887 Y99.333 E20.40044
G0 F6000 X147.659 Y97.659
G0 X149.335 Y96.669
G1 F1200 X150.664 Y96.671 E20.42127
G0 F6000 X152.341 Y97.659
G0 X152.821 Y98.818
G0 X153.348 Y99.342
G0 X153.387 Y99.335
G1 F1200 X153.385 Y100.663 E20.44209
G0 F6000 X153.347 Y100.656
G0 X153.186 Y100.664
; TYPE:FILL
G1 F270 X152.744 Y101.107 E20.4519
G0 F6000 X152.836 Y101.145
G0 X153.237 Y101.205
G0 X153.333 Y101.224
G1 F270 X151.22 Y103.337 E20.49874
G0 F6000 X151.201 Y103.239
G0 X150.664 Y103.186
G1 F270 X151.106 Y102.744 E20.50854
G0 F6000 X151.144 Y102.836
G0 X150 Y103.312
G0 X149.333 Y103.103
G1 F270 X149.047 Y103.389 E20.51488
G0 F6000 X149.066 Y103.291
G0 X148.561 Y103.14
G0 X148.505 Y103.224
G1 F270 X148.957 Y102.772 E20.5249
G0 F6000 X148.92 Y102.863
G0 X147.659 Y102.341
G0 X148.42 Y102.656
G0 X148.458 Y102.564
G1 F270 X148.081 Y102.941 E20.53326
G0 F6000 X148.137 Y102.857
G0 X147.542 Y102.46
G0 X147.712 Y102.575
G0 X147.658 Y102.657
G1 F270 X147.958 Y102.357 E20.53991
G0 F6000 X147.921 Y102.448
G0 X147.659 Y102.341
G0 X147.529 Y102.025
G0 X147.619 Y101.988
G1 F270 X147.311 Y102.297 E20.54675
G0 F6000 X147.394 Y102.241
G0 X147.542 Y102.46
G0 X147.111 Y101.817
G0 X147.028 Y101.873
G1 F270 X147.412 Y101.488 E20.55527
G0 F6000 X147.322 Y101.525
G0 X147.659 Y102.341
G0 X147.114 Y101.025
G0 X147.205 Y100.988
G1 F270 X146.745 Y101.449 E20.56548
G0 F6000 X146.828 Y101.393
G0 X146.695 Y100.872
G0 X146.595 Y100.891
G1 F270 X146.822 Y100.665 E20.5705
G0 F6000 X146.688 Y100
G0 X146.738 Y99.335
G1 F270 X147.308 Y98.765 E20.58314
G0 F6000 X147.217 Y98.728
G0 X146.782 Y98.701
G0 X146.683 Y98.682
G1 F270 X148.685 Y96.68 E20.62752
G0 F6000 X148.704 Y96.78
G0 X148.727 Y97.217
G0 X148.764 Y97.308
G1 F270 X149.335 Y96.737 E20.64018
G0 F6000 X150 Y96.688
G0 X150.663 Y96.823
G1 F270 X150.889 Y96.597 E20.64519
G0 F6000 X150.87 Y96.696
G0 X151.393 Y96.829
G0 X151.448 Y96.746
G1 F270 X150.987 Y97.206 E20.65539
G0 F6000 X151.025 Y97.114
G0 X152.341 Y97.659
G0 X151.524 Y97.322
G0 X151.487 Y97.413
G1 F270 X151.872 Y97.029 E20.66392
G0 F6000 X151.817 Y97.112
G0 X152.242 Y97.394
G0 X152.296 Y97.312
G1 F270 X151.988 Y97.62 E20.67075
G0 F6000 X152.025 Y97.529
G0 X152.341 Y97.659
G0 X152.449 Y97.921
G0 X152.356 Y97.959
G1 F270 X152.657 Y97.658 E20.67742
G0 F6000 X152.575 Y97.713
G0 X152.858 Y98.137
G0 X152.94 Y98.082
G1 F270 X152.563 Y98.458 E20.68577
G0 F6000 X152.656 Y98.42
G0 X152.341 Y97.659
G0 X152.863 Y98.92
G0 X152.771 Y98.958
G1 F270 X153.223 Y98.506 E20.69579
G0 F6000 X153.141 Y98.561
G0 X153.292 Y99.065
G0 X153.39 Y99.046
G1 F270 X153.102 Y99.335 E20.70218
; Layer Change GCode
; LAYER:34
G0 F6000 X153.102 Y99.335 Z7.22
G0 X153.312 Y100
G0 X152.341 Y102.341
G0 X150 Y103.312
G0 X149.809 Y103.231
G0 X150 Y102.771
; TYPE:WALL-OUTER
G1 F234 X151.958 Y101.958 E20.73541
G1 X152.771 Y100 E20.76865
G1 X151.958 Y98.042 E20.80188
G1 X150 Y97.229 E20.83511
G1 X148.042 Y98.042 E20.86835
G1 X147.229 Y100 E20.90158
G1 X148.042 Y101.958 E20.93481
G1 X150 Y102.771 E20.96805
G0 F6000 X149.809 Y103.231
G0 X150.006 Y103.394
G0 X150.007 Y103.904
G1 F234 X148.527 Y103.612 E20.99169
G1 X147.248 Y102.766 E21.01573
G1 X146.392 Y101.492 E21.03979
G1 X146.096 Y100.007 E21.06353
G1 X146.388 Y98.527 E21.08717
G1 X147.234 Y97.247 E21.11123
G1 X148.506 Y96.393 E21.13524
G1 X149.995 Y96.096 E21.15904
G1 X151.473 Y96.388 E21.18266
G1 X152.753 Y97.234 E21.20671
G1 X153.607 Y98.506 E21.23073
G1 X153.904 Y99.995 E21.25453
G1 X153.612 Y101.473 E21.27814
G1 X152.766 Y102.752 E21.30218
G1 X151.492 Y103.608 E21.32624
G1 X150.007 Y103.904 E21.34998
G0 F6000 X150.006 Y103.394
G0 X150.12 Y103.372
G0 X150.139 Y103.47
; TYPE:FILL
G1 F234 X149.784 Y103.115 E21.35785
G0 F6000 X149.747 Y103.206
G0 X149.342 Y103.264
G0 X149.323 Y103.361
G1 F234 X148.575 Y102.613 E21.37443
G0 F6000 X148.538 Y102.704
G0 X148.169 Y102.778
G0 X148.115 Y102.86
G1 F234 X147.131 Y101.877 E21.39623
G0 F6000 X147.214 Y101.822
G0 X147.295 Y101.46
G0 X147.385 Y101.423
G1 F234 X146.635 Y100.673 E21.41286
G0 F6000 X146.734 Y100.654
G0 X146.794 Y100.252
G0 X146.884 Y100.215
G1 F234 X146.531 Y99.862 E21.42068
G0 F6000 X146.63 Y99.881
G0 X146.875 Y99.552
G0 X146.965 Y99.589
G1 F234 X146.648 Y99.272 E21.42771
G0 F6000 X146.746 Y99.291
G0 X147.082 Y99.052
G0 X147.172 Y99.089
G1 F234 X146.765 Y98.682 E21.43673
G0 F6000 X146.86 Y98.719
G0 X147.129 Y98.311
G0 X147.046 Y98.256
G1 F234 X147.38 Y98.589 E21.44413
G0 F6000 X147.29 Y98.552
G0 X147.497 Y98.052
G0 X147.587 Y98.089
G1 F234 X147.327 Y97.83 E21.44988
G0 F6000 X147.411 Y97.885
G0 X147.708 Y97.53
G0 X147.652 Y97.447
G1 F234 X147.879 Y97.674 E21.45491
G0 F6000 X147.842 Y97.584
G0 X148.342 Y97.377
G0 X148.379 Y97.467
G1 F234 X148.075 Y97.163 E21.46165
G0 F6000 X148.13 Y97.246
G0 X148.7 Y96.864
G0 X148.553 Y96.962
G0 X148.498 Y96.879
G1 F234 X148.879 Y97.26 E21.4701
G0 F6000 X148.842 Y97.17
G0 X150 Y96.688
G0 X149.342 Y96.962
G0 X149.379 Y97.053
G1 F234 X149.023 Y96.697 E21.47799
G0 F6000 X149.042 Y96.795
G0 X149.996 Y96.606
G0 X149.631 Y96.678
G0 X149.612 Y96.579
G1 F234 X149.879 Y96.846 E21.48391
G0 F6000 X149.842 Y96.755
G0 X150 Y96.688
G0 X150.287 Y96.663
G0 X150.306 Y96.566
G1 F234 X150.917 Y97.176 E21.49744
G0 F6000 X150.954 Y97.085
G0 X151.168 Y96.837
G0 X151.187 Y96.739
G1 F234 X152.124 Y97.676 E21.51821
G0 F6000 X152.161 Y97.586
G0 X152.341 Y97.659
G0 X152.413 Y97.837
G0 X152.322 Y97.874
G1 F234 X153.259 Y98.812 E21.539
G0 F6000 X153.163 Y98.831
G0 X152.914 Y99.044
G0 X152.822 Y99.082
G1 F234 X153.435 Y99.695 E21.55258
G0 F6000 X153.339 Y99.714
G0 X153.312 Y100
G0 X153.245 Y100.158
G0 X153.153 Y100.12
G1 F234 X153.418 Y100.385 E21.55846
G0 F6000 X153.321 Y100.366
G0 X153.038 Y100.657
G0 X152.945 Y100.619
G1 F234 X153.301 Y100.975 E21.56635
G0 F6000 X153.205 Y100.957
G0 X153.034 Y101.443
G0 X153.116 Y101.497
G1 F234 X152.738 Y101.119 E21.57473
G0 F6000 X152.831 Y101.157
G0 X152.341 Y102.341
G0 X152.624 Y101.657
G0 X152.531 Y101.619
G1 F234 X152.834 Y101.922 E21.58145
G0 F6000 X152.753 Y101.868
G0 X152.404 Y102.393
G0 X152.471 Y102.294
G0 X152.552 Y102.348
G1 F234 X152.324 Y102.119 E21.58651
G0 F6000 X152.416 Y102.157
G0 X152.341 Y102.341
G0 X151.947 Y102.503
G0 X151.909 Y102.411
G1 F234 X152.168 Y102.671 E21.59227
G0 F6000 X152.113 Y102.589
G0 X151.691 Y102.874
G0 X151.745 Y102.955
G1 F234 X151.409 Y102.618 E21.59973
G0 F6000 X151.447 Y102.711
G0 X150 Y103.312
G0 X150.948 Y102.918
G0 X150.91 Y102.826
G1 F234 X151.318 Y103.234 E21.60877
G0 F6000 X151.298 Y103.137
G0 X150.71 Y103.255
G0 X150.729 Y103.352
G1 F234 X150.41 Y103.033 E21.61584
; Layer Change GCode
; LAYER:35
G0 F6000 X150 Y102.771 Z7.42
; TYPE:WALL-OUTER
G1 F144 X151.958 Y101.958 E21.64908
G1 X152.771 Y100 E21.68231
G1 X151.958 Y98.042 E21.71554
G1 X150 Y97.229 E21.74878
G1 X148.042 Y98.042 E21.78201
G1 X147.229 Y100 E21.81524
G1 X148.042 Y101.958 E21.84848
G1 X150 Y102.771 E21.88171
G0 F6000 X149.48 Y103.097
G0 X150 Y103.71
G1 F144 X148.581 Y103.428 E21.90439
G1 X147.377 Y102.623 E21.92709
G1 X146.572 Y101.419 E21.94979
G1 X146.29 Y100 E21.97247
G1 X146.572 Y98.581 E21.99515
G1 X147.377 Y97.377 E22.01785
G1 X148.581 Y96.572 E22.04056
G1 X150 Y96.29 E22.06323
G1 X151.419 Y96.572 E22.08591
G1 X152.623 Y97.377 E22.10862
G1 X153.428 Y98.581 E22.13132
G1 X153.71 Y100 E22.154
G1 X153.428 Y101.419 E22.17668
G1 X152.623 Y102.623 E22.19938
G1 X151.419 Y103.428 E22.22208
G1 X150 Y103.71 E22.24476
; Layer Change GCode
; LAYER:36
G0 F6000 X150 Y103.51 Z7.62
; TYPE:WALL-OUTER
G1 F216 X148.658 Y103.243 E22.26621
G1 X147.518 Y102.482 E22.2877
G1 X146.757 Y101.342 E22.30918
G1 X146.49 Y100 E22.33063
G1 X146.757 Y98.658 E22.35208
G1 X147.518 Y97.518 E22.37356
G1 X148.658 Y96.757 E22.39505
G1 X150 Y96.49 E22.4165
G1 X151.342 Y96.757 E22.43795
G1 X152.482 Y97.518 E22.45943
G1 X153.243 Y98.658 E22.48092
G1 X153.51 Y100 E22.50237
G1 X153.243 Y101.342 E22.52382
G1 X152.482 Y102.482 E22.5453
G1 X151.342 Y103.243 E22.56679
G1 X150 Y103.51 E22.58824
G0 F6000 X150 Y102.771
G1 F216 X151.958 Y101.958 E22.62147
G1 X152.771 Y100 E22.6547
G1 X151.958 Y98.042 E22.68794
G1 X150 Y97.229 E22.72117
G1 X148.042 Y98.042 E22.7544
G1 X147.229 Y100 E22.78764
G1 X148.042 Y101.958 E22.82087
G1 X150 Y102.771 E22.8541
G0 F6000 X150.021 Y103.143
; TYPE:FILL
G1 F216 X151.157 Y102.802 E22.86188
G1 X152.208 Y102.236 E22.86966
G0 F6000 X152.237 Y102.208
G1 F216 X152.802 Y101.158 E22.87747
G1 X153.144 Y100.02 E22.8853
G0 F6000 X153.143 Y99.979
G1 F216 X152.802 Y98.842 E22.89307
G1 X152.236 Y97.791 E22.90086
G0 F6000 X152.208 Y97.763
G1 F216 X151.158 Y97.198 E22.90867
G1 X150.02 Y96.855 E22.9165
G0 F6000 X149.979 Y96.856
G1 F216 X148.842 Y97.197 E22.92427
G1 X147.791 Y97.763 E22.93206
G0 F6000 X147.763 Y97.792
G1 F216 X147.198 Y98.842 E22.93987
G1 X146.855 Y99.98 E22.9477
G0 F6000 X146.856 Y100.021
G1 F216 X147.197 Y101.157 E22.95547
G1 X147.763 Y102.208 E22.96325
G0 F6000 X147.792 Y102.237
G1 F216 X148.842 Y102.802 E22.97106
G1 X149.98 Y103.144 E22.97889
; Layer Change GCode
; LAYER:37
G0 F6000 X150 Y103.31 Z7.82
; TYPE:WALL-OUTER
G1 F144 X148.734 Y103.058 E22.99912
G1 X147.659 Y102.341 E23.01938
G1 X146.942 Y101.266 E23.03963
G1 X146.69 Y100 E23.05987
G1 X146.942 Y98.734 E23.0801
G1 X147.659 Y97.659 E23.10036
G1 X148.734 Y96.942 E23.12061
G1 X150 Y96.69 E23.14085
G1 X151.266 Y96.942 E23.16108
G1 X152.341 Y97.659 E23.18134
G1 X153.058 Y98.734 E23.20159
G1 X153.31 Y100 E23.22183
G1 X153.058 Y101.266 E23.24206
G1 X152.341 Y102.341 E23.26232
G1 X151.266 Y103.058 E23.28257
G1 X150 Y103.31 E23.30281
G0 F6000 X150 Y102.771
G1 F144 X151.958 Y101.958 E23.33604
G1 X152.771 Y100 E23.36927
G1 X151.958 Y98.042 E23.40251
G1 X150 Y97.229 E23.43574
G1 X148.042 Y98.042 E23.46897
G1 X147.229 Y100 E23.50221
G1 X148.042 Y101.958 E23.53544
G1 X150 Y102.771 E23.56867
; Layer Change GCode
; LAYER:38
G0 F6000 X150 Y102.771 Z8.02
; TYPE:WALL-OUTER
G1 F162 X151.958 Y101.958 E23.60191
G1 X152.771 Y100 E23.63514
G1 X151.958 Y98.042 E23.66837
G1 X150 Y97.229 E23.7016
G1 X148.042 Y98.042 E23.73484
G1 X147.229 Y100 E23.76807
G1 X148.042 Y101.958 E23.8013
G1 X150 Y102.771 E23.83454
G0 F6000 X150 Y103.11
G1 F162 X148.81 Y102.874 E23.85355
G1 X147.801 Y102.199 E23.87258
G1 X147.126 Y101.19 E23.89161
G1 X146.89 Y100 E23.91063
G1 X147.126 Y98.81 E23.92965
G1 X147.801 Y97.801 E23.94868
G1 X148.81 Y97.126 E23.96771
G1 X150 Y96.89 E23.98672
G1 X151.19 Y97.126 E24.00574
G1 X152.199 Y97.801 E24.02477
G1 X152.874 Y98.81 E24.0438
G1 X153.11 Y100 E24.06282
G1 X152.874 Y101.19 E24.08183
G1 X152.199 Y102.199 E24.10086
G1 X151.19 Y102.874 E24.11989
G1 X150 Y103.11 E24.13891
G0 F6000 X150.975 Y102.662
; TYPE:FILL
G1 F162 X151.18 Y102.552 E24.14059
G0 F6000 X151.189 Y102.573
G1 F162 X150.966 Y102.641 E24.14228
G0 F6000 X149.033 Y102.64
G1 F162 X148.811 Y102.573 E24.14397
G0 F6000 X148.819 Y102.552
G1 F162 X149.025 Y102.662 E24.14565
G1 F3000 E17.14565
G0 F6000 X147.447 Y101.18
G1 F3000 E24.14565
G1 F162 X147.338 Y100.975 E24.14734
G0 F6000 X147.359 Y100.966
G1 F162 X147.426 Y101.189 E24.14902
G0 F6000 X147.359 Y99.033
G1 F162 X147.427 Y98.81 E24.15072
G0 F6000 X147.448 Y98.819
G1 F162 X147.338 Y99.025 E24.15241
G0 F6000 X148.82 Y97.447
G1 F162 X149.025 Y97.338 E24.15409
G0 F6000 X149.034 Y97.359
G1 F162 X148.811 Y97.426 E24.15578
G0 F6000 X150.966 Y97.359
G1 F162 X151.189 Y97.426 E24.15747
G0 F6000 X151.18 Y97.448
G1 F162 X150.975 Y97.338 E24.15915
G0 F6000 X152.551 Y98.819
G1 F162 X152.662 Y99.025 E24.16085
G0 F6000 X152.64 Y99.034
G1 F162 X152.573 Y98.81 E24.16254
G0 F6000 X152.64 Y100.966
G1 F162 X152.573 Y101.189 E24.16424
G0 F6000 X152.552 Y101.18
G1 F162 X152.662 Y100.975 E24.16591
; Layer Change GCode
; LAYER:39
G0 F6000 X150 Y102.771 Z8.22
; TYPE:WALL-OUTER
G1 F126 X151.958 Y101.958 E24.19915
G1 X152.771 Y100 E24.23238
G1 X151.958 Y98.042 E24.26561
G1 X150 Y97.229 E24.29885
G1 X148.042 Y98.042 E24.33208
G1 X147.229 Y100 E24.36531
G1 X148.042 Y101.958 E24.39855
G1 X150 Y102.771 E24.43178
G0 F6000 X150 Y102.91
G1 F126 X148.887 Y102.689 E24.44957
G1 X147.942 Y102.058 E24.46738
G1 X147.311 Y101.113 E24.48519
G1 X147.09 Y100 E24.50298
G1 X147.311 Y98.887 E24.52077
G1 X147.942 Y97.942 E24.53858
G1 X148.887 Y97.311 E24.55639
G1 X150 Y97.09 E24.57418
G1 X151.113 Y97.311 E24.59196
G1 X152.058 Y97.942 E24.60978
G1 X152.689 Y98.887 E24.62759
G1 X152.91 Y100 E24.64538
G1 X152.689 Y101.113 E24.66316
G1 X152.058 Y102.058 E24.68098
G1 X151.113 Y102.689 E24.69879
G1 X150 Y102.91 E24.71658
; Layer Change GCode
; LAYER:40
G0 F6000 X150.28 Y102.655 Z8.42
; TYPE:WALL-OUTER
G1 F108 X151.007 Y102.435 E24.72848
G1 X151.685 Y102.071 E24.74054
G0 F6000 X152.071 Y101.685
G1 F108 X152.434 Y101.008 E24.75259
G1 X152.655 Y100.28 E24.76451
G0 F6000 X152.655 Y99.72
G1 F108 X152.435 Y98.992 E24.77643
G1 X152.071 Y98.315 E24.78848
G0 F6000 X151.685 Y97.929
G1 F108 X151.008 Y97.565 E24.80053
G1 X150.28 Y97.345 E24.81245
G1 F3000 E17.81245
G0 F6000 X148.315 Y97.929
G1 F3000 E24.81245
G1 F108 X148.992 Y97.565 E24.8245
G1 X149.72 Y97.345 E24.83642
G0 F6000 X147.345 Y99.72
G1 F108 X147.565 Y98.992 E24.84834
G1 X147.929 Y98.315 E24.86039
G0 F6000 X147.929 Y101.685
G1 F108 X147.565 Y101.007 E24.87246
G1 X147.345 Y100.28 E24.88436
G0 F6000 X149.72 Y102.655
G1 F108 X148.992 Y102.434 E24.89629
G1 X148.315 Y102.071 E24.90833
; Layer Change GCode
; LAYER:41
G0 F6000 X151.052 Y97.461 Z8.62
G0 X150.968 Y97.664
; TYPE:FILL
G1 F108 X151.835 Y98.131 E24.92377
G0 F6000 X151.867 Y98.165
G1 F108 X152.338 Y99.038 E24.93932
G1 X152.619 Y99.976 E24.95467
G0 F6000 X152.619 Y100.023
G1 F108 X152.336 Y100.968 E24.97013
G1 X151.869 Y101.835 E24.98557
G0 F6000 X151.835 Y101.867
G1 F108 X150.961 Y102.338 E25.00113
G1 X150.024 Y102.619 E25.01646
G0 F6000 X149.976 Y102.619
G1 F108 X149.032 Y102.336 E25.03191
G1 X148.165 Y101.869 E25.04735
G0 F6000 X148.132 Y101.835
G1 F108 X147.662 Y100.961 E25.0629
G1 X147.381 Y100.024 E25.07824
G0 F6000 X147.38 Y99.976
G1 F108 X147.664 Y99.032 E25.09369
G1 X148.131 Y98.165 E25.10913
G0 F6000 X148.165 Y98.132
G1 F108 X149.038 Y97.662 E25.12467
G1 X149.976 Y97.381 E25.14002
G0 F6000 X150.023 Y97.38
G1 F108 X150.968 Y97.664 E25.15549
M104 S0 ; turn off temperature
M140 S0
G28 X0 Y0 ; home X/Y axis
M84     ; disable motors
; filament used = 25.2
; filament used extruder 1 (mm) = 25.2
; filament used extruder 2 (mm) = 0.0
; total print time (s) = 648
; MatterControl Version 1.7.1 Build 1.7.1.9407 : GCode settings used
; Date 06/21/2018 00:00:00 Time 14:04
; numberOfBottomLayers = 5
; numberOfPerimeters = 1
; raftExtraDistanceAroundPart = 5
; numberOfSkirtLoops = 3
; supportInterfaceLayers = 0
; numberOfTopLayers = 5
; numberOfBrimLoops = 0
; outsidePerimeterExtrusionWidth = 0.5
; outsidePerimeterSpeed = 30
; firstLayerSpeed = 15
; raftPrintSpeed = 30
; topInfillSpeed = 30
; firstLayerExtrusionWidth = 0.5
; firstLayerThickness = 0.42
; extruderOffsets = [[0,0],[0,0],[0,0],[0,0],[0,0],[0,0],[0,0],[0,0],[0,0],[0,0],[0,0],[0,0],[0,0],[0,0],[0,0],[0,0]]
; beforeToolchangeCode =
; endCode = M104 S0 ; turn off temperature\nM140 S0\nG28 X0 Y0 ; home X/Y axis\nM84     ; disable motors
; toolChangeCode =
; minimumTravelToCauseRetraction = 20
; retractionOnTravel = 7
; retractionZHop = 0
; unretractExtraExtrusion = 0
; retractRestartExtraTimeToApply = 0
; retractionSpeed = 50
; bridgeFanSpeedPercent = 0
; bridgeSpeed = 20
; firstLayerToAllowFan = 2
; extrusionMultiplier = 1
; infillStartingAngle = 45
; infillExtendIntoPerimeter = .1
; infillSpeed = 30
; infillType = TRIANGLES
; layerChangeCode = ; LAYER:[layer_num]
; fanSpeedMaxPercent = 0
; minimumExtrusionBeforeRetraction = .1
; fanSpeedMinPercent = 0
; minimumPrintingSpeed = 2
; insidePerimetersSpeed = 30
; raftAirGap = .2
; raftFanSpeedPercent = 100
; retractionOnExtruderSwitch = 10
; unretractExtraOnExtruderSwitch = 0
; skirtDistanceFromObject = 2
; minimumLayerTimeSeconds = 15
; supportAirGap = .3
; supportInfillStartingAngle = 45
; supportPercent = 50
; supportLineSpacing = 2.5
; supportMaterialSpeed = 30
; supportXYDistanceFromObject = 0.7
; supportType = LINES
; travelSpeed = 100
; wipeShieldDistanceFromObject = 0
; wipeTowerSize = 0
; zOffset = 0
; bottomClipAmount = 0
; filamentDiameter = 2.85
; layerThickness = 0.2
; extrusionWidth = 0.5
; avoidCrossingPerimeters = True
; enableRaft = False
; outsidePerimetersFirst = False
; outputOnlyFirstLayer = False
; retractWhenChangingIslands = True
; generateSupport = False
; generateInternalSupport = False
; generateSupportPerimeter = True
; wipeAfterRetraction = False
; centerObjectInXy = True
; expandThinWalls = True
; MergeOverlappingLines = True
; fillThinGaps = True
; continuousSpiralOuterPerimeter = False
; positionToPlaceObjectCenter = [150,100]
; startCode = ; automatic settings before start_gcode\nG21 ; set units to millimeters\nM107 ; fan off\nM190 S115 ; wait for bed temperature to be reached\nM104 T0 S240 ; start heating extruder 1\nT0 ; set the active extruder to 0\n; settings from start_gcode\nG28 ; home all axes\nM117 HD Printing...\n; automatic settings after start_gcode\nM109 T0 S240 ; wait for extruder 1 to reach temperature\nT0 ; set the active extruder to 0\nG90 ; use absolute coordinates\nG92 E0 ; reset the expected extruder position\nM82 ; use absolute distance for extrusion
; infillPercent = 80
; perimeterStartEndOverlapRatio = 1
; skirtMinLength = 0
; supportExtrusionPercent = 100
; raftExtruder = -1
; supportExtruder = 0
; supportInterfaceExtruder = 0
