; Generated with MatterSlice 1.0
; filamentDiameter = 2.85
; extrusionWidth = 0.5
; firstLayerExtrusionWidth = 0.5
; layerThickness = 0.2
; firstLayerThickness = 0.42
; automatic settings before start_gcode
G21 ; set units to millimeters
M107 ; fan off
M190 S115 ; wait for bed temperature to be reached
M104 T0 S240 ; start heating extruder 1
T0 ; set the active extruder to 0
; settings from start_gcode
G28 ; home all axes
M117 HD Printing...
; automatic settings after start_gcode
M109 T0 S240 ; wait for extruder 1 to reach temperature
T0 ; set the active extruder to 0
G90 ; use absolute coordinates
G92 E0 ; reset the expected extruder position
M82 ; use absolute distance for extrusion
; Layer count: 29
; Layer Change GCode
; LAYER:0
M400
M107
G0 F6000 X177.041 Y116.591 Z0.42
; TYPE:SKIRT
G1 F3000 E0
G1 F900 X148.351 Y122.967 E0.96747
G1 X146.228 Y123.238 E1.03793
G1 X145.774 Y123.247 E1.05287
G1 X143.651 Y123.206 E1.12277
G1 X142.276 Y123.114 E1.16814
G1 X140.18 Y122.858 E1.23765
G1 X127.954 Y109.299 E1.83864
G1 X124.279 Y104.971 E2.02555
G1 X124.01 Y104.633 E2.03977
G1 X123.43 Y103.57 E2.07963
G1 X122.877 Y102.187 E2.12866
G1 X123.066 Y100.744 E2.17657
G1 X123.22 Y99.929 E2.20387
G1 X123.606 Y98.817 E2.24262
G1 X124.396 Y97.882 E2.28291
G1 X137.134 Y84.64 E2.88776
G1 X177.041 Y75.962 E4.23214
G1 X177.041 Y116.591 E5.56958
G0 F6000 X176.541 Y116.19
G1 F900 X148.265 Y122.474 E6.52309
G1 X146.191 Y122.739 E6.59192
G1 X145.774 Y122.746 E6.60565
G1 X143.673 Y122.706 E6.67482
G1 X142.323 Y122.616 E6.71936
G1 X140.426 Y122.384 E6.78228
G1 X128.33 Y108.97 E7.37686
G1 X124.666 Y104.654 E7.56323
G1 X124.429 Y104.355 E7.57579
G1 X123.884 Y103.356 E7.61325
G1 X123.39 Y102.123 E7.65697
G1 X123.56 Y100.823 E7.70013
G1 X123.704 Y100.058 E7.72576
G1 X124.048 Y99.069 E7.76023
G1 X124.768 Y98.217 E7.79695
G1 X137.389 Y85.097 E8.39623
G1 X176.541 Y76.583 E9.71518
G1 X176.541 Y116.19 E11.01898
G0 F6000 X176.041 Y115.789
G1 F900 X148.178 Y121.981 E11.95856
G1 X146.155 Y122.239 E12.02569
G1 X145.774 Y122.246 E12.03824
G1 X143.694 Y122.207 E12.10672
G1 X142.37 Y122.118 E12.1504
G1 X140.672 Y121.91 E12.20672
G1 X128.707 Y108.641 E12.79487
G1 X125.052 Y104.336 E12.98077
G1 X124.847 Y104.078 E12.99162
G1 X124.337 Y103.143 E13.02668
G1 X123.903 Y102.058 E13.06514
G1 X124.054 Y100.901 E13.10355
G1 X124.189 Y100.187 E13.12747
G1 X124.49 Y99.321 E13.15765
G1 X125.139 Y98.552 E13.19078
G1 X137.644 Y85.553 E13.78454
G1 X176.041 Y77.203 E15.07806
G1 X176.041 Y115.789 E16.34825
G1 F3000 E9.34825
G0 F6000 X173.739 Y115.483
G0 X173.791 Y113.984
G0 X173.041 Y113.207
G0 X166.24 Y110.871
G0 X152.926 Y108.298
G0 X152.029 Y108.351
G0 X151.568 Y108.42
G0 X150.206 Y109.074
G0 X149.653 Y110.425
G0 X149.089 Y111.334
G0 X148.851 Y112.35
G0 X148.637 Y113.018
G0 X144.992 Y118.778
G0 X144.794 Y119.237
; TYPE:WALL-OUTER
G1 F3000 E16.34825
G1 F900 X144.006 Y119.556 E16.37623
G1 X143.735 Y119.704 E16.3864
G1 X142.61 Y119.629 E16.42351
G1 X141.938 Y119.547 E16.4458
G1 X141.664 Y119.045 E16.46463
G1 X141.595 Y118.744 E16.47479
G1 X141.634 Y117.769 E16.50691
G1 X141.605 Y116.779 E16.53952
G1 X141.642 Y116.422 E16.55133
G1 X141.734 Y116.125 E16.56157
G1 X141.784 Y115.798 E16.57245
G1 X141.865 Y114.856 E16.60358
G1 X141.967 Y114.764 E16.6081
G1 X142.36 Y114.282 E16.62857
G1 X142.662 Y113.82 E16.64674
G1 X142.544 Y113.215 E16.66703
G1 X142.324 Y111.742 E16.71606
G1 X142.299 Y111.467 E16.72515
G1 X142.121 Y110.71 E16.75075
G1 X142.063 Y110.535 E16.75682
G1 X141.811 Y110.363 E16.76686
G1 X141.594 Y110.455 E16.77462
G1 X141.185 Y110.539 E16.78836
G1 X140.862 Y110.642 E16.79952
G1 X140.625 Y110.647 E16.80733
G1 X140.021 Y110.821 E16.82802
G1 X139.757 Y110.834 E16.83672
G1 X139.081 Y110.829 E16.85897
G1 X138.816 Y110.813 E16.86771
G1 X138.617 Y110.743 E16.87466
G1 X138.252 Y110.546 E16.88831
G1 X138.144 Y110.45 E16.89307
G1 X137.811 Y109.879 E16.91483
G1 X137.758 Y109.708 E16.92072
G1 X137.61 Y108.788 E16.95139
G1 X137.691 Y108.546 E16.95979
G1 X138.02 Y108.011 E16.98047
G1 X138.1 Y107.764 E16.98902
G1 X138.187 Y106.969 E17.01534
G1 X138.237 Y106.781 E17.02175
G1 X138.194 Y106.508 E17.03084
G1 X137.962 Y106.171 E17.04431
G1 X137.469 Y105.91 E17.06268
G1 X136.847 Y105.676 E17.08455
G1 X136.613 Y105.637 E17.09236
G1 X135.848 Y105.566 E17.11765
G1 X134.809 Y105.245 E17.15345
G1 X134.458 Y105.204 E17.16508
G1 X134.103 Y105.195 E17.17677
G1 X133.721 Y105.132 E17.18952
G1 X133.402 Y105.389 E17.203
G1 X132.971 Y106 E17.22762
G1 X132.604 Y106.448 E17.24668
G1 X131.998 Y107.047 E17.27473
G1 X131.703 Y107.293 E17.28737
G1 X130.891 Y107.273 E17.31411
G1 X130.596 Y107 E17.32734
G1 X130.262 Y106.443 E17.34872
G1 X130.14 Y105.813 E17.36985
G1 X130.029 Y105.439 E17.38269
G1 X129.816 Y104.852 E17.40324
G1 X129.654 Y104.614 E17.41272
G1 X129.29 Y104.202 E17.43082
G1 X128.821 Y103.768 E17.45185
G1 X128.633 Y103.569 E17.46086
G1 X128.151 Y103.294 E17.47913
G1 X127.905 Y103.111 E17.48923
G1 X127.417 Y102.965 E17.50599
G1 X127.153 Y102.804 E17.51617
G1 X126.942 Y102.695 E17.52399
G1 X126.832 Y102.47 E17.53223
G1 X126.602 Y102.076 E17.54725
G1 X126.466 Y101.736 E17.55931
G1 X126.523 Y101.302 E17.57372
G1 X126.612 Y100.83 E17.58953
G1 X126.699 Y100.58 E17.59824
G1 X126.971 Y100.257 E17.61214
G1 X127.066 Y100.205 E17.61571
G1 X127.753 Y100.115 E17.63851
G1 X127.824 Y100.092 E17.64097
G1 X128.633 Y100.184 E17.66777
G1 X128.842 Y100.175 E17.67466
G1 X129.04 Y100.123 E17.6814
G1 X129.394 Y99.961 E17.69421
G1 X130.328 Y99.282 E17.73223
G1 X130.873 Y98.963 E17.75301
G1 X131.764 Y98.86 E17.78254
G1 X132.049 Y99.014 E17.7932
G1 X132.497 Y99.21 E17.8093
G1 X132.74 Y99.347 E17.81848
G1 X133.278 Y99.536 E17.83726
G1 X133.84 Y99.707 E17.85659
G1 X134.357 Y99.315 E17.87795
G1 X134.898 Y99.015 E17.89831
G1 X135.905 Y98.753 E17.93257
G1 X136.468 Y98.542 E17.95236
G1 X136.818 Y98.44 E17.96436
G1 X137.26 Y98.466 E17.97893
G1 X137.414 Y98.45 E17.98403
G1 X137.815 Y98.496 E17.99732
G1 X138.303 Y98.345 E18.01413
G1 X138.965 Y98.039 E18.03814
G1 X139.084 Y97.843 E18.04569
G1 X139.101 Y95.702 E18.11617
G1 X139.038 Y95.164 E18.134
G1 X138.914 Y94.636 E18.15186
G1 X138.306 Y94.151 E18.17746
G1 X137.862 Y93.746 E18.19724
G1 X137.842 Y93.706 E18.19871
G1 X137.814 Y92.514 E18.23796
G1 X137.72 Y92.058 E18.25329
G1 X137.71 Y91.813 E18.26136
G1 X137.776 Y91.655 E18.267
G1 X138.352 Y90.853 E18.2995
G1 X138.395 Y89.814 E18.33373
G1 X138.556 Y89.319 E18.35087
G1 X138.689 Y88.821 E18.36784
G1 X138.739 Y88.526 E18.37768
G1 X138.945 Y87.832 E18.40152
G1 X139.563 Y87.715 E18.42222
G1 X139.846 Y87.685 E18.43159
G1 X140.681 Y87.667 E18.45908
G1 X140.753 Y87.747 E18.46263
G1 X140.846 Y87.916 E18.46897
G1 X141.277 Y88.371 E18.48961
G1 X141.678 Y88.688 E18.50643
G1 X142.058 Y88.783 E18.51933
G1 X142.811 Y89.036 E18.54548
G1 X143.464 Y89.198 E18.56762
G1 X143.593 Y89.323 E18.57354
G1 X143.797 Y89.66 E18.5865
G1 X143.892 Y89.857 E18.5937
G1 X144.171 Y90.8 E18.62608
G1 X144.158 Y91.175 E18.63843
G1 X144.228 Y91.478 E18.64866
G1 X144.205 Y91.851 E18.66097
G1 X144.394 Y92.08 E18.67074
G1 X144.583 Y92.498 E18.68584
G1 X144.819 Y92.725 E18.69662
G1 X145.03 Y92.978 E18.70747
G1 X145.529 Y93.172 E18.72509
G1 X145.716 Y93.292 E18.7324
G1 X146.101 Y93.492 E18.74669
G1 X146.484 Y93.982 E18.76716
G1 X146.612 Y94.239 E18.77661
G1 X147.289 Y94.477 E18.80023
G1 X147.759 Y94.667 E18.81692
G1 X148.117 Y94.718 E18.82882
G1 X148.809 Y94.852 E18.85203
G1 X149.951 Y94.46 E18.89177
G1 X150.329 Y93.901 E18.91399
G1 X150.576 Y93.482 E18.93
G1 X151.008 Y92.936 E18.95292
G1 X151.316 Y92.215 E18.97873
G1 X151.568 Y91.921 E18.99147
G1 X151.718 Y91.704 E19.00016
G1 X151.973 Y91.539 E19.01015
G1 X152.247 Y91.312 E19.02187
G1 X152.892 Y91.043 E19.04487
G1 X153.204 Y90.999 E19.05524
G1 X154.072 Y90.779 E19.08472
G1 X154.574 Y90.702 E19.10144
G1 X154.919 Y90.601 E19.11327
G1 X155.937 Y90.177 E19.14957
G1 X156.059 Y90.068 E19.15496
G1 X156.267 Y89.964 E19.16262
G1 X156.594 Y89.518 E19.18082
G1 X157.041 Y88.985 E19.20372
G1 X157.152 Y88.823 E19.21018
G1 X157.122 Y88.698 E19.21442
G1 X157.256 Y87.987 E19.23823
G1 X157.226 Y87.768 E19.24551
G1 X157.369 Y86.824 E19.27694
G1 X157.589 Y85.857 E19.30958
G1 X157.708 Y85.635 E19.31788
G1 X157.988 Y85.373 E19.3305
G1 X158.28 Y84.878 E19.34942
G1 X158.487 Y84.358 E19.36784
G1 X158.811 Y83.731 E19.39107
G1 X158.927 Y83.609 E19.39662
G1 X159.877 Y83.326 E19.42925
G1 X160.747 Y83.187 E19.45825
G1 X161.055 Y83.352 E19.46975
G1 X161.214 Y83.413 E19.47536
G1 X161.663 Y83.904 E19.49726
G1 X162.276 Y84.021 E19.5178
G1 X162.648 Y84.064 E19.53013
G1 X162.707 Y84.103 E19.53246
G1 X162.944 Y84.153 E19.54043
G1 X163.535 Y84.24 E19.5601
G1 X163.765 Y84.317 E19.56808
G1 X164.882 Y84.182 E19.60512
G1 X165.036 Y84.096 E19.61092
G1 X165.343 Y83.979 E19.62174
G1 X165.949 Y83.707 E19.6436
G1 X166.412 Y83.474 E19.66067
G1 X166.922 Y83.284 E19.67858
G1 X167.074 Y83.189 E19.68448
G1 X167.884 Y82.986 E19.71197
G1 X168.877 Y82.645 E19.74653
G1 X169.367 Y82.453 E19.76386
G1 X169.897 Y82.21 E19.78305
G1 X170.09 Y82.141 E19.7898
G1 X170.404 Y81.955 E19.80181
G1 X170.903 Y81.611 E19.82176
G1 X171.361 Y81.46 E19.83764
G1 X171.92 Y81.209 E19.85781
G1 X172.368 Y80.953 E19.87479
G1 X172.684 Y80.731 E19.88751
G1 X173.541 Y80.375 E19.91806
G1 X173.541 Y113.72 E21.01572
G1 X172.556 Y113.691 E21.04816
G1 X171.961 Y113.69 E21.06775
G1 X170.732 Y113.537 E21.10852
G1 X170.106 Y113.936 E21.13295
G1 X169.79 Y113.988 E21.1435
G1 X168.504 Y113.785 E21.18635
G1 X167.83 Y113.653 E21.20896
G1 X167.397 Y113.224 E21.22903
G1 X167.229 Y112.868 E21.24198
G1 X166.977 Y112.439 E21.25836
G1 X166.459 Y112.098 E21.27878
G1 X165.938 Y111.319 E21.30963
G1 X165.535 Y111.257 E21.32305
G1 X165.138 Y111.17 E21.33643
G1 X164.697 Y111.13 E21.35101
G1 X163.737 Y111.13 E21.38261
G1 X163.358 Y111.302 E21.39631
G1 X162.622 Y111.563 E21.42201
G1 X162.225 Y112.233 E21.44765
G1 X161.753 Y112.633 E21.46802
G1 X161.47 Y112.751 E21.47811
G1 X161.126 Y112.966 E21.49146
G1 X160.689 Y113.074 E21.50628
G1 X159.756 Y113.351 E21.53832
G1 X159.073 Y113.255 E21.56102
G1 X158.819 Y113.185 E21.5697
G1 X158.455 Y113.036 E21.58265
G1 X157.989 Y112.56 E21.60457
G1 X157.649 Y112.023 E21.6255
G1 X157.526 Y111.708 E21.63663
G1 X157.484 Y111.265 E21.65128
G1 X157.422 Y111.094 E21.65726
G1 X157.355 Y110.668 E21.67146
G1 X157.179 Y110.431 E21.68118
G1 X156.954 Y110.067 E21.69526
G1 X155.135 Y109.52 E21.75779
G1 X154.837 Y109.481 E21.76768
G1 X154.693 Y109.446 E21.77256
G1 X154.067 Y109.359 E21.79337
G1 X153.914 Y109.23 E21.79996
G1 X153.311 Y109.036 E21.82081
G1 X152.836 Y108.809 E21.83814
G1 X152.407 Y108.851 E21.85233
G1 X152.066 Y108.851 E21.86355
G1 X151.717 Y108.903 E21.87517
G1 X150.604 Y109.438 E21.91582
G1 X150.496 Y109.661 E21.92398
G1 X150.1 Y110.653 E21.95914
G1 X149.557 Y111.528 E21.99304
G1 X149.334 Y112.481 E22.02525
G1 X149.1 Y113.209 E22.05043
G1 X148.862 Y113.676 E22.06768
G1 X148.793 Y113.921 E22.07606
G1 X148.559 Y114.406 E22.09379
G1 X148.491 Y114.612 E22.10093
G1 X147.99 Y115.741 E22.14159
G1 X148.097 Y116.23 E22.15806
G1 X148.092 Y116.332 E22.16143
G1 X148.209 Y117.12 E22.18765
G1 X148.226 Y117.473 E22.19928
G1 X148.264 Y117.767 E22.20904
G1 X148.135 Y118.703 E22.24015
G1 X147.991 Y119.07 E22.25312
G1 X147.656 Y119.524 E22.2717
G1 X146.584 Y119.635 E22.30717
G1 X145.969 Y119.742 E22.32772
G1 X145.833 Y119.745 E22.3322
G1 X145.466 Y119.527 E22.34625
G1 X144.794 Y119.237 E22.37035
G1 F3000 E15.37035
G0 F6000 X144.992 Y118.778
G0 X150.206 Y109.074
G0 X173.041 Y81.123
G0 X173.047 Y80.911
; TYPE:FILL
G1 F3000 E22.37035
G1 F900 X173.158 Y80.862 E22.37523
G1 X173.291 Y80.813 E22.37629
G0 F6000 X173.041 Y81.123
G0 X173.006 Y81.137
G0 X172.968 Y81.045
; TYPE:BOTTOM-FILL
G1 F900 X173.14 Y81.216 E22.38427
G0 F6000 X173.041 Y81.216
G0 X172.592 Y81.401
G0 X172.584 Y81.405
G0 X172.534 Y81.317
G1 F900 X173.14 Y81.923 E22.41249
G0 F6000 X173.041 Y81.923
G0 X173.041 Y82.63
G0 X173.14 Y82.63
G1 F900 X172.083 Y81.573 E22.46169
G0 F6000 X172.124 Y81.665
G0 X171.636 Y81.884
G0 X171.595 Y81.793
G1 F900 X173.14 Y83.337 E22.5336
G0 F6000 X173.041 Y83.337
G0 X173.041 Y84.044
G0 X173.14 Y84.044
G1 F900 X171.074 Y81.979 E22.62975
G0 F6000 X171.127 Y82.063
G0 X170.712 Y82.349
G0 X170.655 Y82.266
G1 F900 X173.14 Y84.751 E22.74544
G0 F6000 X173.041 Y84.751
G0 X173.041 Y85.458
G0 X173.14 Y85.458
G1 F900 X170.205 Y82.524 E22.88205
G0 F6000 X170.238 Y82.618
G0 X169.788 Y82.81
G0 X169.751 Y82.826
G0 X169.709 Y82.735
G1 F900 X173.14 Y86.165 E23.04175
G0 F6000 X173.041 Y86.165
G0 X173.041 Y86.873
G0 X173.14 Y86.873
G1 F900 X169.21 Y82.943 E23.22471
G0 F6000 X169.246 Y83.037
G0 X169.05 Y83.114
G0 X168.722 Y83.225
G0 X168.69 Y83.13
G1 F900 X173.14 Y87.58 E23.43187
G0 F6000 X173.041 Y87.58
G0 X173.041 Y88.287
G0 X173.14 Y88.287
G1 F900 X168.164 Y83.312 E23.6635
G0 F6000 X168.196 Y83.406
G0 X168.026 Y83.466
G0 X167.636 Y83.563
G0 X167.612 Y83.466
G1 F900 X173.14 Y88.994 E23.92085
G0 F6000 X173.041 Y88.994
G0 X173.041 Y89.701
G0 X173.14 Y89.701
G1 F900 X167.087 Y83.648 E24.20264
G0 F6000 X167.122 Y83.742
G0 X166.612 Y83.934
G0 X166.572 Y83.84
G1 F900 X173.14 Y90.408 E24.50841
G0 F6000 X173.041 Y90.408
G0 X173.041 Y91.115
G0 X173.14 Y91.115
G1 F900 X166.101 Y84.077 E24.83607
G0 F6000 X166.141 Y84.168
G0 X165.534 Y84.441
G0 X165.653 Y84.387
G0 X165.613 Y84.296
G1 F900 X173.14 Y91.822 E25.18646
G0 F6000 X173.041 Y91.822
G0 X173.041 Y92.529
G0 X173.14 Y92.529
G1 F900 X165.118 Y84.508 E25.55989
G0 F6000 X165.166 Y84.595
G0 X165.04 Y84.667
G0 X164.541 Y84.726
G0 X164.53 Y84.627
G1 F900 X173.14 Y93.236 E25.9607
G0 F6000 X173.041 Y93.236
G0 X173.041 Y93.944
G0 X173.14 Y93.944
G1 F900 X163.899 Y84.703 E26.3909
G0 F6000 X163.91 Y84.802
G0 X163.713 Y84.827
G0 X163.413 Y84.726
G0 X163.048 Y84.666
G0 X163.063 Y84.574
G1 F900 X173.14 Y94.651 E26.86002
G0 F6000 X173.041 Y94.651
G0 X173.041 Y95.358
G0 X173.14 Y95.358
G1 F900 X162.195 Y84.413 E27.36955
G0 F6000 X162.177 Y84.511
G0 X161.406 Y84.364
G0 X160.66 Y83.708
G0 X160.68 Y83.605
G1 F900 X173.14 Y96.065 E27.94961
G0 F6000 X173.041 Y96.065
G0 X173.041 Y96.772
G0 X173.14 Y96.772
G1 F900 X160.067 Y83.7 E28.55819
G0 F6000 X160.082 Y83.798
G0 X159.986 Y83.815
G0 X159.539 Y83.947
G0 X159.511 Y83.851
G1 F900 X173.14 Y97.48 E29.19267
G0 F6000 X173.041 Y97.48
G0 X173.041 Y98.187
G0 X173.14 Y98.187
G1 F900 X159.064 Y84.111 E29.84796
G0 F6000 X159.153 Y84.157
G0 X158.944 Y84.562
G0 X158.92 Y84.618
G0 X158.828 Y84.581
G1 F900 X173.14 Y98.894 E30.51426
G0 F6000 X173.041 Y98.894
G0 X173.041 Y99.601
G0 X173.14 Y99.601
G1 F900 X158.622 Y85.083 E31.19013
G0 F6000 X158.709 Y85.134
G0 X158.382 Y85.689
G0 X158.446 Y85.578
G0 X158.36 Y85.528
G1 F900 X173.14 Y100.308 E31.87819
G0 F6000 X173.041 Y100.308
G0 X173.041 Y101.015
G0 X173.14 Y101.015
G1 F900 X158.021 Y85.896 E32.58204
G0 F6000 X158.109 Y85.945
G0 X157.967 Y86.449
G0 X157.961 Y86.468
G0 X157.864 Y86.446
G1 F900 X173.14 Y101.722 E33.29319
G0 F6000 X173.041 Y101.722
G0 X173.041 Y102.43
G0 X173.14 Y102.43
G1 F900 X157.741 Y87.03 E34.0101
G0 F6000 X157.839 Y87.045
G0 X157.731 Y87.768
G0 X157.746 Y87.659
G0 X157.648 Y87.644
G1 F900 X173.14 Y103.137 E34.73133
G0 F6000 X173.041 Y103.137
G0 X173.041 Y103.844
G0 X173.14 Y103.844
G1 F900 X157.602 Y88.306 E35.45468
G0 F6000 X157.701 Y88.324
G0 X157.7 Y88.961
G0 X157.639 Y89.033
G0 X157.545 Y88.956
G1 F900 X173.14 Y104.551 E36.18069
G0 F6000 X173.041 Y104.551
G0 X173.041 Y105.258
G0 X173.14 Y105.258
G1 F900 X157.244 Y89.362 E36.92071
G0 F6000 X157.318 Y89.423
G0 X156.982 Y89.834
G0 X157 Y89.811
G0 X156.921 Y89.746
G1 F900 X173.14 Y105.965 E37.67576
G0 F6000 X173.041 Y105.965
G0 X173.041 Y106.672
G0 X173.14 Y106.672
G1 F900 X156.622 Y90.154 E38.44474
G0 F6000 X156.704 Y90.214
G0 X156.6 Y90.357
G0 X156.287 Y90.534
G0 X156.22 Y90.459
G1 F900 X173.14 Y107.379 E39.23243
G0 F6000 X173.041 Y107.379
G0 X173.041 Y108.086
G0 X173.14 Y108.086
G1 F900 X155.744 Y90.69 E40.04228
G0 F6000 X155.782 Y90.782
G0 X155.283 Y90.99
G0 X155.245 Y90.898
G1 F900 X173.14 Y108.794 E40.87538
G0 F6000 X173.041 Y108.794
G0 X173.041 Y109.501
G0 X173.14 Y109.501
G1 F900 X154.716 Y91.076 E41.73311
G0 F6000 X154.744 Y91.173
G0 X154.683 Y91.191
G0 X154.138 Y91.277
G0 X154.114 Y91.182
G1 F900 X173.14 Y110.208 E42.61884
G0 F6000 X173.041 Y110.208
G0 X173.041 Y110.915
G0 X173.14 Y110.915
G1 F900 X153.549 Y91.324 E43.53087
G0 F6000 X153.573 Y91.421
G0 X153.301 Y91.49
G0 X153.023 Y91.53
G0 X153.001 Y91.538
G0 X152.963 Y91.445
G1 F900 X173.14 Y111.622 E44.47019
G0 F6000 X173.041 Y111.622
G0 X173.041 Y112.329
G0 X173.14 Y112.329
G1 F900 X152.464 Y91.653 E45.43273
G0 F6000 X152.51 Y91.743
G0 X152.269 Y91.943
G0 X152.116 Y92.041
G0 X152.061 Y91.957
G1 F900 X173.14 Y113.036 E46.41404
G0 F6000 X173.041 Y113.036
G0 X172.694 Y113.196
G0 X172.691 Y113.294
G1 F900 X151.735 Y92.338 E47.38962
G0 F6000 X151.812 Y92.404
G0 X151.599 Y92.828
G0 X151.589 Y92.846
G0 X151.497 Y92.807
G1 F900 X171.978 Y113.289 E48.34311
G0 F6000 X171.992 Y113.19
G0 X171.183 Y113.09
G0 X171.171 Y113.188
G1 F900 X151.252 Y93.27 E49.27039
G0 F6000 X151.331 Y93.332
G0 X150.989 Y93.765
G0 X151.018 Y93.726
G0 X150.939 Y93.664
G1 F900 X170.491 Y113.215 E50.18059
G0 F6000 X170.438 Y113.132
G0 X170.007 Y113.408
G0 X170.059 Y113.49
G1 F900 X150.673 Y94.104 E51.08308
G0 F6000 X150.759 Y94.154
G0 X150.752 Y94.168
G0 X150.471 Y94.582
G0 X150.388 Y94.526
G1 F900 X169.378 Y113.517 E51.96716
G0 F6000 X169.393 Y113.421
G0 X168.585 Y113.292
G0 X168.555 Y113.287
G0 X168.537 Y113.383
G1 F900 X166.305 Y111.151 E52.07107
G0 F6000 X166.388 Y111.095
G0 X166.24 Y110.871
G0 X166.109 Y110.847
G0 X166.092 Y110.937
G1 F900 X150.015 Y94.861 E52.81949
G0 F6000 X150.047 Y94.955
G0 X150.272 Y94.879
G0 X149.52 Y95.136
G0 X149.488 Y95.041
G1 F900 X165.228 Y110.781 E53.55224
G0 F6000 X165.246 Y110.683
G0 X165.204 Y110.674
G0 X164.72 Y110.63
G0 X164.47 Y110.63
G0 X164.47 Y110.73
G1 F900 X148.961 Y95.221 E54.27425
G0 F6000 X148.993 Y95.316
G0 X148.852 Y95.366
G0 X148.15 Y95.242
G0 X148.168 Y95.135
G1 F900 X163.762 Y110.729 E55.00021
G0 F6000 X163.762 Y110.63
G0 X163.629 Y110.63
G0 X163.201 Y110.825
G0 X163.241 Y110.915
G1 F900 X147.197 Y94.871 E55.74711
G0 F6000 X147.16 Y94.962
G0 X147.127 Y94.95
G0 X146.255 Y94.644
G0 X144.986 Y93.497
G0 X145.022 Y93.403
G1 F900 X162.721 Y111.102 E56.57107
G0 F6000 X162.689 Y111.01
G0 X162.284 Y111.152
G0 X162.19 Y111.313
G0 X162.274 Y111.362
G1 F900 X139.219 Y88.307 E57.64437
G0 F6000 X139.316 Y88.336
G0 X139.729 Y88.199
G0 X139.719 Y88.1
G1 F900 X144.164 Y92.545 E57.8513
G0 F6000 X144.075 Y92.585
G0 X143.966 Y92.347
G0 X143.694 Y92.016
G0 X143.724 Y91.52
G0 X143.821 Y91.495
G1 F900 X140.399 Y88.073 E58.0106
G0 F6000 X140.401 Y88.173
G0 X139.182 Y88.895
G0 X139.083 Y88.879
G1 F900 X162.011 Y111.807 E59.07799
G0 F6000 X161.927 Y111.758
G0 X161.608 Y112.099
G0 X161.673 Y112.176
G1 F900 X138.936 Y89.439 E60.13648
G0 F6000 X139.032 Y89.47
G0 X138.887 Y90.001
G0 X138.787 Y89.997
G1 F900 X161.223 Y112.432 E61.18094
G0 F6000 X161.171 Y112.349
G0 X160.71 Y112.554
G0 X160.733 Y112.65
G1 F900 X138.758 Y90.675 E62.20396
G0 F6000 X138.859 Y90.679
G0 X138.845 Y91.023
G0 X138.668 Y91.268
G0 X138.586 Y91.21
G1 F900 X157.056 Y109.68 E63.0638
G0 F6000 X157.084 Y109.585
G0 X157.265 Y109.638
G0 X157.477 Y109.958
G0 X157.392 Y110.015
G1 F900 X160.183 Y112.806 E63.19374
G0 F6000 X160.155 Y112.712
G0 X159.606 Y112.828
G0 X159.593 Y112.924
G1 F900 X157.879 Y111.21 E63.27353
G0 F6000 X157.979 Y111.201
G0 X157.976 Y111.155
G0 X157.833 Y110.488
G0 X157.265 Y109.638
G0 X156.073 Y109.281
G0 X156.045 Y109.376
G1 F900 X138.291 Y91.622 E64.10004
G0 F6000 X138.373 Y91.68
G0 X138.253 Y92.173
G0 X138.155 Y92.193
G1 F900 X155.069 Y109.107 E64.88745
G0 F6000 X155.083 Y109.008
G0 X154.283 Y108.887
G0 X154.218 Y108.963
G1 F900 X138.224 Y92.969 E65.63204
G0 F6000 X138.324 Y92.967
G0 X139.361 Y94.353
G0 X139.465 Y94.797
G0 X139.367 Y94.82
G1 F900 X152.986 Y108.438 E66.26603
G0 F6000 X153.029 Y108.348
G0 X152.926 Y108.298
G0 X152.291 Y108.351
G0 X152.291 Y108.451
G1 F900 X139.498 Y95.657 E66.86161
G0 F6000 X139.597 Y95.646
G0 X139.601 Y95.675
G0 X139.595 Y96.36
G0 X139.494 Y96.36
G1 F900 X151.643 Y108.509 E67.42719
G0 F6000 X151.629 Y108.412
G0 X151.568 Y108.42
G0 X151.113 Y108.64
G0 X151.155 Y108.728
G1 F900 X139.489 Y97.063 E67.97027
G0 F6000 X139.59 Y97.063
G0 X139.584 Y97.764
G0 X139.483 Y97.764
G1 F900 X150.677 Y108.958 E68.49139
G0 F6000 X150.635 Y108.869
G0 X150.206 Y109.074
G0 X150.155 Y109.201
G0 X150.253 Y109.241
G1 F900 X139.288 Y98.276 E69.00185
G0 F6000 X139.373 Y98.328
G0 X139.312 Y98.429
G0 X138.883 Y98.626
G0 X138.841 Y98.536
G1 F900 X150.036 Y109.73 E69.523
G0 F6000 X149.952 Y109.696
G0 X149.746 Y110.201
G0 X149.835 Y110.237
G1 F900 X138.346 Y98.748 E70.05785
G0 F6000 X138.376 Y98.845
G0 X137.862 Y99.005
G0 X137.775 Y98.994
G0 X137.786 Y98.895
G1 F900 X149.596 Y110.705 E70.60765
G0 F6000 X149.512 Y110.653
G0 X149.242 Y111.09
G0 X149.325 Y111.141
G1 F900 X137.038 Y98.854 E71.17966
G0 F6000 X137.033 Y98.953
G0 X136.486 Y99.069
G0 X136.451 Y98.974
G1 F900 X149.118 Y111.641 E71.76936
G0 F6000 X149.023 Y111.619
G0 X148.889 Y112.192
G0 X148.983 Y112.214
G1 F900 X135.929 Y99.159 E72.37709
G0 F6000 X135.954 Y99.255
G0 X136.056 Y99.23
G0 X135.392 Y99.401
G0 X135.368 Y99.306
G1 F900 X148.823 Y112.76 E73.00345
G0 F6000 X148.73 Y112.731
G0 X148.637 Y113.018
G0 X148.534 Y113.221
G0 X148.621 Y113.265
G1 F900 X134.852 Y99.496 E73.64445
G0 F6000 X134.901 Y99.584
G0 X134.478 Y99.85
G0 X134.417 Y99.769
G1 F900 X148.418 Y113.77 E74.29625
G0 F6000 X148.324 Y113.74
G0 X148.101 Y114.206
G0 X148.189 Y114.248
G1 F900 X134.016 Y100.075 E74.95605
G0 F6000 X134.076 Y100.154
G0 X133.93 Y100.267
G0 X133.123 Y99.999
G0 X133.15 Y99.916
G1 F900 X147.988 Y114.754 E75.64682
G0 F6000 X147.899 Y114.715
G0 X147.682 Y115.205
G0 X147.772 Y115.245
G1 F900 X131.922 Y99.395 E76.3847
G0 F6000 X131.882 Y99.486
G0 X131.164 Y99.432
G0 X131.153 Y99.333
G1 F900 X137.202 Y105.382 E76.6663
G0 F6000 X137.236 Y105.29
G0 X136.953 Y105.182
G0 X136.33 Y105.116
G0 X136.321 Y105.209
G1 F900 X130.662 Y99.55 E76.92975
G0 F6000 X130.712 Y99.635
G0 X130.608 Y99.697
G0 X130.301 Y99.918
G0 X130.242 Y99.837
G1 F900 X135.421 Y105.015 E77.17082
G0 F6000 X135.45 Y104.922
G0 X134.914 Y104.754
G0 X134.516 Y104.708
G0 X134.505 Y104.807
G1 F900 X129.833 Y100.135 E77.38832
G0 F6000 X129.891 Y100.215
G0 X129.648 Y100.394
G0 X129.433 Y100.491
G0 X129.392 Y100.401
G1 F900 X133.718 Y104.726 E77.58969
G0 F6000 X133.733 Y104.629
G0 X133.582 Y104.603
G0 X133.206 Y104.907
G0 X133.267 Y104.983
G1 F900 X128.858 Y100.573 E77.79497
G0 F6000 X128.862 Y100.674
G0 X128.618 Y100.685
G0 X128.094 Y100.627
G0 X128.104 Y100.527
G1 F900 X132.934 Y105.357 E78.01983
G0 F6000 X132.854 Y105.3
G0 X132.568 Y105.702
G0 X132.641 Y105.771
G1 F900 X127.43 Y100.56 E78.26242
G0 F6000 X127.443 Y100.659
G0 X127.119 Y100.894
G0 X127.023 Y100.861
G1 F900 X132.322 Y106.159 E78.50908
G0 F6000 X132.247 Y106.097
G0 X132.231 Y106.114
G0 X131.9 Y106.444
G0 X131.968 Y106.512
G1 F900 X130.204 Y104.748 E78.5912
G0 F6000 X130.298 Y104.714
G0 X130.504 Y105.282
G0 X130.626 Y105.694
G0 X130.641 Y105.775
G0 X130.543 Y105.794
G1 F900 X131.603 Y106.855 E78.64057
G0 F6000 X131.54 Y106.778
G0 X130.265 Y104.622
G0 X130.049 Y104.307
G0 X129.648 Y103.852
G0 X128.946 Y103.172
G0 X128.523 Y102.932
G0 X128.474 Y103.018
G1 F900 X126.905 Y101.45 E78.71359
G0 F6000 X127.006 Y101.463
G0 X136.953 Y105.182
G0 X137.677 Y105.455
G0 X138.305 Y105.786
G0 X138.67 Y106.318
G0 X138.748 Y106.808
G0 X138.737 Y106.845
G0 X138.639 Y106.819
G1 F900 X141.766 Y109.946 E78.85917
G0 F6000 X141.728 Y109.856
G0 X141.23 Y110.018
G0 X141.214 Y110.024
G0 X141.233 Y110.12
G1 F900 X138.537 Y107.425 E78.98465
G0 F6000 X138.638 Y107.436
G0 X138.591 Y107.87
G0 X138.529 Y108.058
G0 X138.433 Y108.027
G1 F900 X140.651 Y110.245 E79.08791
G0 F6000 X140.649 Y110.146
G0 X140.549 Y110.148
G0 X140.057 Y110.29
G0 X140.084 Y110.386
G1 F900 X138.191 Y108.493 E79.17603
G0 F6000 X138.278 Y108.546
G0 X138.158 Y109.052
G0 X138.059 Y109.067
G1 F900 X139.422 Y110.43 E79.23949
G0 F6000 X139.424 Y110.327
G0 X138.568 Y110.149
G0 X138.521 Y110.237
G1 F900 X138.427 Y110.143 E79.24386
G0 F6000 X138.513 Y110.093
G0 X139.992 Y110.308
G0 X140.549 Y110.148
G0 X141.868 Y109.796
G0 X142.512 Y110.237
G0 X142.623 Y110.691
G0 X142.532 Y110.713
G1 F900 X147.586 Y115.766 E79.47912
G0 F6000 X147.49 Y115.786
G0 X147.594 Y116.274
G0 X147.59 Y116.357
G0 X147.632 Y116.63
G0 X147.729 Y116.616
G1 F900 X142.711 Y111.599 E79.71271
G0 F6000 X142.811 Y111.59
G0 X142.82 Y111.674
G0 X142.928 Y112.41
G0 X142.829 Y112.424
G1 F900 X147.822 Y117.417 E79.94515
G0 F6000 X147.723 Y117.421
G0 X147.714 Y118.1
G0 X147.812 Y118.113
G1 F900 X142.959 Y113.26 E80.17107
G0 F6000 X143.058 Y113.241
G0 X143.191 Y113.924
G0 X143.092 Y114.072
G0 X143.009 Y114.018
G1 F900 X147.701 Y118.71 E80.3895
G0 F6000 X147.61 Y118.675
G0 X147.384 Y119.05
G0 X147.43 Y119.146
G1 F900 X142.73 Y114.445 E80.60833
G0 F6000 X142.813 Y114.499
G0 X142.764 Y114.577
G0 X142.496 Y114.904
G0 X142.419 Y114.841
G1 F900 X146.788 Y119.211 E80.81175
G0 F6000 X146.778 Y119.114
G0 X146.515 Y119.14
G0 X146.154 Y119.204
G0 X146.17 Y119.3
G1 F900 X142.223 Y115.353 E80.9955
G0 F6000 X142.323 Y115.361
G0 X142.281 Y115.857
G0 X142.256 Y116.01
G0 X142.158 Y115.995
G1 F900 X145.094 Y118.931 E81.13218
G0 F6000 X145.133 Y118.84
G0 X144.8 Y118.695
G0 X144.377 Y118.867
G0 X144.414 Y118.958
G1 F900 X142.028 Y116.572 E81.24325
G0 F6000 X142.127 Y116.582
G0 X142.119 Y117.267
G0 X142.018 Y117.27
G1 F900 X143.911 Y119.162 E81.33136
G0 F6000 X143.874 Y119.071
G0 X143.323 Y119.176
G0 X143.317 Y119.275
G1 F900 X142.024 Y117.982 E81.39155
G0 F6000 X142.125 Y117.986
G0 X142.098 Y118.666
G0 X141.998 Y118.663
G1 F900 X142.554 Y119.22 E81.41746
G1 F3000 E74.41746
G0 F6000 X142.566 Y119.12
G0 X143.191 Y113.924
G0 X143.625 Y90.713
G0 X143.719 Y90.686
G1 F3000 E81.41746
G1 F900 X142.328 Y89.295 E81.48221
; Layer Change GCode
; LAYER:1
G0 F6000 X142.328 Y89.295 Z0.62
G0 X142.294 Y89.394
G0 X144.992 Y118.779
G0 X144.795 Y119.238
; TYPE:WALL-OUTER
G1 F1800 X144.028 Y119.541 E81.49514
G1 X143.734 Y119.704 E81.50041
G1 X142.475 Y119.613 E81.5202
G1 X141.938 Y119.547 E81.52868
G1 X141.664 Y119.045 E81.53764
G1 X141.595 Y118.744 E81.54248
G1 X141.634 Y117.769 E81.55778
G1 X141.605 Y116.779 E81.57331
G1 X141.642 Y116.422 E81.57893
G1 X141.734 Y116.125 E81.58381
G1 X141.784 Y115.798 E81.58899
G1 X141.865 Y114.861 E81.60373
G1 X141.967 Y114.764 E81.60594
G1 X142.36 Y114.282 E81.61569
G1 X142.66 Y113.822 E81.6243
G1 X142.491 Y112.853 E81.63972
G1 X142.324 Y111.742 E81.65733
G1 X142.299 Y111.467 E81.66166
G1 X142.083 Y110.564 E81.67621
G1 X141.823 Y110.337 E81.68162
G1 X141.622 Y110.449 E81.68523
G1 X141.223 Y110.526 E81.6916
G1 X140.874 Y110.643 E81.69737
G1 X140.624 Y110.647 E81.70129
G1 X140.053 Y110.819 E81.71064
G1 X139.707 Y110.831 E81.71606
G1 X138.831 Y110.819 E81.7298
G1 X138.655 Y110.764 E81.73269
G1 X138.271 Y110.562 E81.73949
G1 X138.142 Y110.448 E81.74219
G1 X137.811 Y109.879 E81.7525
G1 X137.758 Y109.708 E81.75531
G1 X137.61 Y108.788 E81.76992
G1 X137.691 Y108.546 E81.77392
G1 X138.02 Y108.01 E81.78378
G1 X138.101 Y107.756 E81.78796
G1 X138.188 Y106.969 E81.80037
G1 X138.237 Y106.781 E81.80341
G1 X138.194 Y106.508 E81.80774
G1 X137.963 Y106.172 E81.81414
G1 X137.508 Y105.924 E81.82226
G1 X136.822 Y105.669 E81.83373
G1 X135.842 Y105.566 E81.84918
G1 X134.841 Y105.249 E81.86564
G1 X134.053 Y105.186 E81.87803
G1 X133.721 Y105.132 E81.8833
G1 X133.402 Y105.389 E81.88972
G1 X132.979 Y105.989 E81.90123
G1 X132.587 Y106.463 E81.91087
G1 X131.946 Y107.091 E81.92494
G1 X131.703 Y107.293 E81.92989
G1 X130.891 Y107.273 E81.94263
G1 X130.596 Y107 E81.94893
G1 X130.262 Y106.443 E81.95911
G1 X130.14 Y105.813 E81.96917
G1 X130.029 Y105.439 E81.97528
G1 X129.816 Y104.852 E81.98507
G1 X129.655 Y104.616 E81.98955
G1 X129.329 Y104.236 E81.9974
G1 X128.845 Y103.793 E82.00768
G1 X128.634 Y103.57 E82.01249
G1 X128.108 Y103.262 E82.02205
G1 X127.902 Y103.109 E82.02607
G1 X127.444 Y102.982 E82.03352
G1 X127.11 Y102.783 E82.03962
G1 X126.963 Y102.712 E82.04217
G1 X126.602 Y102.076 E82.05364
G1 X126.467 Y101.736 E82.05937
G1 X126.523 Y101.307 E82.06615
G1 X126.612 Y100.83 E82.07376
G1 X126.699 Y100.579 E82.07792
G1 X126.954 Y100.267 E82.08424
G1 X127.066 Y100.205 E82.08625
G1 X127.87 Y100.09 E82.09898
G1 X128.663 Y100.184 E82.1115
G1 X128.873 Y100.169 E82.1148
G1 X129.091 Y100.101 E82.11838
G1 X129.358 Y99.986 E82.12293
G1 X130.264 Y99.318 E82.14058
G1 X130.886 Y98.962 E82.15181
G1 X131.75 Y98.856 E82.16546
G1 X131.995 Y98.99 E82.16984
G1 X132.524 Y99.228 E82.17893
G1 X132.683 Y99.326 E82.18186
G1 X133.353 Y99.559 E82.19298
G1 X133.843 Y99.708 E82.201
G1 X134.296 Y99.35 E82.21005
G1 X134.916 Y99.012 E82.22112
G1 X135.964 Y98.732 E82.23813
G1 X136.541 Y98.522 E82.24775
G1 X136.82 Y98.44 E82.25231
G1 X137.293 Y98.463 E82.25973
G1 X137.379 Y98.446 E82.26111
G1 X137.812 Y98.496 E82.26794
G1 X138.247 Y98.372 E82.27503
G1 X138.963 Y98.04 E82.2874
G1 X139.082 Y97.85 E82.29092
G1 X139.102 Y95.711 E82.32445
G1 X139.038 Y95.164 E82.33308
G1 X138.912 Y94.627 E82.34173
G1 X138.245 Y94.095 E82.3551
G1 X137.862 Y93.746 E82.36322
G1 X137.842 Y93.706 E82.36393
G1 X137.814 Y92.514 E82.38262
G1 X137.72 Y92.058 E82.38991
G1 X137.71 Y91.813 E82.39376
G1 X137.776 Y91.655 E82.39644
G1 X138.352 Y90.853 E82.41192
G1 X138.395 Y89.813 E82.42824
G1 X138.557 Y89.314 E82.43646
G1 X138.689 Y88.821 E82.44446
G1 X138.738 Y88.528 E82.44912
G1 X138.946 Y87.832 E82.4605
G1 X139.606 Y87.71 E82.47103
G1 X139.894 Y87.683 E82.47556
G1 X140.681 Y87.667 E82.4879
G1 X140.753 Y87.747 E82.48959
G1 X140.845 Y87.915 E82.49259
G1 X141.236 Y88.338 E82.50162
G1 X141.681 Y88.69 E82.51051
G1 X141.979 Y88.755 E82.51529
G1 X142.727 Y89.015 E82.52771
G1 X143.464 Y89.198 E82.53961
G1 X143.593 Y89.323 E82.54243
G1 X143.797 Y89.66 E82.5486
G1 X143.892 Y89.857 E82.55203
G1 X144.171 Y90.8 E82.56744
G1 X144.158 Y91.175 E82.57333
G1 X144.228 Y91.478 E82.5782
G1 X144.205 Y91.851 E82.58406
G1 X144.394 Y92.08 E82.58871
G1 X144.583 Y92.498 E82.5959
G1 X144.819 Y92.725 E82.60104
G1 X145.031 Y92.979 E82.60622
G1 X145.517 Y93.163 E82.61437
G1 X145.791 Y93.331 E82.61941
G1 X146.102 Y93.492 E82.6249
G1 X146.476 Y93.969 E82.6344
G1 X146.613 Y94.239 E82.63915
G1 X147.361 Y94.508 E82.65161
G1 X147.722 Y94.662 E82.65776
G1 X148.18 Y94.731 E82.66502
G1 X148.809 Y94.852 E82.67506
G1 X149.951 Y94.46 E82.69399
G1 X150.329 Y93.901 E82.70456
G1 X150.576 Y93.482 E82.71219
G1 X151.008 Y92.936 E82.7231
G1 X151.316 Y92.215 E82.73539
G1 X151.568 Y91.921 E82.74146
G1 X151.717 Y91.705 E82.74557
G1 X151.937 Y91.568 E82.74964
G1 X152.247 Y91.312 E82.75594
G1 X152.888 Y91.045 E82.76682
G1 X153.144 Y91.014 E82.77087
G1 X154.07 Y90.779 E82.78584
G1 X154.62 Y90.69 E82.79458
G1 X154.871 Y90.622 E82.79865
G1 X155.931 Y90.185 E82.81662
G1 X156.041 Y90.077 E82.81904
G1 X156.267 Y89.964 E82.823
G1 X156.584 Y89.531 E82.83141
G1 X157.048 Y88.976 E82.84275
G1 X157.163 Y88.806 E82.84597
G1 X157.121 Y88.679 E82.84807
G1 X157.256 Y87.988 E82.8591
G1 X157.226 Y87.768 E82.86259
G1 X157.369 Y86.824 E82.87755
G1 X157.589 Y85.857 E82.8931
G1 X157.708 Y85.635 E82.89705
G1 X157.988 Y85.373 E82.90306
G1 X158.28 Y84.878 E82.91207
G1 X158.49 Y84.349 E82.92099
G1 X158.811 Y83.732 E82.93189
G1 X158.928 Y83.607 E82.93457
G1 X159.844 Y83.332 E82.94957
G1 X160.748 Y83.187 E82.96392
G1 X161.09 Y83.365 E82.96996
G1 X161.214 Y83.413 E82.97204
G1 X161.664 Y83.905 E82.9825
G1 X162.669 Y84.075 E82.99847
G1 X162.744 Y84.114 E82.9998
G1 X163.568 Y84.251 E83.01289
G1 X163.764 Y84.317 E83.01614
G1 X164.875 Y84.189 E83.03367
G1 X165.013 Y84.104 E83.03621
G1 X165.406 Y83.95 E83.04282
G1 X166.417 Y83.473 E83.06035
G1 X166.901 Y83.296 E83.06842
G1 X167.074 Y83.189 E83.07161
G1 X167.884 Y82.986 E83.0847
G1 X168.878 Y82.645 E83.10118
G1 X169.389 Y82.442 E83.10979
G1 X169.921 Y82.203 E83.11894
G1 X170.056 Y82.161 E83.12115
G1 X170.456 Y81.919 E83.12848
G1 X170.905 Y81.609 E83.13703
G1 X171.383 Y81.449 E83.14494
G1 X171.94 Y81.198 E83.15451
G1 X172.333 Y80.979 E83.16157
G1 X172.662 Y80.739 E83.16795
G1 X173.541 Y80.375 E83.18286
G1 X173.541 Y113.724 E83.70562
G1 X171.933 Y113.687 E83.73084
G1 X170.719 Y113.542 E83.75
G1 X170.108 Y113.936 E83.7614
G1 X169.79 Y113.988 E83.76645
G1 X168.41 Y113.767 E83.78836
G1 X167.83 Y113.653 E83.79762
G1 X167.397 Y113.224 E83.80718
G1 X167.229 Y112.868 E83.81335
G1 X166.977 Y112.439 E83.82115
G1 X166.459 Y112.098 E83.83087
G1 X165.939 Y111.32 E83.84554
G1 X165.086 Y111.164 E83.85913
G1 X164.806 Y111.13 E83.86355
G1 X163.734 Y111.13 E83.88036
G1 X163.44 Y111.272 E83.88547
G1 X162.622 Y111.563 E83.89908
G1 X162.226 Y112.233 E83.91128
G1 X161.811 Y112.592 E83.91988
G1 X161.741 Y112.636 E83.92118
G1 X161.469 Y112.752 E83.92582
G1 X161.124 Y112.968 E83.9322
G1 X160.631 Y113.091 E83.94016
G1 X159.775 Y113.355 E83.9542
G1 X159.027 Y113.244 E83.96606
G1 X158.867 Y113.205 E83.96864
G1 X158.453 Y113.035 E83.97565
G1 X157.994 Y112.567 E83.98593
G1 X157.649 Y112.023 E83.99603
G1 X157.526 Y111.708 E84.00133
G1 X157.484 Y111.265 E84.0083
G1 X157.422 Y111.094 E84.01115
G1 X157.355 Y110.668 E84.01791
G1 X157.179 Y110.431 E84.02254
G1 X156.954 Y110.067 E84.02925
G1 X155.168 Y109.523 E84.05852
G1 X154.067 Y109.359 E84.07597
G1 X153.913 Y109.229 E84.07912
G1 X153.361 Y109.06 E84.08817
G1 X152.838 Y108.81 E84.09726
G1 X152.361 Y108.85 E84.10476
G1 X152.102 Y108.846 E84.10882
G1 X151.717 Y108.903 E84.11493
G1 X150.603 Y109.438 E84.1343
G1 X150.494 Y109.668 E84.13829
G1 X150.099 Y110.655 E84.15495
G1 X149.557 Y111.528 E84.17106
G1 X149.334 Y112.481 E84.1864
G1 X149.1 Y113.209 E84.19839
G1 X148.862 Y113.676 E84.2066
G1 X148.793 Y113.921 E84.21059
G1 X148.559 Y114.406 E84.21904
G1 X148.491 Y114.612 E84.22244
G1 X147.99 Y115.741 E84.2418
G1 X148.097 Y116.23 E84.24964
G1 X148.092 Y116.332 E84.25125
G1 X148.209 Y117.12 E84.26373
G1 X148.226 Y117.473 E84.26927
G1 X148.264 Y117.767 E84.27392
G1 X148.135 Y118.703 E84.28873
G1 X147.992 Y119.067 E84.29486
G1 X147.644 Y119.526 E84.30389
G1 X146.656 Y119.622 E84.31945
G1 X145.847 Y119.75 E84.33229
G1 X145.514 Y119.547 E84.3384
G1 X144.795 Y119.238 E84.35067
G0 F6000 X144.992 Y118.779
G0 X144.94 Y118.758
G0 X144.901 Y118.849
; TYPE:FILL
G1 F1800 X147.658 Y116.092 E84.41179
G0 F6000 X147.56 Y116.113
G0 X147.59 Y116.357
G0 X147.647 Y116.727
G0 X147.744 Y116.713
G1 F1800 X145.396 Y119.061 E84.46384
G0 F6000 X145.435 Y118.97
G0 X145.737 Y119.099
G0 X145.92 Y119.208
G0 X145.869 Y119.295
G1 F1800 X147.819 Y117.345 E84.50707
G0 F6000 X147.72 Y117.349
G0 X147.723 Y118.038
G0 X147.82 Y118.051
G1 F1800 X146.651 Y119.221 E84.53299
G0 F6000 X146.642 Y119.122
G0 X146.59 Y119.126
G0 X144.803 Y118.697
G0 X143.834 Y119.081
G0 X143.87 Y119.172
G1 F1800 X147.751 Y115.292 E84.61902
G0 F6000 X147.661 Y115.252
G0 X148.094 Y114.219
G0 X148.196 Y114.009
G0 X148.285 Y114.051
G1 F1800 X143.08 Y119.255 E84.7344
G0 F6000 X143.087 Y119.157
G0 X142.513 Y119.114
G0 X142.437 Y119.105
G0 X142.425 Y119.204
G1 F1800 X148.802 Y112.827 E84.87576
G0 F6000 X148.708 Y112.797
G0 X148.964 Y111.866
G0 X148.974 Y111.831
G0 X149.068 Y111.853
G1 F1800 X142.037 Y118.885 E85.03164
G0 F6000 X142.135 Y118.865
G0 X142.116 Y118.202
G0 X142.016 Y118.198
G1 F1800 X149.736 Y110.479 E85.20277
G0 F6000 X149.653 Y110.425
G0 X150.144 Y109.228
G0 X150.24 Y109.267
G1 F1800 X142.025 Y117.482 E85.38488
G0 F6000 X142.125 Y117.48
G0 X142.105 Y116.796
G0 X142.005 Y116.795
G1 F1800 X173.14 Y85.661 E86.07509
G0 F6000 X173.041 Y85.661
G0 X173.041 Y86.368
G0 X173.14 Y86.368
G1 F1800 X150.432 Y109.076 E86.57849
G0 F6000 X150.39 Y108.987
G0 X151.568 Y108.42
G0 X151.702 Y108.4
G0 X151.716 Y108.498
G1 F1800 X173.14 Y87.075 E87.05342
G0 F6000 X173.041 Y87.075
G0 X173.041 Y87.782
G0 X173.14 Y87.782
G1 F1800 X152.483 Y108.439 E87.51135
G0 F6000 X152.475 Y108.34
G0 X152.931 Y108.301
G0 X153.167 Y108.415
G0 X153.125 Y108.504
G1 F1800 X173.14 Y88.489 E87.95505
G0 F6000 X173.041 Y88.489
G0 X173.041 Y89.196
G0 X173.14 Y89.196
G1 F1800 X153.616 Y108.72 E88.38787
G0 F6000 X153.645 Y108.625
G0 X154.157 Y108.781
G0 X154.207 Y108.824
G0 X154.143 Y108.9
G1 F1800 X173.14 Y89.903 E88.809
G0 F6000 X173.041 Y89.903
G0 X173.041 Y90.61
G0 X173.14 Y90.61
G1 F1800 X154.701 Y109.049 E89.21777
G0 F6000 X154.715 Y108.951
G0 X155.276 Y109.034
G0 X155.337 Y109.054
G0 X155.308 Y109.149
G1 F1800 X173.14 Y91.317 E89.61307
G0 F6000 X173.041 Y91.317
G0 X173.041 Y92.024
G0 X173.14 Y92.024
G1 F1800 X155.851 Y109.313 E89.99634
G0 F6000 X155.879 Y109.219
G0 X155.276 Y109.034
G0 X156.421 Y109.383
G0 X156.392 Y109.479
G1 F1800 X173.14 Y92.732 E90.36761
G0 F6000 X173.041 Y92.732
G0 X173.041 Y93.439
G0 X173.14 Y93.439
G1 F1800 X156.935 Y109.643 E90.72684
G0 F6000 X156.964 Y109.548
G0 X157.266 Y109.639
G0 X157.429 Y109.884
G0 X157.345 Y109.94
G1 F1800 X173.14 Y94.146 E91.07698
G0 F6000 X173.041 Y94.146
G0 X173.041 Y94.853
G0 X173.14 Y94.853
G1 F1800 X157.628 Y110.365 E91.42086
G0 F6000 X157.712 Y110.309
G0 X157.833 Y110.488
G0 X157.895 Y110.888
G0 X157.797 Y110.903
G1 F1800 X173.14 Y95.56 E91.76099
G0 F6000 X173.041 Y95.56
G0 X173.041 Y96.267
G0 X173.14 Y96.267
G1 F1800 X157.907 Y111.5 E92.09868
G0 F6000 X158.007 Y111.491
G0 X158.195 Y111.951
G0 X158.109 Y112.005
G1 F1800 X173.14 Y96.974 E92.43189
G0 F6000 X173.041 Y96.974
G0 X173.041 Y97.681
G0 X173.14 Y97.681
G1 F1800 X158.405 Y112.416 E92.75854
G0 F6000 X158.476 Y112.346
G0 X158.826 Y112.648
G0 X158.788 Y112.74
G1 F1800 X173.14 Y98.388 E93.07671
G0 F6000 X173.041 Y98.388
G0 X173.041 Y99.095
G0 X173.14 Y99.095
G1 F1800 X159.352 Y112.883 E93.38236
G0 F6000 X159.365 Y112.79
G0 X160.081 Y112.738
G0 X160.11 Y112.832
G1 F1800 X173.14 Y99.802 E93.67122
G0 F6000 X173.041 Y99.802
G0 X173.041 Y100.509
G0 X173.14 Y100.509
G1 F1800 X162.45 Y111.199 E93.9082
G0 F6000 X162.417 Y111.106
G0 X162.284 Y111.152
G0 X162.174 Y111.34
G0 X162.259 Y111.39
G1 F1800 X161.208 Y112.441 E93.9315
G0 F6000 X161.157 Y112.358
G0 X162.284 Y111.152
G0 X163.569 Y110.655
G0 X163.612 Y110.744
G1 F1800 X173.14 Y101.216 E94.14272
G0 F6000 X173.041 Y101.216
G0 X173.041 Y101.923
G0 X173.14 Y101.923
G1 F1800 X164.334 Y110.73 E94.33795
G0 F6000 X164.334 Y110.63
G0 X164.854 Y110.63
G0 X165.033 Y110.661
G0 X165.018 Y110.752
G1 F1800 X173.14 Y102.63 E94.518
G0 F6000 X173.041 Y102.63
G0 X173.041 Y103.337
G0 X173.14 Y103.337
G1 F1800 X165.623 Y110.855 E94.68465
G0 F6000 X165.638 Y110.764
G0 X166.235 Y110.863
G0 X166.281 Y110.932
G0 X166.197 Y110.988
G1 F1800 X173.14 Y104.045 E94.83857
G0 F6000 X173.041 Y104.045
G0 X173.041 Y104.752
G0 X173.14 Y104.752
G1 F1800 X166.481 Y111.411 E94.98619
G0 F6000 X166.564 Y111.356
G0 X166.82 Y111.738
G0 X166.827 Y111.744
G0 X166.773 Y111.826
G1 F1800 X173.14 Y105.459 E95.12733
G0 F6000 X173.041 Y105.459
G0 X173.041 Y106.166
G0 X173.14 Y106.166
G1 F1800 X167.199 Y112.107 E95.25903
G0 F6000 X167.253 Y112.024
G0 X167.349 Y112.085
G0 X167.577 Y112.473
G0 X167.49 Y112.524
G1 F1800 X173.14 Y106.873 E95.3843
G0 F6000 X173.041 Y106.873
G0 X173.041 Y107.58
G0 X173.14 Y107.58
G1 F1800 X167.729 Y112.992 E95.50426
G0 F6000 X167.811 Y112.931
G0 X168.143 Y113.207
G0 X168.125 Y113.303
G1 F1800 X173.14 Y108.287 E95.61545
G0 F6000 X173.041 Y108.287
G0 X173.041 Y108.994
G0 X173.14 Y108.994
G1 F1800 X168.723 Y113.412 E95.71338
G0 F6000 X168.738 Y113.314
G0 X169.347 Y113.411
G0 X169.332 Y113.509
G1 F1800 X173.14 Y109.701 E95.79779
G0 F6000 X173.041 Y109.701
G0 X173.041 Y110.409
G0 X173.14 Y110.409
G1 F1800 X170.057 Y113.492 E95.86614
G0 F6000 X170.004 Y113.409
G0 X170.6 Y113.024
G0 X171.086 Y113.083
G0 X171.075 Y113.181
G1 F1800 X173.14 Y111.116 E95.91192
G0 F6000 X173.041 Y111.116
G0 X173.041 Y111.823
G0 X173.14 Y111.823
G1 F1800 X171.706 Y113.257 E95.94371
G0 F6000 X171.717 Y113.158
G0 X172.376 Y113.199
G0 X172.374 Y113.296
G1 F1800 X173.14 Y112.53 E95.96069
G0 F6000 X173.041 Y112.53
G0 X173.041 Y113.215
G0 X173.14 Y113.237
G1 F1800 X173.065 Y113.312 E95.96235
G1 F3000 E88.96235
G0 F6000 X173.041 Y113.215
G0 X173.041 Y84.953
G0 X173.14 Y84.953
G1 F3000 E95.96235
G1 F1800 X142.168 Y115.925 E96.64895
G0 F6000 X142.267 Y115.94
G0 X142.281 Y115.857
G0 X142.34 Y115.153
G0 X142.241 Y115.145
G1 F1800 X173.14 Y84.246 E97.33394
G0 F6000 X173.041 Y84.246
G0 X173.041 Y83.539
G0 X173.14 Y83.539
G1 F1800 X143.033 Y113.646 E98.00136
G0 F6000 X143.134 Y113.63
G0 X143.036 Y113.026
G0 X142.929 Y113.043
G1 F1800 X173.14 Y82.832 E98.67109
G0 F6000 X173.041 Y82.832
G0 X173.041 Y82.125
G0 X173.14 Y82.125
G1 F1800 X142.832 Y112.433 E99.34297
G0 F6000 X142.938 Y112.416
G0 X142.82 Y111.681
G0 X142.838 Y111.803
G0 X142.739 Y111.819
G1 F1800 X173.14 Y81.418 E100.01692
G0 F6000 X173.041 Y81.418
G0 X172.565 Y81.421
G0 X172.517 Y81.334
G1 F1800 X142.647 Y111.203 E100.67908
G0 F6000 X142.744 Y111.18
G0 X142.608 Y110.61
G0 X142.511 Y110.633
G1 F1800 X171.218 Y81.925 E101.31548
G0 F6000 X171.25 Y82.02
G0 X170.727 Y82.339
G0 X170.262 Y82.621
G0 X169.733 Y82.835
G0 X169.692 Y82.744
G1 F1800 X142.254 Y110.182 E101.92374
G0 F6000 X142.319 Y110.107
G0 X141.886 Y109.73
G0 X141.94 Y109.779
G0 X141.876 Y109.853
G1 F1800 X168.55 Y83.179 E102.51506
G0 F6000 X168.582 Y83.274
G0 X168.026 Y83.466
G0 X167.562 Y83.581
G0 X167.538 Y83.484
G1 F1800 X140.777 Y110.245 E103.10831
G0 F6000 X140.776 Y110.145
G0 X140.547 Y110.148
G0 X139.889 Y110.324
G0 X139.892 Y110.423
G1 F1800 X166.387 Y83.927 E103.69567
G0 F6000 X166.43 Y84.018
G0 X165.606 Y84.409
G0 X165.12 Y84.624
G0 X165.068 Y84.54
G1 F1800 X139.184 Y110.423 E104.26947
G0 F6000 X139.185 Y110.324
G0 X138.659 Y110.201
G0 X138.614 Y110.286
G1 F1800 X164.236 Y84.664 E104.83747
G0 F6000 X164.247 Y84.764
G0 X163.71 Y84.826
G0 X163.501 Y84.755
G0 X163.532 Y84.661
G1 F1800 X138.29 Y109.903 E105.39705
G0 F6000 X138.374 Y109.854
G0 X138.211 Y109.373
G0 X138.207 Y109.363
G0 X138.109 Y109.378
G1 F1800 X162.935 Y84.551 E105.94741
G0 F6000 X162.919 Y84.649
G0 X162.581 Y84.594
G0 X162.337 Y84.525
G0 X162.353 Y84.427
G1 F1800 X156.611 Y90.168 E106.07469
G0 F6000 X156.693 Y90.228
G0 X156.6 Y90.357
G0 X156.516 Y90.398
G0 X156.471 Y90.308
G1 F1800 X138.05 Y108.729 E106.48306
G0 F6000 X138.148 Y108.758
G0 X138.478 Y108.22
G0 X138.592 Y107.861
G0 X138.625 Y107.558
G0 X138.525 Y107.547
G1 F1800 X155.122 Y90.95 E106.85099
G0 F6000 X155.16 Y91.043
G0 X155.032 Y91.097
G0 X154.725 Y91.179
G0 X154.217 Y91.26
G0 X154.202 Y91.163
G1 F1800 X138.633 Y106.732 E107.19613
G0 F6000 X138.732 Y106.717
G0 X138.67 Y106.318
G0 X138.546 Y106.138
G0 X138.463 Y106.195
G1 F1800 X149.684 Y94.974 E107.44488
G0 F6000 X149.716 Y95.068
G0 X148.852 Y95.366
G0 X148.694 Y95.337
G0 X148.71 Y95.24
G1 F1800 X138.138 Y105.812 E107.67924
G0 F6000 X138.185 Y105.725
G0 X137.718 Y105.469
G0 X137.727 Y105.476
G0 X137.68 Y105.563
G1 F1800 X148.118 Y95.126 E107.91063
G0 F6000 X148.1 Y95.234
G0 X147.577 Y95.144
G0 X147.486 Y95.104
G0 X147.524 Y95.013
G1 F1800 X137.166 Y105.37 E108.14024
G0 F6000 X137.2 Y105.278
G0 X136.931 Y105.177
G0 X136.598 Y105.143
G0 X136.588 Y105.241
G1 F1800 X147.02 Y94.81 E108.37149
G0 F6000 X146.987 Y94.904
G0 X146.257 Y94.642
G0 X146.466 Y94.716
G0 X146.499 Y94.623
G1 F1800 X135.948 Y105.175 E108.6054
G0 F6000 X135.958 Y105.076
G0 X135.945 Y105.074
G0 X135.436 Y104.914
G0 X135.407 Y105.008
G1 F1800 X146.168 Y94.248 E108.84394
G0 F6000 X146.081 Y94.292
G0 X145.816 Y93.939
G0 X145.789 Y93.902
G0 X145.867 Y93.841
G1 F1800 X134.86 Y104.849 E109.08796
G0 F6000 X134.867 Y104.75
G0 X134.107 Y104.689
G0 X134.212 Y104.698
G0 X134.205 Y104.796
G1 F1800 X145.425 Y93.576 E109.33669
G0 F6000 X145.373 Y93.661
G0 X144.892 Y93.46
G0 X144.927 Y93.367
G1 F1800 X133.492 Y104.802 E109.59019
G0 F6000 X133.43 Y104.725
G0 X133.034 Y105.044
G0 X132.846 Y105.311
G0 X132.926 Y105.368
G1 F1800 X131.409 Y106.885 E109.62382
G0 F6000 X131.411 Y106.786
G0 X130.969 Y106.652
G0 X130.884 Y106.703
G1 F1800 X139.232 Y98.355 E109.80888
G0 F6000 X139.242 Y98.345
G1 F1800 X144.554 Y93.033 E109.92664
G0 F6000 X144.478 Y93.096
G0 X144.167 Y92.791
G0 X144.128 Y92.703
G0 X144.217 Y92.663
G1 F1800 X139.486 Y97.394 E110.03152
G0 F6000 X139.586 Y97.394
G0 X139.592 Y96.681
G0 X139.492 Y96.681
G1 F1800 X143.973 Y92.2 E110.13085
G0 F6000 X143.898 Y92.262
G0 X143.694 Y92.016
G0 X143.717 Y91.645
G0 X143.816 Y91.65
G1 F1800 X139.498 Y95.967 E110.22657
G0 F6000 X139.599 Y95.967
G0 X139.602 Y95.684
G0 X139.555 Y95.291
G0 X139.457 Y95.302
G1 F1800 X143.762 Y90.996 E110.32201
G0 F6000 X143.664 Y90.993
G0 X143.544 Y90.44
G0 X143.638 Y90.413
G1 F1800 X139.341 Y94.71 E110.41727
G0 F6000 X139.439 Y94.687
G0 X139.359 Y94.344
G0 X139.15 Y94.178
G0 X139.088 Y94.256
G1 F1800 X143.454 Y89.89 E110.51406
G0 F6000 X143.372 Y89.929
G0 X143.09 Y89.62
G0 X143.114 Y89.523
G1 F1800 X138.695 Y93.942 E110.61202
G0 F6000 X138.757 Y93.864
G0 X138.417 Y93.574
G0 X138.38 Y93.543
G0 X138.315 Y93.615
G1 F1800 X142.552 Y89.379 E110.70594
G0 F6000 X142.52 Y89.472
G0 X141.995 Y89.29
G0 X142.028 Y89.195
G1 F1800 X138.225 Y92.998 E110.79024
G0 F6000 X138.325 Y92.996
G0 X138.313 Y92.457
G0 X138.282 Y92.312
G0 X138.184 Y92.332
G1 F1800 X141.476 Y89.04 E110.86322
G0 F6000 X141.416 Y89.116
G0 X140.895 Y88.706
G0 X141.021 Y88.803
G0 X141.081 Y88.727
G1 F1800 X138.554 Y91.255 E110.91925
G0 F6000 X138.636 Y91.313
G0 X138.845 Y91.023
G0 X138.873 Y90.333
G0 X138.773 Y90.329
G1 F1800 X140.729 Y88.373 E110.96261
G0 F6000 X140.654 Y88.442
G0 X140.436 Y88.208
G0 X140.321 Y88.174
G0 X140.32 Y88.075
G1 F1800 X138.925 Y89.469 E110.99353
G0 F6000 X139.021 Y89.5
G0 X139.036 Y89.456
G0 X139.178 Y88.927
G0 X139.248 Y88.565
G0 X139.152 Y88.536
G1 F1800 X139.563 Y88.125 E111.00264
G0 F6000 X139.581 Y88.223
G0 X139.602 Y95.684
G0 X139.581 Y97.996
G0 X139.308 Y98.431
G0 X138.422 Y98.842
G0 X138.058 Y98.945
G0 X138.031 Y98.849
G1 F1800 X130.63 Y106.249 E111.1667
G0 F6000 X130.729 Y106.23
G0 X130.626 Y105.694
G0 X130.607 Y105.634
G0 X130.511 Y105.662
G1 F1800 X137.31 Y98.863 E111.31742
G0 F6000 X137.305 Y98.964
G0 X136.525 Y99.058
G0 X136.494 Y98.971
G1 F1800 X130.34 Y105.126 E111.45385
G0 F6000 X130.435 Y105.092
G0 X130.265 Y104.622
G0 X130.223 Y104.562
G0 X130.14 Y104.619
G1 F1800 X135.485 Y99.273 E111.57236
G0 F6000 X135.511 Y99.37
G0 X133.939 Y100.27
G0 X133.872 Y100.247
G0 X133.906 Y100.145
G1 F1800 X129.836 Y104.215 E111.66258
G0 F6000 X129.912 Y104.15
G0 X129.689 Y103.887
G0 X129.564 Y103.774
G0 X129.496 Y103.848
G1 F1800 X133.364 Y99.98 E111.74833
G0 F6000 X133.335 Y100.069
G0 X132.805 Y99.893
G0 X132.834 Y99.803
G1 F1800 X129.128 Y103.509 E111.83049
G0 F6000 X129.199 Y103.439
G0 X128.948 Y103.175
G0 X128.803 Y103.091
G0 X128.753 Y103.177
G1 F1800 X132.343 Y99.587 E111.91007
G0 F6000 X132.288 Y99.67
G0 X131.819 Y99.457
G0 X131.862 Y99.361
G1 F1800 X128.309 Y102.914 E111.98884
G0 F6000 X128.368 Y102.833
G0 X128.125 Y102.652
G0 X127.865 Y102.581
G0 X127.839 Y102.676
G1 F1800 X131.189 Y99.327 E112.06309
G0 F6000 X131.201 Y99.426
G0 X129.595 Y100.433
G0 X129.445 Y100.488
G0 X129.411 Y100.398
G1 F1800 X127.347 Y102.461 E112.10883
G0 F6000 X127.398 Y102.375
G0 X127.146 Y102.017
G0 X127.136 Y102.003
G0 X127.048 Y102.053
G1 F1800 X128.53 Y100.571 E112.14169
G0 F6000 X128.519 Y100.669
G0 X127.888 Y100.595
G0 X127.899 Y100.496
G1 F1800 X126.908 Y101.486 E112.16364
G1 F3000 E105.16364
G0 F6000 X127.002 Y101.498
G0 X133.939 Y100.27
G0 X138.422 Y98.842
G0 X148.852 Y95.366
G0 X150.272 Y94.879
G0 X150.752 Y94.168
G0 X150.928 Y93.866
G0 X150.842 Y93.816
G1 F3000 E112.16364
G1 F1800 X153.261 Y91.397 E112.21727
G0 F6000 X153.285 Y91.494
G0 X154.725 Y91.179
G0 X155.032 Y91.097
G0 X156.21 Y90.61
G0 X156.6 Y90.357
G0 X157.73 Y88.924
G0 X157.659 Y88.531
G0 X157.56 Y88.512
G1 F1800 X161.747 Y84.325 E112.31009
G0 F6000 X161.731 Y84.423
G0 X161.412 Y84.371
G0 X161.21 Y84.148
G0 X161.283 Y84.082
G1 F1800 X157.636 Y87.73 E112.39095
G0 F6000 X157.733 Y87.744
G0 X157.861 Y86.911
G0 X157.762 Y86.896
G1 F1800 X160.93 Y83.728 E112.46118
G0 F6000 X160.893 Y83.823
G0 X160.883 Y83.821
G0 X160.665 Y83.707
G0 X160.3 Y83.764
G0 X160.285 Y83.666
G1 F1800 X157.981 Y85.97 E112.51225
G0 F6000 X158.069 Y86.017
G0 X158.109 Y85.945
G0 X158.382 Y85.689
G0 X158.731 Y85.099
G0 X158.947 Y84.552
G0 X159.076 Y84.3
G0 X158.989 Y84.255
G1 F1800 X159.345 Y83.898 E112.52016
; Layer Change GCode
; LAYER:2
G1 F3000 E105.52016
G0 F6000 X159.345 Y83.898 Z0.82
G0 X159.374 Y83.994
G0 X157.752 Y87.918
G0 X157.763 Y88.001
G0 X157.73 Y88.924
G0 X144.992 Y118.779
G0 X144.795 Y119.238
; TYPE:WALL-OUTER
G1 F3000 E112.52016
G1 F1800 X144.028 Y119.541 E112.53308
G1 X143.733 Y119.704 E112.53837
G1 X142.7 Y119.639 E112.55459
G1 X141.938 Y119.546 E112.56663
G1 X141.664 Y119.045 E112.57558
G1 X141.595 Y118.744 E112.58042
G1 X141.634 Y117.769 E112.59571
G1 X141.605 Y116.779 E112.61124
G1 X141.642 Y116.422 E112.61687
G1 X141.735 Y116.122 E112.62179
G1 X141.795 Y115.64 E112.6294
G1 X141.876 Y114.834 E112.6421
G1 X141.967 Y114.764 E112.6439
G1 X142.36 Y114.282 E112.65365
G1 X142.66 Y113.822 E112.66226
G1 X142.499 Y112.902 E112.6769
G1 X142.3 Y111.467 E112.69961
G1 X142.083 Y110.564 E112.71417
G1 X141.823 Y110.337 E112.71958
G1 X141.622 Y110.449 E112.72318
G1 X141.223 Y110.526 E112.72955
G1 X140.874 Y110.643 E112.73532
G1 X140.624 Y110.647 E112.73924
G1 X140.053 Y110.819 E112.74859
G1 X139.678 Y110.83 E112.75447
G1 X138.831 Y110.819 E112.76775
G1 X138.655 Y110.764 E112.77064
G1 X138.271 Y110.562 E112.77744
G1 X138.143 Y110.45 E112.78011
G1 X137.811 Y109.879 E112.79046
G1 X137.758 Y109.708 E112.79327
G1 X137.61 Y108.788 E112.80787
G1 X137.691 Y108.546 E112.81187
G1 X138.02 Y108.01 E112.82173
G1 X138.101 Y107.756 E112.82591
G1 X138.188 Y106.969 E112.83832
G1 X138.237 Y106.781 E112.84137
G1 X138.194 Y106.508 E112.8457
G1 X137.963 Y106.172 E112.85209
G1 X137.509 Y105.924 E112.8602
G1 X136.806 Y105.666 E112.87194
G1 X135.829 Y105.562 E112.88734
G1 X134.844 Y105.25 E112.90354
G1 X134.497 Y105.205 E112.90902
G1 X134.133 Y105.199 E112.91473
G1 X133.721 Y105.132 E112.92127
G1 X133.402 Y105.389 E112.92769
G1 X132.976 Y105.993 E112.93928
G1 X132.576 Y106.475 E112.9491
G1 X132.042 Y107.011 E112.96096
G1 X131.704 Y107.293 E112.96786
G1 X130.891 Y107.273 E112.98061
G1 X130.596 Y107 E112.98691
G1 X130.262 Y106.443 E112.99709
G1 X130.116 Y105.746 E113.00825
G1 X130.029 Y105.44 E113.01324
G1 X129.816 Y104.852 E113.02304
G1 X129.655 Y104.616 E113.02752
G1 X129.329 Y104.236 E113.03537
G1 X128.86 Y103.808 E113.04532
G1 X128.632 Y103.569 E113.0505
G1 X128.174 Y103.31 E113.05875
G1 X127.903 Y103.11 E113.06403
G1 X127.443 Y102.982 E113.07151
G1 X126.962 Y102.713 E113.08015
G1 X126.603 Y102.076 E113.09161
G1 X126.467 Y101.736 E113.09735
G1 X126.523 Y101.309 E113.1041
G1 X126.612 Y100.829 E113.11176
G1 X126.699 Y100.579 E113.1159
G1 X126.954 Y100.267 E113.12222
G1 X127.066 Y100.205 E113.12423
G1 X127.868 Y100.089 E113.13693
G1 X128.681 Y100.183 E113.14976
G1 X128.876 Y100.167 E113.15283
G1 X129 Y100.14 E113.15482
G1 X129.358 Y99.986 E113.16092
G1 X130.261 Y99.321 E113.1785
G1 X130.886 Y98.961 E113.18981
G1 X131.748 Y98.856 E113.20342
G1 X131.996 Y98.991 E113.20785
G1 X132.473 Y99.197 E113.21599
G1 X132.683 Y99.326 E113.21986
G1 X133.403 Y99.574 E113.23179
G1 X133.843 Y99.708 E113.239
G1 X134.298 Y99.348 E113.2481
G1 X134.899 Y99.015 E113.25887
G1 X135.867 Y98.767 E113.27453
G1 X136.426 Y98.555 E113.2839
G1 X136.819 Y98.44 E113.29032
G1 X137.257 Y98.47 E113.29721
G1 X137.378 Y98.446 E113.29914
G1 X137.812 Y98.496 E113.30599
G1 X138.247 Y98.372 E113.31308
G1 X138.967 Y98.038 E113.32552
G1 X139.086 Y97.837 E113.32918
G1 X139.1 Y95.696 E113.36274
G1 X139.038 Y95.164 E113.37114
G1 X138.911 Y94.625 E113.37982
G1 X138.341 Y94.183 E113.39113
G1 X137.862 Y93.746 E113.40129
G1 X137.842 Y93.706 E113.40199
G1 X137.814 Y92.514 E113.42068
G1 X137.72 Y92.058 E113.42798
G1 X137.71 Y91.813 E113.43182
G1 X137.776 Y91.655 E113.43451
G1 X138.352 Y90.853 E113.44998
G1 X138.395 Y89.813 E113.4663
G1 X138.557 Y89.314 E113.47453
G1 X138.689 Y88.821 E113.48253
G1 X138.738 Y88.528 E113.48718
G1 X138.946 Y87.832 E113.49857
G1 X139.636 Y87.706 E113.50956
G1 X139.924 Y87.682 E113.51409
G1 X140.681 Y87.667 E113.52596
G1 X140.753 Y87.747 E113.52765
G1 X140.845 Y87.915 E113.53065
G1 X141.236 Y88.338 E113.53968
G1 X141.681 Y88.69 E113.54858
G1 X141.979 Y88.755 E113.55336
G1 X142.727 Y89.015 E113.56577
G1 X143.464 Y89.198 E113.57767
G1 X143.593 Y89.323 E113.58049
G1 X143.797 Y89.66 E113.58666
G1 X143.892 Y89.857 E113.59009
G1 X144.171 Y90.8 E113.60551
G1 X144.158 Y91.175 E113.61139
G1 X144.228 Y91.478 E113.61627
G1 X144.205 Y91.851 E113.62212
G1 X144.394 Y92.08 E113.62678
G1 X144.583 Y92.498 E113.63397
G1 X144.819 Y92.725 E113.6391
G1 X145.031 Y92.979 E113.64429
G1 X145.51 Y93.16 E113.65231
G1 X145.663 Y93.264 E113.65521
G1 X146.102 Y93.492 E113.66297
G1 X146.471 Y93.96 E113.67231
G1 X146.613 Y94.238 E113.6772
G1 X147.413 Y94.53 E113.69055
G1 X147.721 Y94.662 E113.69581
G1 X148.809 Y94.852 E113.71312
G1 X149.951 Y94.46 E113.73205
G1 X150.329 Y93.901 E113.74262
G1 X150.575 Y93.482 E113.75024
G1 X151.012 Y92.915 E113.76146
G1 X151.316 Y92.215 E113.77342
G1 X151.568 Y91.921 E113.77949
G1 X151.717 Y91.705 E113.78361
G1 X151.937 Y91.568 E113.78767
G1 X152.247 Y91.312 E113.79397
G1 X152.888 Y91.045 E113.80486
G1 X153.144 Y91.014 E113.8089
G1 X154.074 Y90.778 E113.82394
G1 X154.538 Y90.711 E113.83129
G1 X154.871 Y90.622 E113.83669
G1 X155.931 Y90.185 E113.85466
G1 X156.041 Y90.077 E113.85708
G1 X156.267 Y89.964 E113.86104
G1 X156.584 Y89.531 E113.86945
G1 X157.048 Y88.976 E113.88079
G1 X157.163 Y88.806 E113.88401
G1 X157.121 Y88.679 E113.88611
G1 X157.256 Y87.988 E113.89714
G1 X157.226 Y87.768 E113.90063
G1 X157.369 Y86.824 E113.91559
G1 X157.589 Y85.857 E113.93114
G1 X157.708 Y85.635 E113.93509
G1 X157.988 Y85.373 E113.9411
G1 X158.28 Y84.878 E113.95011
G1 X158.49 Y84.349 E113.95903
G1 X158.811 Y83.732 E113.96993
G1 X158.928 Y83.607 E113.97261
G1 X159.844 Y83.332 E113.98761
G1 X160.75 Y83.187 E114.00199
G1 X161.213 Y83.413 E114.01006
G1 X161.664 Y83.905 E114.02053
G1 X162.399 Y84.035 E114.03223
G1 X162.638 Y84.063 E114.036
G1 X162.687 Y84.1 E114.03696
G1 X163.514 Y84.233 E114.05009
G1 X163.764 Y84.317 E114.05423
G1 X164.875 Y84.189 E114.07176
G1 X165.016 Y84.102 E114.07435
G1 X165.897 Y83.734 E114.08932
G1 X166.414 Y83.474 E114.09839
G1 X166.901 Y83.296 E114.10652
G1 X167.074 Y83.189 E114.10971
G1 X167.884 Y82.986 E114.1228
G1 X168.878 Y82.644 E114.13928
G1 X169.404 Y82.434 E114.14815
G1 X169.933 Y82.199 E114.15723
G1 X170.057 Y82.161 E114.15926
G1 X170.489 Y81.896 E114.1672
G1 X170.905 Y81.61 E114.17512
G1 X171.398 Y81.442 E114.18328
G1 X171.956 Y81.188 E114.19289
G1 X172.333 Y80.979 E114.19965
G1 X172.662 Y80.739 E114.20603
G1 X173.541 Y80.375 E114.22095
G1 X173.541 Y113.725 E114.74372
G1 X171.808 Y113.677 E114.7709
G1 X171.39 Y113.616 E114.77752
G1 X170.712 Y113.545 E114.78821
G1 X170.106 Y113.936 E114.79951
G1 X169.791 Y113.988 E114.80452
G1 X168.355 Y113.756 E114.82732
G1 X167.83 Y113.653 E114.83571
G1 X167.397 Y113.224 E114.84526
G1 X167.229 Y112.868 E114.85143
G1 X166.977 Y112.439 E114.85923
G1 X166.459 Y112.098 E114.86895
G1 X165.939 Y111.321 E114.88361
G1 X165.051 Y111.16 E114.89775
G1 X164.806 Y111.13 E114.90162
G1 X163.734 Y111.13 E114.91843
G1 X163.44 Y111.272 E114.92354
G1 X162.622 Y111.563 E114.93715
G1 X162.226 Y112.232 E114.94934
G1 X161.806 Y112.595 E114.95804
G1 X161.469 Y112.752 E114.96387
G1 X161.124 Y112.967 E114.97024
G1 X160.594 Y113.102 E114.97882
G1 X159.773 Y113.356 E114.99229
G1 X159.012 Y113.241 E115.00435
G1 X158.865 Y113.205 E115.00672
G1 X158.453 Y113.035 E115.01371
G1 X157.996 Y112.571 E115.02392
G1 X157.65 Y112.023 E115.03408
G1 X157.526 Y111.708 E115.03939
G1 X157.484 Y111.265 E115.04636
G1 X157.422 Y111.094 E115.04921
G1 X157.356 Y110.674 E115.05588
G1 X156.954 Y110.067 E115.06729
G1 X155.164 Y109.523 E115.09662
G1 X154.853 Y109.483 E115.10153
G1 X154.787 Y109.459 E115.10263
G1 X154.067 Y109.359 E115.11403
G1 X153.913 Y109.229 E115.11719
G1 X153.361 Y109.06 E115.12623
G1 X152.834 Y108.809 E115.13538
G1 X152.449 Y108.852 E115.14146
G1 X152.103 Y108.846 E115.14688
G1 X151.717 Y108.903 E115.153
G1 X150.603 Y109.438 E115.17237
G1 X150.494 Y109.668 E115.17636
G1 X150.099 Y110.655 E115.19302
G1 X149.558 Y111.527 E115.20911
G1 X149.289 Y112.624 E115.22682
G1 X149.1 Y113.21 E115.23647
G1 X148.862 Y113.676 E115.24467
G1 X148.793 Y113.921 E115.24866
G1 X148.561 Y114.402 E115.25703
G1 X148.47 Y114.644 E115.26108
G1 X147.991 Y115.742 E115.27986
G1 X148.097 Y116.23 E115.28769
G1 X148.092 Y116.332 E115.28929
G1 X148.209 Y117.12 E115.30178
G1 X148.226 Y117.473 E115.30732
G1 X148.264 Y117.767 E115.31197
G1 X148.135 Y118.703 E115.32678
G1 X147.991 Y119.07 E115.33296
G1 X147.656 Y119.524 E115.3418
G1 X146.656 Y119.622 E115.35755
G1 X145.849 Y119.75 E115.37036
G1 X145.514 Y119.547 E115.3765
G1 X144.795 Y119.238 E115.38877
G0 F6000 X144.992 Y118.779
G0 X145.133 Y118.84
G0 X145.094 Y118.931
; TYPE:FILL
G1 F1800 X142.151 Y115.988 E115.45401
G0 F6000 X142.25 Y115.998
G0 X142.229 Y116.219
G0 X142.127 Y116.582
G0 X142.028 Y116.572
G1 F1800 X144.413 Y118.957 E115.50688
G0 F6000 X144.377 Y118.866
G0 X143.87 Y119.067
G0 X143.906 Y119.158
G1 F1800 X142.018 Y117.27 E115.54873
G0 F6000 X142.119 Y117.267
G0 X142.134 Y117.772
G0 X142.125 Y117.986
G0 X142.024 Y117.982
G1 F1800 X143.319 Y119.277 E115.57744
G0 F6000 X143.325 Y119.179
G0 X142.757 Y119.141
G0 X142.565 Y119.118
G0 X142.553 Y119.218
G1 F1800 X141.998 Y118.663 E115.58975
G0 F6000 X142.098 Y118.667
G0 X142.313 Y115.39
G0 X142.315 Y115.36
G0 X142.221 Y115.351
G1 F1800 X146.164 Y119.294 E115.67716
G0 F6000 X146.149 Y119.201
G0 X146.591 Y119.126
G0 X146.775 Y119.109
G0 X146.784 Y119.207
G1 F1800 X142.419 Y114.841 E115.77393
G0 F6000 X142.496 Y114.904
G0 X142.764 Y114.577
G0 X142.813 Y114.5
G0 X142.729 Y114.445
G1 F1800 X147.428 Y119.143 E115.87809
G0 F6000 X147.385 Y119.049
G0 X147.61 Y118.675
G0 X147.701 Y118.71
G1 F1800 X143.008 Y114.016 E115.98214
G0 F6000 X143.093 Y114.071
G0 X143.187 Y113.93
G0 X143.068 Y113.253
G0 X142.968 Y113.27
G1 F1800 X147.812 Y118.113 E116.08951
G0 F6000 X147.714 Y118.1
G0 X147.723 Y117.421
G0 X147.822 Y117.417
G1 F1800 X142.836 Y112.431 E116.20004
G0 F6000 X142.937 Y112.417
G0 X142.821 Y111.597
G0 X142.723 Y111.61
G1 F1800 X147.73 Y116.617 E116.31104
G0 F6000 X147.632 Y116.631
G0 X147.59 Y116.357
G0 X147.594 Y116.273
G0 X147.49 Y115.786
G0 X147.585 Y115.766
G1 F1800 X142.529 Y110.709 E116.42314
G0 F6000 X142.626 Y110.686
G0 X142.532 Y110.291
G0 X141.886 Y109.73
G0 X141.695 Y109.838
G0 X141.742 Y109.922
G1 F1800 X138.639 Y106.819 E116.49192
G0 F6000 X138.737 Y106.845
G0 X138.68 Y107.061
G0 X138.638 Y107.436
G0 X138.539 Y107.426
G1 F1800 X141.229 Y110.117 E116.55157
G0 F6000 X141.211 Y110.02
G0 X141.096 Y110.041
G0 X140.651 Y110.147
G0 X140.652 Y110.246
G1 F1800 X138.433 Y108.027 E116.60076
G0 F6000 X138.529 Y108.057
G0 X138.478 Y108.22
G0 X138.277 Y108.545
G0 X138.191 Y108.493
G1 F1800 X140.088 Y110.389 E116.6428
G0 F6000 X140.06 Y110.296
G0 X139.412 Y110.327
G0 X139.411 Y110.42
G1 F1800 X138.059 Y109.067 E116.67279
G0 F6000 X138.158 Y109.052
G0 X138.246 Y109.597
G0 X138.272 Y109.677
G0 X138.51 Y110.089
G0 X138.423 Y110.139
G1 F1800 X138.516 Y110.232 E116.67485
G0 F6000 X138.556 Y110.146
G0 X138.748 Y106.808
G0 X138.67 Y106.318
G0 X138.307 Y105.79
G0 X137.716 Y105.468
G0 X137.24 Y105.295
G0 X137.206 Y105.387
G1 F1800 X131.151 Y99.331 E116.80909
G0 F6000 X131.163 Y99.431
G0 X131.051 Y99.445
G0 X130.712 Y99.637
G0 X130.662 Y99.55
G1 F1800 X136.324 Y105.211 E116.9346
G0 F6000 X136.334 Y105.114
G0 X135.933 Y105.07
G0 X135.448 Y104.917
G0 X135.418 Y105.012
G1 F1800 X130.238 Y99.832 E117.04943
G0 F6000 X130.298 Y99.914
G0 X129.609 Y100.423
G0 X129.891 Y100.214
G0 X129.831 Y100.132
G1 F1800 X134.504 Y104.805 E117.15302
G0 F6000 X134.505 Y104.706
G0 X133.752 Y104.631
G0 X133.733 Y104.629
G0 X133.718 Y104.726
G1 F1800 X129.395 Y100.404 E117.24884
G0 F6000 X129.434 Y100.496
G0 X129.124 Y100.631
G0 X128.866 Y100.664
G0 X128.854 Y100.57
G1 F1800 X133.267 Y104.983 E117.34667
G0 F6000 X133.206 Y104.907
G0 X133.034 Y105.044
G0 X132.854 Y105.3
G0 X132.934 Y105.357
G1 F1800 X128.095 Y100.518 E117.45395
G0 F6000 X128.084 Y100.617
G0 X127.441 Y100.655
G0 X127.427 Y100.557
G1 F1800 X132.639 Y105.769 E117.56949
G0 F6000 X132.565 Y105.708
G0 X132.244 Y106.094
G0 X132.319 Y106.156
G1 F1800 X127.023 Y100.861 E117.68688
G0 F6000 X127.119 Y100.894
G0 X127.005 Y101.469
G0 X126.913 Y101.457
G1 F1800 X128.479 Y103.024 E117.72161
G0 F6000 X128.528 Y102.937
G0 X128.943 Y103.17
G0 X129.688 Y103.887
G0 X130.052 Y104.311
G0 X130.265 Y104.622
G0 X130.297 Y104.712
G0 X130.202 Y104.746
G1 F1800 X131.97 Y106.515 E117.76081
G0 F6000 X131.902 Y106.447
G0 X131.712 Y106.636
G0 X131.54 Y106.779
G0 X131.603 Y106.855
G1 F1800 X130.532 Y105.783 E117.78457
G0 F6000 X130.629 Y105.763
G0 X133.112 Y99.995
G0 X133.141 Y99.907
G1 F1800 X147.986 Y114.752 E118.11366
G0 F6000 X147.888 Y114.711
G0 X147.469 Y115.694
G0 X147.679 Y115.205
G0 X147.771 Y115.244
G1 F1800 X131.921 Y99.394 E118.46503
G0 F6000 X131.882 Y99.485
G0 X132.471 Y99.783
G0 X133.939 Y100.27
G0 X134.081 Y100.157
G0 X134.019 Y100.078
G1 F1800 X148.19 Y114.249 E118.77918
G0 F6000 X148.1 Y114.211
G0 X148.324 Y113.74
G0 X148.418 Y113.77
G1 F1800 X134.413 Y99.765 E119.08965
G0 F6000 X134.476 Y99.845
G0 X134.901 Y99.584
G0 X134.852 Y99.496
G1 F1800 X148.622 Y113.267 E119.39492
G0 F6000 X148.533 Y113.222
G0 X148.73 Y112.73
G0 X148.823 Y112.76
G1 F1800 X135.369 Y99.306 E119.69317
G0 F6000 X135.394 Y99.403
G0 X136.018 Y99.244
G0 X135.956 Y99.258
G0 X135.932 Y99.163
G1 F1800 X148.977 Y112.207 E119.98235
G0 F6000 X148.883 Y112.184
G0 X149.022 Y111.617
G0 X149.117 Y111.64
G1 F1800 X136.449 Y98.973 E120.26317
G0 F6000 X136.484 Y99.066
G0 X137.033 Y98.956
G0 X137.039 Y98.855
G1 F1800 X149.325 Y111.141 E120.53553
G0 F6000 X149.242 Y111.09
G0 X149.512 Y110.653
G0 X149.596 Y110.705
G1 F1800 X137.787 Y98.896 E120.79732
G0 F6000 X137.776 Y98.995
G0 X137.853 Y99.004
G0 X138.382 Y98.853
G0 X138.355 Y98.757
G1 F1800 X149.835 Y110.237 E121.05181
G0 F6000 X149.746 Y110.201
G0 X149.653 Y110.425
G0 X149.952 Y109.697
G0 X150.036 Y109.731
G1 F1800 X138.841 Y98.536 E121.29998
G0 F6000 X138.883 Y98.627
G0 X139.318 Y98.426
G0 X139.375 Y98.328
G0 X139.288 Y98.276
G1 F1800 X150.253 Y109.24 E121.54305
G0 F6000 X150.155 Y109.2
G0 X150.206 Y109.074
G0 X150.635 Y108.869
G0 X150.677 Y108.958
G1 F1800 X139.485 Y97.765 E121.79117
G0 F6000 X139.586 Y97.765
G0 X139.59 Y97.063
G0 X139.49 Y97.063
G1 F1800 X151.154 Y108.728 E122.04976
G0 F6000 X151.112 Y108.64
G0 X151.568 Y108.42
G0 X151.628 Y108.411
G0 X151.642 Y108.509
G1 F1800 X139.494 Y96.36 E122.31907
G0 F6000 X139.595 Y96.36
G0 X139.6 Y95.669
G0 X139.596 Y95.646
G0 X139.498 Y95.657
G1 F1800 X152.288 Y108.448 E122.60261
G0 F6000 X152.289 Y108.349
G0 X152.921 Y108.296
G0 X153.029 Y108.348
G0 X152.986 Y108.438
G1 F1800 X139.367 Y94.82 E122.90452
G0 F6000 X139.464 Y94.798
G0 X139.357 Y94.338
G0 X138.324 Y92.967
G0 X138.224 Y92.969
G1 F1800 X154.217 Y108.963 E123.25907
G0 F6000 X154.279 Y108.884
G0 X154.91 Y108.971
G0 X155.081 Y109.008
G0 X155.069 Y109.107
G1 F1800 X138.155 Y92.193 E123.63402
G0 F6000 X138.253 Y92.173
G0 X138.373 Y91.681
G0 X138.29 Y91.621
G1 F1800 X156.041 Y109.372 E124.02754
G0 F6000 X156.07 Y109.277
G0 X157.266 Y109.639
G0 X157.086 Y109.586
G0 X157.057 Y109.681
G1 F1800 X138.586 Y91.21 E124.43701
G0 F6000 X138.668 Y91.268
G0 X138.845 Y91.023
G0 X138.859 Y90.679
G0 X138.758 Y90.675
G1 F1800 X160.736 Y112.653 E124.92423
G0 F6000 X160.712 Y112.557
G0 X161.171 Y112.349
G0 X161.223 Y112.432
G1 F1800 X138.787 Y89.997 E125.42159
G0 F6000 X138.887 Y90.001
G0 X139.031 Y89.469
G0 X138.935 Y89.438
G1 F1800 X161.676 Y112.178 E125.92571
G0 F6000 X161.612 Y112.103
G0 X161.927 Y111.757
G0 X162.012 Y111.807
G1 F1800 X139.083 Y88.879 E126.434
G0 F6000 X139.182 Y88.895
G0 X139.226 Y88.641
G0 X139.316 Y88.337
G0 X139.22 Y88.308
G1 F1800 X162.275 Y111.363 E126.94509
G0 F6000 X162.19 Y111.313
G0 X162.284 Y111.152
G0 X162.689 Y111.009
G0 X162.722 Y111.103
G1 F1800 X145.021 Y93.402 E127.3375
G0 F6000 X144.986 Y93.495
G0 X144.731 Y93.4
G0 X144.167 Y92.791
G0 X144.075 Y92.585
G0 X144.164 Y92.545
G1 F1800 X139.719 Y88.1 E127.43604
G0 F6000 X139.727 Y88.2
G0 X140.399 Y88.173
G0 X140.398 Y88.072
G1 F1800 X143.821 Y91.495 E127.51192
G0 F6000 X143.724 Y91.52
G0 X143.656 Y91.224
G0 X143.625 Y90.713
G0 X143.719 Y90.686
G1 F1800 X142.336 Y89.303 E127.54258
G0 F6000 X142.304 Y89.397
G0 X143.694 Y92.016
G0 X144.167 Y92.791
G0 X144.731 Y93.4
G0 X146.257 Y94.641
G0 X147.172 Y94.973
G0 X147.206 Y94.88
G1 F1800 X163.243 Y110.917 E127.89809
G0 F6000 X163.21 Y110.824
G0 X163.62 Y110.63
G0 X163.763 Y110.63
G0 X163.763 Y110.73
G1 F1800 X148.182 Y95.148 E128.24351
G0 F6000 X148.166 Y95.245
G0 X148.852 Y95.366
G0 X148.994 Y95.316
G0 X148.962 Y95.222
G1 F1800 X164.47 Y110.73 E128.5873
G0 F6000 X164.47 Y110.63
G0 X164.854 Y110.63
G0 X165.247 Y110.698
G0 X165.233 Y110.785
G1 F1800 X149.489 Y95.042 E128.93631
G0 F6000 X149.521 Y95.135
G0 X150.272 Y94.879
G0 X150.047 Y94.955
G0 X150.015 Y94.861
G1 F1800 X166.097 Y110.942 E129.29281
G0 F6000 X166.113 Y110.844
G0 X166.235 Y110.863
G0 X166.391 Y111.097
G0 X166.307 Y111.153
G1 F1800 X168.533 Y113.378 E129.34215
G0 F6000 X168.548 Y113.283
G0 X168.468 Y113.269
G0 X169.391 Y113.419
G0 X169.376 Y113.514
G1 F1800 X150.388 Y94.526 E129.76308
G0 F6000 X150.471 Y94.582
G0 X150.752 Y94.168
G0 X150.759 Y94.154
G0 X150.673 Y94.104
G1 F1800 X170.058 Y113.489 E130.19282
G0 F6000 X170.005 Y113.407
G0 X170.435 Y113.13
G0 X170.488 Y113.212
G1 F1800 X150.939 Y93.664 E130.62618
G0 F6000 X151.018 Y93.725
G0 X151.446 Y93.171
G0 X151.326 Y93.325
G0 X151.247 Y93.264
G1 F1800 X171.173 Y113.19 E131.0679
G0 F6000 X171.184 Y113.099
G0 X171.839 Y113.178
G0 X171.973 Y113.182
G0 X171.971 Y113.281
G1 F1800 X151.494 Y92.804 E131.52185
G0 F6000 X151.587 Y92.844
G0 X151.745 Y92.483
G0 X151.812 Y92.404
G0 X151.735 Y92.338
G1 F1800 X172.698 Y113.301 E131.98656
G0 F6000 X172.7 Y113.203
G0 X173.041 Y113.036
G0 X173.14 Y113.036
G1 F1800 X152.064 Y91.959 E132.4538
G0 F6000 X152.117 Y92.045
G0 X152.23 Y91.975
G0 X152.51 Y91.743
G0 X152.464 Y91.653
G1 F1800 X173.14 Y112.329 E132.91215
G0 F6000 X173.041 Y112.329
G0 X173.041 Y111.622
G0 X173.14 Y111.622
G1 F1800 X152.964 Y91.445 E133.35944
G0 F6000 X153.002 Y91.538
G0 X153.235 Y91.507
G0 X153.573 Y91.421
G0 X153.549 Y91.324
G1 F1800 X173.14 Y110.915 E133.79374
G0 F6000 X173.041 Y110.915
G0 X173.041 Y110.208
G0 X173.14 Y110.208
G1 F1800 X154.113 Y91.181 E134.21554
G0 F6000 X154.137 Y91.278
G0 X154.639 Y91.202
G0 X154.742 Y91.174
G0 X154.716 Y91.076
G1 F1800 X173.14 Y109.501 E134.62398
G0 F6000 X173.041 Y109.501
G0 X173.041 Y108.794
G0 X173.14 Y108.794
G1 F1800 X155.246 Y90.899 E135.02067
G0 F6000 X155.284 Y90.992
G0 X155.032 Y91.097
G0 X155.785 Y90.784
G0 X155.748 Y90.694
G1 F1800 X173.14 Y108.086 E135.40623
G0 F6000 X173.041 Y108.086
G0 X173.041 Y107.379
G0 X173.14 Y107.379
G1 F1800 X156.221 Y90.46 E135.78129
G0 F6000 X156.29 Y90.531
G0 X156.6 Y90.357
G0 X156.704 Y90.213
G0 X156.622 Y90.153
G1 F1800 X173.14 Y106.672 E136.14748
G0 F6000 X173.041 Y106.672
G0 X173.041 Y105.965
G0 X173.14 Y105.965
G1 F1800 X156.923 Y89.748 E136.50699
G0 F6000 X156.999 Y89.81
G0 X156.988 Y89.825
G0 X157.318 Y89.423
G0 X157.244 Y89.362
G1 F1800 X173.14 Y105.258 E136.85938
G0 F6000 X173.041 Y105.258
G0 X173.041 Y104.551
G0 X173.14 Y104.551
G1 F1800 X157.544 Y88.954 E137.20513
G0 F6000 X157.639 Y89.032
G0 X157.73 Y88.924
G0 X157.699 Y88.323
G0 X157.601 Y88.304
G1 F1800 X173.14 Y103.844 E137.54962
G0 F6000 X173.041 Y103.844
G0 X173.041 Y103.137
G0 X173.14 Y103.137
G1 F1800 X157.648 Y87.645 E137.89305
G0 F6000 X157.746 Y87.66
G0 X157.861 Y86.911
G0 X157.839 Y87.045
G0 X157.741 Y87.03
G1 F1800 X173.14 Y102.43 E138.23443
G0 F6000 X173.041 Y102.43
G0 X173.041 Y101.722
G0 X173.14 Y101.722
G1 F1800 X157.864 Y86.446 E138.57308
G0 F6000 X157.961 Y86.468
G0 X158.061 Y86.034
G0 X158.109 Y85.945
G0 X158.021 Y85.896
G1 F1800 X173.14 Y101.015 E138.90824
G0 F6000 X173.041 Y101.015
G0 X173.041 Y100.308
G0 X173.14 Y100.308
G1 F1800 X158.36 Y85.528 E139.23589
G0 F6000 X158.446 Y85.578
G0 X158.731 Y85.099
G0 X158.709 Y85.134
G0 X158.622 Y85.083
G1 F1800 X173.14 Y99.601 E139.55773
G0 F6000 X173.041 Y99.601
G0 X173.041 Y98.894
G0 X173.14 Y98.894
G1 F1800 X158.827 Y84.581 E139.87503
G0 F6000 X158.92 Y84.617
G0 X158.947 Y84.552
G0 X159.151 Y84.156
G0 X159.064 Y84.111
G1 F1800 X173.14 Y98.187 E140.18707
G0 F6000 X173.041 Y98.187
G0 X173.041 Y97.48
G0 X173.14 Y97.48
G1 F1800 X159.509 Y83.849 E140.48925
G0 F6000 X159.538 Y83.945
G0 X160.071 Y83.803
G0 X160.084 Y83.799
G0 X160.068 Y83.7
G1 F1800 X173.14 Y96.772 E140.77904
G0 F6000 X173.041 Y96.772
G0 X173.041 Y96.065
G0 X173.14 Y96.065
G1 F1800 X160.677 Y83.603 E141.05531
G0 F6000 X160.678 Y83.705
G0 X161.41 Y84.368
G0 X162.161 Y84.5
G0 X162.179 Y84.397
G1 F1800 X173.14 Y95.358 E141.2983
G0 F6000 X173.041 Y95.358
G0 X173.041 Y94.651
G0 X173.14 Y94.651
G1 F1800 X163.053 Y84.565 E141.5219
G0 F6000 X163.038 Y84.662
G0 X163.392 Y84.719
G0 X163.71 Y84.826
G0 X163.909 Y84.802
G0 X163.898 Y84.702
G1 F1800 X173.14 Y93.944 E141.72678
G0 F6000 X173.041 Y93.944
G0 X173.041 Y93.236
G0 X173.14 Y93.236
G1 F1800 X164.533 Y84.63 E141.91758
G0 F6000 X164.544 Y84.729
G0 X165.043 Y84.673
G0 X165.171 Y84.593
G0 X165.119 Y84.509
G1 F1800 X173.14 Y92.529 E142.09538
G0 F6000 X173.041 Y92.529
G0 X173.041 Y91.822
G0 X173.14 Y91.822
G1 F1800 X165.606 Y84.289 E142.26239
G0 F6000 X165.644 Y84.381
G0 X166.105 Y84.19
G0 X166.148 Y84.168
G0 X166.103 Y84.079
G1 F1800 X173.14 Y91.115 E142.41837
G0 F6000 X173.041 Y91.115
G0 X173.041 Y90.408
G0 X173.14 Y90.408
G1 F1800 X166.573 Y83.841 E142.56395
G0 F6000 X166.615 Y83.933
G0 X167.12 Y83.748
G0 X167.14 Y83.735
G0 X167.087 Y83.649
G1 F1800 X173.14 Y89.701 E142.69813
G0 F6000 X173.041 Y89.701
G0 X173.041 Y88.994
G0 X173.14 Y88.994
G1 F1800 X167.611 Y83.466 E142.82069
G0 F6000 X167.635 Y83.563
G0 X168.026 Y83.466
G0 X168.196 Y83.406
G0 X168.164 Y83.312
G1 F1800 X173.14 Y88.287 E142.93099
G0 F6000 X173.041 Y88.287
G0 X173.041 Y87.58
G0 X173.14 Y87.58
G1 F1800 X168.69 Y83.131 E143.02962
G0 F6000 X168.722 Y83.226
G0 X169.056 Y83.112
G0 X169.246 Y83.032
G0 X169.209 Y82.942
G1 F1800 X173.14 Y86.873 E143.11677
G0 F6000 X173.041 Y86.873
G0 X173.041 Y86.165
G0 X173.14 Y86.165
G1 F1800 X169.709 Y82.735 E143.19282
G0 F6000 X169.746 Y82.826
G0 X170.294 Y82.602
G0 X170.248 Y82.619
G0 X170.212 Y82.531
G1 F1800 X173.14 Y85.458 E143.25772
G0 F6000 X173.041 Y85.458
G0 X173.041 Y84.751
G0 X173.14 Y84.751
G1 F1800 X170.653 Y82.264 E143.31285
G0 F6000 X170.705 Y82.349
G0 X170.762 Y82.315
G0 X171.131 Y82.06
G0 X171.074 Y81.979
G1 F1800 X173.14 Y84.044 E143.35864
G0 F6000 X173.041 Y84.044
G0 X173.041 Y83.337
G0 X173.14 Y83.337
G1 F1800 X171.594 Y81.791 E143.39291
G0 F6000 X171.635 Y81.882
G0 X172.121 Y81.662
G0 X172.08 Y81.57
G1 F1800 X173.14 Y82.63 E143.41641
G0 F6000 X173.041 Y82.63
G0 X173.041 Y81.923
G0 X173.14 Y81.923
G1 F1800 X172.539 Y81.322 E143.42973
G0 F6000 X172.587 Y81.409
G0 X172.603 Y81.401
G0 X173.006 Y81.135
G0 X172.968 Y81.045
G1 F1800 X173.14 Y81.216 E143.43353
G1 F3000 E136.43353
G0 F6000 X173.041 Y81.216
G0 X157.494 Y109.981
G0 X157.412 Y110.036
G1 F3000 E143.43353
G1 F1800 X160.186 Y112.81 E143.49503
G0 F6000 X160.157 Y112.715
G0 X159.607 Y112.827
G0 X159.593 Y112.924
G1 F1800 X157.879 Y111.21 E143.53303
; Layer Change GCode
; LAYER:3
G0 F6000 X157.879 Y111.21 Z1.02
G0 X157.979 Y111.201
G0 X157.976 Y111.155
G0 X157.833 Y110.488
G0 X157.266 Y109.639
G0 X152.921 Y108.296
G0 X152.07 Y108.345
G0 X151.568 Y108.42
G0 X150.206 Y109.074
G0 X144.992 Y118.779
G0 X144.795 Y119.238
; TYPE:WALL-OUTER
G1 F1800 X144.028 Y119.541 E143.54595
G1 X143.733 Y119.704 E143.55124
G1 X142.7 Y119.639 E143.56746
G1 X141.938 Y119.546 E143.57949
G1 X141.664 Y119.045 E143.58845
G1 X141.595 Y118.744 E143.59329
G1 X141.634 Y117.769 E143.60858
G1 X141.605 Y116.779 E143.62411
G1 X141.642 Y116.422 E143.62973
G1 X141.735 Y116.122 E143.63466
G1 X141.793 Y115.665 E143.64188
G1 X141.876 Y114.834 E143.65497
G1 X141.967 Y114.764 E143.65677
G1 X142.36 Y114.282 E143.66652
G1 X142.66 Y113.822 E143.67513
G1 X142.506 Y112.951 E143.68899
G1 X142.299 Y111.466 E143.71249
G1 X142.083 Y110.564 E143.72703
G1 X141.823 Y110.337 E143.73244
G1 X141.622 Y110.449 E143.73605
G1 X141.223 Y110.526 E143.74242
G1 X140.874 Y110.643 E143.74819
G1 X140.624 Y110.647 E143.75211
G1 X140.054 Y110.819 E143.76144
G1 X139.649 Y110.829 E143.76779
G1 X138.831 Y110.818 E143.78062
G1 X138.655 Y110.764 E143.7835
G1 X138.271 Y110.562 E143.7903
G1 X138.143 Y110.45 E143.79297
G1 X137.811 Y109.879 E143.80332
G1 X137.758 Y109.708 E143.80613
G1 X137.61 Y108.788 E143.82074
G1 X137.691 Y108.545 E143.82475
G1 X138.043 Y107.951 E143.83558
G1 X138.101 Y107.753 E143.83881
G1 X138.187 Y106.969 E143.85117
G1 X138.237 Y106.781 E143.85422
G1 X138.194 Y106.508 E143.85856
G1 X137.963 Y106.172 E143.86495
G1 X137.509 Y105.925 E143.87305
G1 X136.791 Y105.663 E143.88503
G1 X135.84 Y105.562 E143.90002
G1 X134.844 Y105.25 E143.91638
G1 X134.497 Y105.205 E143.92187
G1 X134.133 Y105.199 E143.92757
G1 X133.721 Y105.132 E143.93412
G1 X133.402 Y105.389 E143.94054
G1 X132.975 Y105.994 E143.95215
G1 X132.573 Y106.477 E143.962
G1 X132.047 Y107.007 E143.9737
G1 X131.704 Y107.293 E143.9807
G1 X130.891 Y107.273 E143.99345
G1 X130.596 Y107 E143.99975
G1 X130.261 Y106.442 E144.00995
G1 X130.12 Y105.756 E144.02093
G1 X130.029 Y105.44 E144.02609
G1 X129.816 Y104.852 E144.03589
G1 X129.655 Y104.616 E144.04037
G1 X129.329 Y104.236 E144.04822
G1 X128.884 Y103.831 E144.05765
G1 X128.632 Y103.568 E144.06336
G1 X128.174 Y103.31 E144.0716
G1 X127.903 Y103.11 E144.07688
G1 X127.445 Y102.982 E144.08433
G1 X127.182 Y102.818 E144.08919
G1 X126.96 Y102.712 E144.09305
G1 X126.601 Y102.074 E144.10452
G1 X126.466 Y101.736 E144.11023
G1 X126.523 Y101.3 E144.11712
G1 X126.612 Y100.829 E144.12463
G1 X126.699 Y100.579 E144.12878
G1 X126.954 Y100.267 E144.1351
G1 X127.066 Y100.205 E144.13711
G1 X127.866 Y100.09 E144.14977
G1 X128.62 Y100.185 E144.16169
G1 X128.905 Y100.163 E144.16617
G1 X129.358 Y99.986 E144.17379
G1 X130.261 Y99.321 E144.19137
G1 X130.885 Y98.962 E144.20266
G1 X131.747 Y98.856 E144.21627
G1 X131.996 Y98.991 E144.22071
G1 X132.474 Y99.197 E144.22887
G1 X132.684 Y99.326 E144.23273
G1 X133.843 Y99.708 E144.25186
G1 X134.298 Y99.348 E144.26096
G1 X134.899 Y99.015 E144.27173
G1 X135.867 Y98.767 E144.28739
G1 X136.426 Y98.555 E144.29676
G1 X136.819 Y98.44 E144.30318
G1 X137.257 Y98.47 E144.31006
G1 X137.378 Y98.446 E144.312
G1 X137.812 Y98.496 E144.31885
G1 X138.247 Y98.372 E144.32594
G1 X138.967 Y98.038 E144.33838
G1 X139.086 Y97.837 E144.34204
G1 X139.1 Y95.696 E144.3756
G1 X139.038 Y95.164 E144.384
G1 X138.911 Y94.625 E144.39268
G1 X138.341 Y94.183 E144.40398
G1 X137.862 Y93.746 E144.41415
G1 X137.842 Y93.706 E144.41485
G1 X137.814 Y92.514 E144.43354
G1 X137.72 Y92.058 E144.44084
G1 X137.71 Y91.813 E144.44468
G1 X137.776 Y91.655 E144.44736
G1 X138.352 Y90.853 E144.46284
G1 X138.395 Y89.813 E144.47916
G1 X138.557 Y89.314 E144.48738
G1 X138.689 Y88.821 E144.49538
G1 X138.738 Y88.528 E144.50004
G1 X138.946 Y87.832 E144.51143
G1 X139.656 Y87.704 E144.52274
G1 X140.148 Y87.676 E144.53046
G1 X140.681 Y87.667 E144.53882
G1 X140.753 Y87.747 E144.5405
G1 X140.845 Y87.915 E144.54351
G1 X141.236 Y88.338 E144.55254
G1 X141.681 Y88.69 E144.56143
G1 X141.979 Y88.755 E144.56621
G1 X142.727 Y89.015 E144.57862
G1 X143.464 Y89.198 E144.59053
G1 X143.59 Y89.32 E144.59328
G1 X143.891 Y89.854 E144.60289
G1 X144.171 Y90.8 E144.61835
G1 X144.158 Y91.175 E144.62423
G1 X144.228 Y91.478 E144.62911
G1 X144.205 Y91.851 E144.63497
G1 X144.394 Y92.08 E144.63962
G1 X144.583 Y92.498 E144.64681
G1 X144.819 Y92.725 E144.65194
G1 X145.031 Y92.979 E144.65713
G1 X145.51 Y93.16 E144.66516
G1 X145.663 Y93.264 E144.66806
G1 X146.102 Y93.492 E144.67581
G1 X146.466 Y93.952 E144.68501
G1 X146.615 Y94.241 E144.6901
G1 X147.243 Y94.457 E144.70051
G1 X147.725 Y94.664 E144.70874
G1 X148.065 Y94.706 E144.71411
G1 X148.809 Y94.852 E144.72599
G1 X149.951 Y94.46 E144.74492
G1 X150.329 Y93.901 E144.7555
G1 X150.575 Y93.482 E144.76311
G1 X151.011 Y92.918 E144.77429
G1 X151.315 Y92.216 E144.78628
G1 X151.568 Y91.921 E144.79237
G1 X151.717 Y91.705 E144.79648
G1 X151.937 Y91.568 E144.80055
G1 X152.247 Y91.312 E144.80685
G1 X152.888 Y91.045 E144.81773
G1 X153.144 Y91.014 E144.82178
G1 X154.074 Y90.778 E144.83682
G1 X154.538 Y90.711 E144.84417
G1 X154.871 Y90.622 E144.84957
G1 X155.931 Y90.185 E144.86754
G1 X156.041 Y90.077 E144.86996
G1 X156.267 Y89.964 E144.87392
G1 X156.594 Y89.518 E144.88259
G1 X157.07 Y88.945 E144.89426
G1 X157.163 Y88.805 E144.8969
G1 X157.121 Y88.679 E144.89898
G1 X157.256 Y87.988 E144.91002
G1 X157.226 Y87.768 E144.9135
G1 X157.369 Y86.824 E144.92846
G1 X157.589 Y85.857 E144.94401
G1 X157.708 Y85.635 E144.94796
G1 X157.988 Y85.373 E144.95397
G1 X158.28 Y84.878 E144.96298
G1 X158.49 Y84.349 E144.9719
G1 X158.811 Y83.732 E144.9828
G1 X158.928 Y83.607 E144.98549
G1 X159.844 Y83.332 E145.00048
G1 X160.747 Y83.187 E145.01481
G1 X161.032 Y83.342 E145.0199
G1 X161.213 Y83.413 E145.02295
G1 X161.662 Y83.903 E145.03337
G1 X162.226 Y84.015 E145.04238
G1 X162.638 Y84.063 E145.04888
G1 X162.68 Y84.095 E145.04971
G1 X162.872 Y84.144 E145.05281
G1 X163.514 Y84.233 E145.06297
G1 X163.764 Y84.317 E145.06711
G1 X164.875 Y84.189 E145.08464
G1 X165.01 Y84.106 E145.08712
G1 X165.299 Y84 E145.09195
G1 X165.898 Y83.734 E145.10222
G1 X166.414 Y83.474 E145.11128
G1 X166.901 Y83.296 E145.11941
G1 X167.074 Y83.189 E145.1226
G1 X167.884 Y82.986 E145.13569
G1 X168.878 Y82.644 E145.15216
G1 X169.419 Y82.428 E145.1613
G1 X170.057 Y82.16 E145.17214
G1 X170.523 Y81.873 E145.18072
G1 X170.907 Y81.608 E145.18804
G1 X171.413 Y81.434 E145.19642
G1 X171.97 Y81.18 E145.20602
G1 X172.333 Y80.979 E145.21252
G1 X172.664 Y80.738 E145.21894
G1 X173.541 Y80.375 E145.23382
G1 X173.541 Y113.727 E145.75663
G1 X172.629 Y113.691 E145.77094
G1 X171.901 Y113.685 E145.78235
G1 X170.733 Y113.537 E145.8008
G1 X170.106 Y113.936 E145.81245
G1 X169.791 Y113.988 E145.81746
G1 X168.299 Y113.746 E145.84115
G1 X167.827 Y113.651 E145.8487
G1 X167.396 Y113.223 E145.85822
G1 X167.159 Y112.749 E145.86653
G1 X166.977 Y112.439 E145.87216
G1 X166.459 Y112.098 E145.88188
G1 X165.94 Y111.322 E145.89652
G1 X164.806 Y111.13 E145.91455
G1 X163.734 Y111.13 E145.93135
G1 X163.44 Y111.272 E145.93647
G1 X162.622 Y111.563 E145.95008
G1 X162.226 Y112.232 E145.96226
G1 X161.795 Y112.602 E145.97117
G1 X161.469 Y112.752 E145.97679
G1 X161.124 Y112.968 E145.98317
G1 X160.559 Y113.112 E145.99231
G1 X159.772 Y113.356 E146.00523
G1 X159.099 Y113.262 E146.01588
G1 X158.865 Y113.205 E146.01966
G1 X158.454 Y113.036 E146.02662
G1 X157.996 Y112.571 E146.03685
G1 X157.65 Y112.023 E146.04701
G1 X157.526 Y111.708 E146.05232
G1 X157.484 Y111.265 E146.0593
G1 X157.422 Y111.094 E146.06215
G1 X157.356 Y110.673 E146.06883
G1 X156.953 Y110.067 E146.08023
G1 X155.165 Y109.523 E146.10953
G1 X154.853 Y109.483 E146.11446
G1 X154.787 Y109.459 E146.11556
G1 X154.067 Y109.359 E146.12696
G1 X153.913 Y109.229 E146.13012
G1 X153.361 Y109.06 E146.13917
G1 X152.834 Y108.809 E146.14832
G1 X152.449 Y108.852 E146.15439
G1 X152.103 Y108.846 E146.15981
G1 X151.717 Y108.903 E146.16593
G1 X150.603 Y109.438 E146.1853
G1 X150.494 Y109.668 E146.18929
G1 X150.099 Y110.655 E146.20596
G1 X149.558 Y111.527 E146.22204
G1 X149.296 Y112.599 E146.23934
G1 X149.1 Y113.21 E146.2494
G1 X148.862 Y113.676 E146.2576
G1 X148.793 Y113.921 E146.26159
G1 X148.561 Y114.402 E146.26996
G1 X148.474 Y114.637 E146.27389
G1 X147.991 Y115.742 E146.29279
G1 X148.097 Y116.23 E146.30062
G1 X148.092 Y116.332 E146.30222
G1 X148.209 Y117.12 E146.31471
G1 X148.226 Y117.473 E146.32025
G1 X148.264 Y117.767 E146.3249
G1 X148.135 Y118.703 E146.33971
G1 X147.991 Y119.07 E146.34589
G1 X147.656 Y119.524 E146.35473
G1 X146.655 Y119.622 E146.3705
G1 X145.99 Y119.742 E146.38109
G1 X145.85 Y119.75 E146.38329
G1 X145.514 Y119.547 E146.38944
G1 X144.795 Y119.238 E146.40171
G0 F6000 X144.992 Y118.779
G0 X144.941 Y118.757
G0 X144.902 Y118.848
; TYPE:FILL
G1 F1800 X147.657 Y116.093 E146.46278
G0 F6000 X147.561 Y116.113
G0 X147.594 Y116.273
G0 X147.59 Y116.357
G0 X147.647 Y116.727
G0 X147.744 Y116.713
G1 F1800 X145.396 Y119.061 E146.51484
G0 F6000 X145.435 Y118.97
G0 X145.737 Y119.099
G0 X145.92 Y119.208
G0 X145.869 Y119.295
G1 F1800 X147.819 Y117.345 E146.55806
G0 F6000 X147.72 Y117.349
G0 X147.723 Y118.038
G0 X147.82 Y118.051
G1 F1800 X146.651 Y119.22 E146.58398
G0 F6000 X146.642 Y119.123
G0 X147.385 Y119.049
G0 X147.436 Y119.142
G1 F1800 X147.447 Y119.131 E146.58422
G0 F6000 X147.385 Y119.049
G0 X146.586 Y119.127
G0 X145.969 Y119.237
G0 X145.85 Y119.463
G1 F1800 X145.794 Y119.41 E146.58454
G0 F6000 X145.916 Y119.205
G0 X145.737 Y119.099
G0 X144.803 Y118.697
G0 X143.835 Y119.08
G0 X143.871 Y119.172
G1 F1800 X147.749 Y115.293 E146.67053
G0 F6000 X147.657 Y115.254
G0 X148.108 Y114.191
G0 X148.196 Y114.01
G0 X148.284 Y114.052
G1 F1800 X143.074 Y119.262 E146.78602
G0 F6000 X143.08 Y119.163
G0 X142.757 Y119.141
G0 X142.438 Y119.103
G0 X142.426 Y119.202
G1 F1800 X148.802 Y112.827 E146.92736
G0 F6000 X148.708 Y112.797
G0 X148.957 Y111.877
G0 X148.969 Y111.835
G0 X149.063 Y111.858
G1 F1800 X142.037 Y118.885 E147.08312
G0 F6000 X142.135 Y118.865
G0 X142.116 Y118.202
G0 X142.016 Y118.198
G1 F1800 X149.736 Y110.479 E147.25425
G0 F6000 X149.653 Y110.425
G0 X150.144 Y109.228
G0 X150.24 Y109.267
G1 F1800 X142.025 Y117.482 E147.43637
G0 F6000 X142.125 Y117.48
G0 X142.105 Y116.796
G0 X142.005 Y116.795
G1 F1800 X173.14 Y85.661 E148.12657
G0 F6000 X173.041 Y85.661
G0 X173.041 Y86.368
G0 X173.14 Y86.368
G1 F1800 X150.432 Y109.076 E148.62997
G0 F6000 X150.39 Y108.987
G0 X151.568 Y108.42
G0 X151.702 Y108.4
G0 X151.716 Y108.498
G1 F1800 X173.14 Y87.075 E149.1049
G0 F6000 X173.041 Y87.075
G0 X173.041 Y87.782
G0 X173.14 Y87.782
G1 F1800 X152.476 Y108.446 E149.56299
G0 F6000 X152.466 Y108.348
G0 X152.921 Y108.296
G0 X153.167 Y108.414
G0 X153.124 Y108.504
G1 F1800 X173.14 Y88.489 E150.0067
G0 F6000 X173.041 Y88.489
G0 X173.041 Y89.196
G0 X173.14 Y89.196
G1 F1800 X153.616 Y108.719 E150.43951
G0 F6000 X153.645 Y108.625
G0 X154.157 Y108.781
G0 X154.207 Y108.824
G0 X154.143 Y108.9
G1 F1800 X173.14 Y89.903 E150.86064
G0 F6000 X173.041 Y89.903
G0 X173.041 Y90.61
G0 X173.14 Y90.61
G1 F1800 X154.707 Y109.043 E151.26927
G0 F6000 X154.72 Y108.945
G0 X154.91 Y108.971
G0 X155.269 Y109.032
G0 X155.337 Y109.054
G0 X155.308 Y109.149
G1 F1800 X173.14 Y91.317 E151.66458
G0 F6000 X173.041 Y91.317
G0 X173.041 Y92.024
G0 X173.14 Y92.024
G1 F1800 X155.851 Y109.313 E152.04785
G0 F6000 X155.879 Y109.219
G0 X155.269 Y109.032
G0 X156.421 Y109.383
G0 X156.392 Y109.479
G1 F1800 X173.14 Y92.732 E152.41912
G0 F6000 X173.041 Y92.732
G0 X173.041 Y93.439
G0 X173.14 Y93.439
G1 F1800 X156.935 Y109.643 E152.77834
G0 F6000 X156.964 Y109.548
G0 X157.266 Y109.639
G0 X157.428 Y109.884
G0 X157.347 Y109.938
G1 F1800 X173.14 Y94.146 E153.12844
G0 F6000 X173.041 Y94.146
G0 X173.041 Y94.853
G0 X173.14 Y94.853
G1 F1800 X157.63 Y110.363 E153.47227
G0 F6000 X157.712 Y110.308
G0 X157.833 Y110.488
G0 X157.895 Y110.888
G0 X157.797 Y110.903
G1 F1800 X173.14 Y95.56 E153.8124
G0 F6000 X173.041 Y95.56
G0 X173.041 Y96.267
G0 X173.14 Y96.267
G1 F1800 X157.907 Y111.5 E154.15009
G0 F6000 X158.007 Y111.491
G0 X158.195 Y111.95
G0 X158.11 Y112.004
G1 F1800 X173.14 Y96.974 E154.48329
G0 F6000 X173.041 Y96.974
G0 X173.041 Y97.681
G0 X173.14 Y97.681
G1 F1800 X158.405 Y112.416 E154.80994
G0 F6000 X158.476 Y112.346
G0 X158.825 Y112.648
G0 X158.787 Y112.741
G1 F1800 X173.14 Y98.388 E155.12812
G0 F6000 X173.041 Y98.388
G0 X173.041 Y99.096
G0 X173.14 Y99.096
G1 F1800 X159.343 Y112.892 E155.43397
G0 F6000 X159.356 Y112.794
G0 X160.082 Y112.738
G0 X160.111 Y112.831
G1 F1800 X173.14 Y99.803 E155.72279
G0 F6000 X173.041 Y99.803
G0 X173.041 Y100.51
G0 X173.14 Y100.51
G1 F1800 X162.45 Y111.199 E155.95976
G0 F6000 X162.417 Y111.106
G0 X162.284 Y111.152
G0 X162.173 Y111.341
G0 X162.259 Y111.391
G1 F1800 X161.205 Y112.444 E155.98312
G0 F6000 X161.153 Y112.361
G0 X161.226 Y112.314
G0 X162.284 Y111.152
G0 X163.569 Y110.655
G0 X163.612 Y110.744
G1 F1800 X173.14 Y101.217 E156.19433
G0 F6000 X173.041 Y101.217
G0 X173.041 Y101.924
G0 X173.14 Y101.924
G1 F1800 X164.334 Y110.73 E156.38954
G0 F6000 X164.334 Y110.63
G0 X164.854 Y110.63
G0 X165.027 Y110.66
G0 X165.011 Y110.759
G1 F1800 X173.14 Y102.631 E156.56974
G0 F6000 X173.041 Y102.631
G0 X173.041 Y103.338
G0 X173.14 Y103.338
G1 F1800 X165.616 Y110.862 E156.73653
G0 F6000 X165.632 Y110.762
G0 X166.235 Y110.863
G0 X166.281 Y110.932
G0 X166.197 Y110.988
G1 F1800 X173.14 Y104.045 E156.89045
G0 F6000 X173.041 Y104.045
G0 X173.041 Y104.752
G0 X173.14 Y104.752
G1 F1800 X166.481 Y111.411 E157.03807
G0 F6000 X166.564 Y111.356
G0 X166.82 Y111.738
G0 X166.827 Y111.744
G0 X166.773 Y111.826
G1 F1800 X173.14 Y105.46 E157.1792
G0 F6000 X173.041 Y105.46
G0 X173.041 Y106.167
G0 X173.14 Y106.167
G1 F1800 X167.2 Y112.106 E157.31087
G0 F6000 X167.253 Y112.025
G0 X167.349 Y112.086
G0 X167.577 Y112.473
G0 X167.49 Y112.524
G1 F1800 X173.14 Y106.874 E157.43612
G0 F6000 X173.041 Y106.874
G0 X173.041 Y107.581
G0 X173.14 Y107.581
G1 F1800 X167.73 Y112.99 E157.55604
G0 F6000 X167.806 Y112.925
G0 X168.149 Y113.202
G0 X168.127 Y113.301
G1 F1800 X173.14 Y108.288 E157.66718
G0 F6000 X173.041 Y108.288
G0 X173.041 Y108.995
G0 X173.14 Y108.995
G1 F1800 X168.731 Y113.403 E157.7649
G0 F6000 X168.745 Y113.314
G0 X169.791 Y113.482
G0 X169.352 Y113.412
G0 X169.337 Y113.505
G1 F1800 X173.14 Y109.702 E157.84921
G0 F6000 X173.041 Y109.702
G0 X173.041 Y110.409
G0 X173.14 Y110.409
G1 F1800 X170.058 Y113.491 E157.91753
G0 F6000 X170.006 Y113.409
G0 X170.616 Y113.018
G0 X171.09 Y113.079
G0 X171.078 Y113.178
G1 F1800 X173.14 Y111.116 E157.96325
G0 F6000 X173.041 Y111.116
G0 X173.041 Y111.823
G0 X173.14 Y111.823
G1 F1800 X171.706 Y113.257 E157.99504
G0 F6000 X171.718 Y113.158
G0 X172.377 Y113.189
G0 X172.377 Y113.294
G1 F1800 X173.14 Y112.531 E158.01195
G0 F6000 X173.041 Y112.531
G0 X173.041 Y113.206
G0 X173.14 Y113.238
G1 F1800 X173.07 Y113.307 E158.01349
G1 F3000 E151.01349
G0 F6000 X173.041 Y113.206
G0 X173.041 Y84.953
G0 X173.14 Y84.953
G1 F3000 E158.01349
G1 F1800 X142.157 Y115.936 E158.70034
G0 F6000 X142.256 Y115.946
G0 X142.343 Y115.094
G0 X142.336 Y115.149
G0 X142.246 Y115.14
G1 F1800 X173.14 Y84.246 E159.38521
G0 F6000 X173.041 Y84.246
G0 X173.041 Y83.539
G0 X173.14 Y83.539
G1 F1800 X143.034 Y113.645 E160.05261
G0 F6000 X143.133 Y113.628
G0 X143.003 Y112.891
G0 X143.026 Y113.028
G0 X142.927 Y113.045
G1 F1800 X173.14 Y82.832 E160.72239
G0 F6000 X173.041 Y82.832
G0 X173.041 Y82.125
G0 X173.14 Y82.125
G1 F1800 X142.835 Y112.429 E161.39419
G0 F6000 X142.936 Y112.415
G0 X142.79 Y111.368
G0 X142.849 Y111.796
G0 X142.749 Y111.809
G1 F1800 X173.14 Y81.418 E162.06791
G0 F6000 X173.041 Y81.418
G0 X172.567 Y81.42
G0 X172.519 Y81.332
G1 F1800 X142.646 Y111.204 E162.73014
G0 F6000 X142.744 Y111.181
G0 X142.608 Y110.61
G0 X142.511 Y110.633
G1 F1800 X171.221 Y81.922 E163.36661
G0 F6000 X171.253 Y82.017
G0 X170.295 Y82.601
G0 X169.735 Y82.831
G0 X169.697 Y82.739
G1 F1800 X142.254 Y110.182 E163.97498
G0 F6000 X142.319 Y110.107
G0 X141.886 Y109.73
G0 X141.94 Y109.779
G0 X141.876 Y109.853
G1 F1800 X168.55 Y83.179 E164.5663
G0 F6000 X168.582 Y83.274
G0 X168.026 Y83.466
G0 X167.562 Y83.581
G0 X167.538 Y83.484
G1 F1800 X140.777 Y110.245 E165.15955
G0 F6000 X140.776 Y110.145
G0 X140.547 Y110.148
G0 X139.894 Y110.318
G0 X139.894 Y110.421
G1 F1800 X166.373 Y83.942 E165.74655
G0 F6000 X166.417 Y84.031
G0 X166.112 Y84.186
G0 X165.486 Y84.464
G0 X165.124 Y84.623
G0 X165.071 Y84.537
G1 F1800 X139.189 Y110.419 E166.32031
G0 F6000 X139.189 Y110.318
G0 X138.659 Y110.201
G0 X138.614 Y110.286
G1 F1800 X164.236 Y84.664 E166.88831
G0 F6000 X164.247 Y84.764
G0 X163.71 Y84.826
G0 X163.502 Y84.754
G0 X163.533 Y84.661
G1 F1800 X138.29 Y109.903 E167.4479
G0 F6000 X138.374 Y109.854
G0 X138.211 Y109.373
G0 X138.207 Y109.363
G0 X138.109 Y109.378
G1 F1800 X162.931 Y84.555 E167.99817
G0 F6000 X162.918 Y84.654
G0 X162.775 Y84.635
G0 X162.332 Y84.53
G0 X162.343 Y84.437
G1 F1800 X156.612 Y90.167 E168.12521
G0 F6000 X156.694 Y90.227
G0 X156.6 Y90.357
G0 X156.516 Y90.398
G0 X156.471 Y90.308
G1 F1800 X138.05 Y108.729 E168.53357
G0 F6000 X138.147 Y108.761
G0 X138.505 Y108.152
G0 X138.593 Y107.852
G0 X138.624 Y107.558
G0 X138.525 Y107.548
G1 F1800 X155.12 Y90.952 E168.90147
G0 F6000 X155.158 Y91.044
G0 X155.032 Y91.097
G0 X154.639 Y91.202
G0 X154.216 Y91.262
G0 X154.202 Y91.163
G1 F1800 X138.633 Y106.732 E169.24661
G0 F6000 X138.732 Y106.717
G0 X138.67 Y106.318
G0 X138.546 Y106.138
G0 X138.463 Y106.195
G1 F1800 X149.684 Y94.974 E169.49536
G0 F6000 X149.716 Y95.069
G0 X148.844 Y95.369
G0 X148.691 Y95.338
G0 X148.71 Y95.24
G1 F1800 X138.138 Y105.812 E169.72973
G0 F6000 X138.185 Y105.725
G0 X137.716 Y105.468
G0 X137.727 Y105.476
G0 X137.68 Y105.563
G1 F1800 X148.119 Y95.124 E169.96115
G0 F6000 X148.1 Y95.223
G0 X147.593 Y95.151
G0 X147.485 Y95.104
G0 X147.523 Y95.013
G1 F1800 X137.163 Y105.373 E170.19081
G0 F6000 X137.197 Y105.28
G0 X136.904 Y105.172
G0 X136.601 Y105.141
G0 X136.591 Y105.239
G1 F1800 X147.025 Y94.805 E170.42212
G0 F6000 X146.993 Y94.899
G0 X146.262 Y94.648
G0 X146.467 Y94.718
G0 X146.499 Y94.624
G1 F1800 X135.951 Y105.171 E170.65594
G0 F6000 X135.961 Y105.073
G0 X135.437 Y104.914
G0 X135.408 Y105.007
G1 F1800 X146.168 Y94.248 E170.89446
G0 F6000 X146.08 Y94.294
G0 X145.79 Y93.901
G0 X145.867 Y93.841
G1 F1800 X134.86 Y104.849 E171.13848
G0 F6000 X134.872 Y104.75
G0 X134.533 Y104.706
G0 X134.202 Y104.701
G0 X134.201 Y104.801
G1 F1800 X145.419 Y93.582 E171.38718
G0 F6000 X145.363 Y93.664
G0 X144.892 Y93.46
G0 X144.927 Y93.367
G1 F1800 X133.492 Y104.802 E171.64067
G0 F6000 X133.43 Y104.725
G0 X133.034 Y105.044
G0 X132.844 Y105.314
G0 X132.924 Y105.37
G1 F1800 X131.409 Y106.885 E171.67426
G0 F6000 X131.411 Y106.786
G0 X130.969 Y106.652
G0 X130.884 Y106.703
G1 F1800 X139.233 Y98.354 E171.85934
G0 F6000 X139.256 Y98.33
G1 F1800 X144.554 Y93.033 E171.97678
G0 F6000 X144.478 Y93.096
G0 X144.167 Y92.791
G0 X144.128 Y92.703
G0 X144.217 Y92.663
G1 F1800 X139.487 Y97.393 E172.08164
G0 F6000 X139.588 Y97.393
G0 X139.585 Y97.976
G0 X139.593 Y96.681
G0 X139.492 Y96.681
G1 F1800 X143.973 Y92.2 E172.18097
G0 F6000 X143.898 Y92.262
G0 X143.694 Y92.016
G0 X143.717 Y91.645
G0 X143.816 Y91.65
G1 F1800 X139.497 Y95.969 E172.27672
G0 F6000 X139.598 Y95.969
G0 X139.6 Y95.669
G0 X139.555 Y95.291
G0 X139.457 Y95.302
G1 F1800 X143.762 Y90.996 E172.37216
G0 F6000 X143.664 Y90.993
G0 X143.544 Y90.44
G0 X143.638 Y90.413
G1 F1800 X139.341 Y94.71 E172.46742
G0 F6000 X139.438 Y94.688
G0 X139.357 Y94.338
G0 X139.149 Y94.177
G0 X139.088 Y94.256
G1 F1800 X143.452 Y89.892 E172.56417
G0 F6000 X143.365 Y89.94
G0 X143.091 Y89.619
G0 X143.114 Y89.523
G1 F1800 X138.69 Y93.947 E172.66224
G0 F6000 X138.75 Y93.869
G0 X138.664 Y93.801
G0 X138.38 Y93.543
G0 X138.314 Y93.616
G1 F1800 X142.552 Y89.379 E172.75618
G0 F6000 X142.52 Y89.472
G0 X141.995 Y89.29
G0 X142.028 Y89.195
G1 F1800 X138.225 Y92.998 E172.84048
G0 F6000 X138.325 Y92.996
G0 X138.313 Y92.457
G0 X138.282 Y92.312
G0 X138.184 Y92.332
G1 F1800 X141.476 Y89.04 E172.91346
G0 F6000 X141.416 Y89.116
G0 X140.895 Y88.706
G0 X141.021 Y88.803
G0 X141.081 Y88.727
G1 F1800 X138.554 Y91.255 E172.96949
G0 F6000 X138.636 Y91.313
G0 X138.845 Y91.023
G0 X138.873 Y90.333
G0 X138.773 Y90.329
G1 F1800 X140.729 Y88.373 E173.01286
G0 F6000 X140.654 Y88.442
G0 X140.436 Y88.208
G0 X140.322 Y88.182
G0 X140.319 Y88.075
G1 F1800 X138.925 Y89.469 E173.04376
G0 F6000 X139.021 Y89.5
G0 X139.036 Y89.456
G0 X139.178 Y88.927
G0 X139.248 Y88.564
G0 X139.152 Y88.536
G1 F1800 X139.56 Y88.127 E173.05281
G0 F6000 X139.577 Y88.225
G0 X138.775 Y93.886
G0 X139.357 Y94.338
G0 X139.531 Y95.077
G0 X139.6 Y95.669
G0 X139.585 Y97.976
G0 X139.318 Y98.426
G0 X138.422 Y98.842
G0 X138.058 Y98.945
G0 X138.031 Y98.849
G1 F1800 X130.628 Y106.251 E173.21692
G0 F6000 X130.727 Y106.231
G0 X130.606 Y105.636
G0 X130.606 Y105.644
G0 X130.509 Y105.664
G1 F1800 X137.305 Y98.867 E173.36758
G0 F6000 X137.324 Y98.966
G0 X137.29 Y98.973
G0 X136.578 Y99.031
G0 X136.554 Y99.039
G0 X136.519 Y98.946
G1 F1800 X130.34 Y105.126 E173.50457
G0 F6000 X130.434 Y105.092
G0 X130.265 Y104.622
G0 X130.223 Y104.562
G0 X130.14 Y104.619
G1 F1800 X135.481 Y99.277 E173.62299
G0 F6000 X135.506 Y99.374
G0 X134.175 Y100.083
G0 X133.939 Y100.27
G0 X133.87 Y100.246
G0 X133.902 Y100.149
G1 F1800 X129.836 Y104.215 E173.71312
G0 F6000 X129.912 Y104.15
G0 X129.688 Y103.887
G0 X129.563 Y103.775
G0 X129.496 Y103.848
G1 F1800 X133.37 Y99.974 E173.799
G0 F6000 X133.339 Y100.069
G0 X132.471 Y99.783
G0 X132.808 Y99.893
G0 X132.839 Y99.798
G1 F1800 X129.129 Y103.509 E173.88126
G0 F6000 X129.201 Y103.44
G0 X128.942 Y103.169
G0 X128.801 Y103.091
G0 X128.753 Y103.177
G1 F1800 X132.343 Y99.587 E173.96084
G0 F6000 X132.291 Y99.671
G0 X131.821 Y99.459
G0 X131.864 Y99.359
G1 F1800 X128.31 Y102.913 E174.03963
G0 F6000 X128.368 Y102.834
G0 X128.126 Y102.653
G0 X127.865 Y102.581
G0 X127.839 Y102.676
G1 F1800 X131.189 Y99.327 E174.11388
G0 F6000 X131.201 Y99.427
G0 X129.598 Y100.431
G0 X129.452 Y100.487
G0 X129.416 Y100.393
G1 F1800 X127.347 Y102.461 E174.15974
G0 F6000 X127.393 Y102.364
G0 X127.145 Y102.015
G0 X127.136 Y102.003
G0 X127.048 Y102.053
G1 F1800 X128.526 Y100.576 E174.19249
G0 F6000 X128.514 Y100.675
G0 X127.865 Y100.594
G0 X127.885 Y100.596
G0 X127.897 Y100.497
G1 F1800 X126.9 Y101.495 E174.21461
G1 F3000 E167.21461
G0 F6000 X127 Y101.507
G0 X133.939 Y100.27
G0 X138.422 Y98.842
G0 X148.844 Y95.369
G0 X150.272 Y94.879
G0 X150.752 Y94.168
G0 X150.926 Y93.87
G0 X150.839 Y93.819
G1 F3000 E174.21461
G1 F1800 X153.261 Y91.397 E174.2683
G0 F6000 X153.285 Y91.494
G0 X154.639 Y91.202
G0 X155.032 Y91.097
G0 X156.21 Y90.61
G0 X156.6 Y90.357
G0 X157.73 Y88.924
G0 X157.659 Y88.531
G0 X157.561 Y88.512
G1 F1800 X161.745 Y84.328 E174.36105
G0 F6000 X161.726 Y84.425
G0 X161.404 Y84.362
G0 X161.21 Y84.148
G0 X161.283 Y84.082
G1 F1800 X157.636 Y87.73 E174.44191
G0 F6000 X157.733 Y87.744
G0 X157.861 Y86.911
G0 X157.762 Y86.896
G1 F1800 X160.93 Y83.728 E174.51214
G0 F6000 X160.893 Y83.825
G0 X160.302 Y83.764
G0 X160.286 Y83.665
G1 F1800 X157.981 Y85.97 E174.56324
G0 F6000 X158.069 Y86.017
G0 X158.109 Y85.945
G0 X158.382 Y85.689
G0 X158.731 Y85.099
G0 X158.947 Y84.552
G0 X159.076 Y84.3
G0 X158.989 Y84.255
G1 F1800 X159.345 Y83.898 E174.57114
; Layer Change GCode
; LAYER:4
G1 F3000 E167.57114
G0 F6000 X159.345 Y83.898 Z1.22
G0 X159.374 Y83.994
G0 X158.864 Y84.763
G0 X157.73 Y88.924
G0 X142.15 Y109.96
G0 X141.823 Y110.337
; TYPE:WALL-OUTER
G1 F3000 E174.57114
G1 F1800 X141.622 Y110.449 E174.57475
G1 X141.223 Y110.526 E174.58112
G1 X140.874 Y110.643 E174.58689
G1 X140.624 Y110.647 E174.59081
G1 X140.052 Y110.819 E174.60017
G1 X139.781 Y110.835 E174.60443
G1 X138.832 Y110.819 E174.6193
G1 X138.655 Y110.764 E174.62221
G1 X138.271 Y110.562 E174.62901
G1 X138.142 Y110.448 E174.63171
G1 X137.811 Y109.879 E174.64203
G1 X137.758 Y109.708 E174.64484
G1 X137.61 Y108.788 E174.65944
G1 X137.691 Y108.545 E174.66346
G1 X138.039 Y107.962 E174.6741
G1 X138.101 Y107.756 E174.67747
G1 X138.206 Y106.9 E174.69099
G1 X138.237 Y106.781 E174.69292
G1 X138.194 Y106.508 E174.69725
G1 X137.963 Y106.172 E174.70364
G1 X137.51 Y105.925 E174.71173
G1 X136.777 Y105.659 E174.72395
G1 X135.837 Y105.561 E174.73877
G1 X134.844 Y105.25 E174.75508
G1 X134.497 Y105.205 E174.76057
G1 X134.133 Y105.199 E174.76627
G1 X133.721 Y105.132 E174.77281
G1 X133.402 Y105.389 E174.77924
G1 X132.975 Y105.993 E174.79083
G1 X132.565 Y106.484 E174.80086
G1 X132.044 Y107.01 E174.81246
G1 X131.704 Y107.293 E174.8194
G1 X130.891 Y107.273 E174.83215
G1 X130.596 Y107 E174.83845
G1 X130.262 Y106.443 E174.84863
G1 X130.123 Y105.763 E174.85951
G1 X129.816 Y104.852 E174.87458
G1 X129.655 Y104.616 E174.87905
G1 X129.328 Y104.235 E174.88693
G1 X128.899 Y103.847 E174.89599
G1 X128.632 Y103.568 E174.90205
G1 X128.174 Y103.31 E174.91029
G1 X127.903 Y103.11 E174.91557
G1 X127.445 Y102.982 E174.92302
G1 X127.182 Y102.818 E174.92788
G1 X126.959 Y102.712 E174.93175
G1 X126.601 Y102.073 E174.94323
G1 X126.467 Y101.737 E174.9489
G1 X126.612 Y100.829 E174.96331
G1 X126.699 Y100.579 E174.96746
G1 X126.954 Y100.267 E174.97378
G1 X127.069 Y100.203 E174.97584
G1 X127.861 Y100.089 E174.98839
G1 X128.621 Y100.185 E175.00039
G1 X128.92 Y100.159 E175.0051
G1 X129.358 Y99.986 E175.01248
G1 X130.267 Y99.316 E175.03018
G1 X130.888 Y98.962 E175.04139
G1 X131.756 Y98.855 E175.0551
G1 X131.996 Y98.991 E175.05942
G1 X132.473 Y99.197 E175.06757
G1 X132.682 Y99.326 E175.07142
G1 X133.226 Y99.519 E175.08046
G1 X133.843 Y99.709 E175.09058
G1 X134.299 Y99.348 E175.0997
G1 X134.899 Y99.015 E175.11046
G1 X135.867 Y98.767 E175.12612
G1 X136.426 Y98.555 E175.13549
G1 X136.819 Y98.44 E175.14191
G1 X137.257 Y98.47 E175.14879
G1 X137.378 Y98.446 E175.15073
G1 X137.812 Y98.496 E175.15758
G1 X138.249 Y98.372 E175.1647
G1 X139.008 Y98.006 E175.1779
G1 X139.082 Y97.796 E175.18139
G1 X139.1 Y95.696 E175.21431
G1 X139.038 Y95.164 E175.22271
G1 X138.911 Y94.625 E175.23139
G1 X138.341 Y94.183 E175.2427
G1 X137.862 Y93.746 E175.25286
G1 X137.842 Y93.706 E175.25356
G1 X137.814 Y92.514 E175.27225
G1 X137.72 Y92.058 E175.27955
G1 X137.71 Y91.813 E175.28339
G1 X137.776 Y91.655 E175.28608
G1 X138.352 Y90.853 E175.30156
G1 X138.395 Y89.813 E175.31787
G1 X138.558 Y89.312 E175.32613
G1 X138.738 Y88.528 E175.33874
G1 X138.946 Y87.832 E175.35013
G1 X139.685 Y87.7 E175.3619
G1 X140.681 Y87.668 E175.37752
G1 X140.753 Y87.747 E175.37919
G1 X140.845 Y87.915 E175.38219
G1 X141.236 Y88.338 E175.39122
G1 X141.681 Y88.69 E175.40012
G1 X141.979 Y88.755 E175.4049
G1 X142.727 Y89.015 E175.41731
G1 X143.464 Y89.198 E175.42922
G1 X143.593 Y89.322 E175.43202
G1 X143.891 Y89.854 E175.44158
G1 X144.171 Y90.8 E175.45704
G1 X144.158 Y91.175 E175.46293
G1 X144.228 Y91.478 E175.4678
G1 X144.205 Y91.851 E175.47366
G1 X144.394 Y92.08 E175.47831
G1 X144.581 Y92.494 E175.48543
G1 X144.903 Y92.824 E175.49266
G1 X145.031 Y92.978 E175.4958
G1 X145.51 Y93.16 E175.50383
G1 X145.663 Y93.264 E175.50673
G1 X146.101 Y93.492 E175.51447
G1 X146.462 Y93.946 E175.52357
G1 X146.615 Y94.241 E175.52877
G1 X147.243 Y94.457 E175.53919
G1 X147.725 Y94.664 E175.54741
G1 X148.065 Y94.706 E175.55278
G1 X148.809 Y94.852 E175.56466
G1 X149.954 Y94.46 E175.58363
G1 X150.576 Y93.48 E175.60183
G1 X151.011 Y92.921 E175.61293
G1 X151.317 Y92.214 E175.62501
G1 X151.568 Y91.921 E175.63106
G1 X151.717 Y91.705 E175.63517
G1 X151.937 Y91.568 E175.63923
G1 X152.247 Y91.312 E175.64553
G1 X152.888 Y91.045 E175.65642
G1 X153.144 Y91.014 E175.66046
G1 X154.074 Y90.778 E175.6755
G1 X154.538 Y90.711 E175.68285
G1 X154.871 Y90.622 E175.68825
G1 X155.931 Y90.185 E175.70623
G1 X156.041 Y90.077 E175.70864
G1 X156.267 Y89.964 E175.7126
G1 X156.594 Y89.518 E175.72127
G1 X157.065 Y88.951 E175.73283
G1 X157.164 Y88.807 E175.73557
G1 X157.121 Y88.679 E175.73768
G1 X157.256 Y87.988 E175.74872
G1 X157.226 Y87.768 E175.7522
G1 X157.369 Y86.824 E175.76717
G1 X157.589 Y85.857 E175.78271
G1 X157.708 Y85.635 E175.78666
G1 X157.988 Y85.373 E175.79267
G1 X158.28 Y84.878 E175.80168
G1 X158.49 Y84.349 E175.8106
G1 X158.811 Y83.732 E175.8215
G1 X158.928 Y83.607 E175.82419
G1 X159.844 Y83.332 E175.83918
G1 X160.747 Y83.187 E175.85352
G1 X161.032 Y83.342 E175.8586
G1 X161.213 Y83.413 E175.86165
G1 X161.662 Y83.903 E175.87207
G1 X162.226 Y84.015 E175.88108
G1 X162.638 Y84.063 E175.88758
G1 X162.68 Y84.095 E175.88841
G1 X162.872 Y84.144 E175.89152
G1 X163.514 Y84.233 E175.90168
G1 X163.764 Y84.317 E175.90581
G1 X164.875 Y84.189 E175.92334
G1 X165.01 Y84.106 E175.92583
G1 X165.299 Y84 E175.93065
G1 X165.898 Y83.734 E175.94092
G1 X166.414 Y83.474 E175.94998
G1 X166.901 Y83.296 E175.95811
G1 X167.074 Y83.189 E175.9613
G1 X167.884 Y82.986 E175.97439
G1 X168.878 Y82.644 E175.99087
G1 X169.435 Y82.42 E176.00028
G1 X169.877 Y82.216 E176.00791
G1 X170.054 Y82.162 E176.01081
G1 X170.369 Y81.979 E176.01652
G1 X170.903 Y81.611 E176.02669
G1 X171.347 Y81.467 E176.034
G1 X171.985 Y81.172 E176.04502
G1 X172.333 Y80.979 E176.05126
G1 X172.664 Y80.738 E176.05768
G1 X173.541 Y80.374 E176.07256
G1 X173.541 Y113.727 E176.59538
G1 X172.63 Y113.691 E176.60968
G1 X171.884 Y113.683 E176.62137
G1 X170.733 Y113.537 E176.63956
G1 X170.106 Y113.936 E176.65121
G1 X169.791 Y113.987 E176.65621
G1 X167.86 Y113.665 E176.6869
G1 X167.83 Y113.653 E176.6874
G1 X167.395 Y113.222 E176.697
G1 X167.172 Y112.771 E176.70489
G1 X166.977 Y112.439 E176.71092
G1 X166.459 Y112.098 E176.72065
